darkroom/assets/luts/chrome-muted.cube
TITLE "Muted chrome"
# Preset LUT for Lolly Bitmap Studio.
# Derived from sguyader/FilmSim "Classic_Chrome" (CC0 1.0, https://github.com/sguyader/FilmSim),
# resampled from the 144³ HaldCLUT to a 33³ .cube. Public domain — see NOTICE.md.
LUT_3D_SIZE 9
DOMAIN_MIN 0.0 0.0 0.0
DOMAIN_MAX 1.0 1.0 1.0
0.000000 0.000000 0.000000
0.046569 0.000000 0.000000
0.140196 0.026471 0.000000
0.271569 0.037745 0.000000
0.447059 0.000000 0.000000
0.599020 0.017157 0.039216
0.747059 0.083333 0.075490
0.883333 0.125980 0.106373
1.000000 0.160784 0.133333
0.000000 0.065686 0.000000
0.073529 0.066176 0.000000
0.178064 0.096569 0.000000
0.314032 0.050551 0.023407
0.466667 0.030392 0.048529
0.610784 0.070098 0.081863
0.754412 0.109436 0.109314
0.887255 0.145527 0.132843
1.000000 0.176471 0.152941
0.003922 0.182353 0.000000
0.104902 0.178431 0.000000
0.198775 0.194118 0.014461
0.321446 0.225000 0.034314
0.465686 0.269608 0.057353
0.630392 0.170588 0.132353
0.764951 0.171569 0.151961
0.894608 0.187255 0.172549
1.000000 0.203922 0.192157
0.061275 0.326471 0.037745
0.131373 0.318627 0.033824
0.265319 0.334314 0.065196
0.357843 0.350000 0.104412
0.471078 0.369608 0.116667
0.595098 0.398529 0.116176
0.754167 0.376961 0.171936
0.899020 0.279412 0.218137
1.000000 0.269118 0.229902
0.125490 0.458824 0.090196
0.174265 0.454902 0.088235
0.272549 0.445098 0.091667
0.413480 0.472549 0.130637
0.500000 0.490196 0.171569
0.610784 0.509804 0.194118
0.715686 0.514216 0.168137
0.824510 0.535294 0.160539
1.000000 0.427451 0.284314
0.170098 0.577941 0.126961
0.209130 0.574203 0.125490
0.280760 0.559804 0.115196
0.429412 0.581373 0.156373
0.549755 0.600245 0.185049
0.630392 0.618627 0.228002
0.735294 0.634926 0.252451
0.829718 0.626777 0.217157
0.933333 0.640686 0.201471
0.204902 0.688235 0.156863
0.238725 0.687255 0.153064
0.297059 0.672549 0.141422
0.397059 0.660784 0.145098
0.575000 0.715196 0.215686
0.680270 0.723529 0.236765
0.754902 0.739216 0.278431
0.851961 0.753922 0.299020
0.955882 0.752941 0.277451
0.231373 0.792647 0.176471
0.258395 0.789216 0.172549
0.312745 0.781005 0.164828
0.389216 0.761275 0.149020
0.527206 0.767157 0.178431
0.699510 0.828431 0.252757
0.806250 0.844608 0.287255
0.875490 0.859375 0.325551
0.973039 0.875490 0.349020
0.258824 0.898039 0.196078
0.282353 0.898039 0.196078
0.332353 0.890196 0.189216
0.394608 0.868137 0.168627
0.501961 0.858824 0.174510
0.710294 0.934804 0.277451
0.837255 0.960784 0.309804
0.949510 0.980392 0.353431
1.000000 0.988235 0.380392
0.000000 0.000000 0.101471
0.084865 0.000000 0.085294
0.174632 0.007353 0.077083
0.299020 0.012561 0.082169
0.439461 0.107598 0.130637
0.599020 0.121078 0.116360
0.743137 0.169118 0.132843
0.879412 0.207353 0.152451
1.000000 0.234804 0.168137
0.000000 0.077941 0.074020
0.070098 0.070473 0.070044
0.182460 0.076700 0.065686
0.310355 0.095588 0.077290
0.454902 0.130423 0.097273
0.602941 0.171752 0.121078
0.747059 0.206878 0.144240
0.879841 0.234375 0.160723
1.000000 0.257843 0.179473
0.000000 0.186275 0.080515
0.085662 0.186275 0.081740
0.198039 0.194118 0.096201
0.330392 0.232843 0.113189
0.485355 0.201532 0.159743
0.621691 0.223928 0.171492
0.757935 0.251042 0.186795
0.890319 0.273897 0.199449
1.000000 0.293505 0.214338
0.061275 0.330392 0.119301
0.132659 0.330392 0.119608
0.253309 0.329412 0.127941
0.354841 0.350000 0.157904
0.466667 0.365686 0.162745
0.599020 0.401532 0.168137
0.772105 0.316544 0.241667
0.895098 0.307843 0.250797
1.000000 0.317157 0.262255
0.127451 0.462745 0.154167
0.177941 0.462745 0.154167
0.265196 0.450980 0.148529
0.409559 0.473621 0.179902
0.498039 0.490196 0.212255
0.610049 0.507843 0.227543
0.715686 0.516115 0.206924
0.827941 0.539001 0.199724
1.000000 0.409804 0.307353
0.174020 0.583150 0.179902
0.212745 0.581556 0.179902
0.284988 0.570190 0.171829
0.408532 0.565372 0.182353
0.547059 0.600245 0.223039
0.630392 0.618627 0.259919
0.735294 0.634390 0.279718
0.831595 0.628922 0.247878
0.933333 0.641973 0.232353
0.208824 0.692157 0.199510
0.242325 0.692157 0.199510
0.304902 0.684222 0.193382
0.393137 0.664706 0.184130
0.569118 0.713235 0.246630
0.677451 0.722917 0.266360
0.753922 0.739216 0.303462
0.851961 0.753922 0.322426
0.950123 0.745098 0.293015
0.235294 0.796998 0.215196
0.262309 0.796569 0.212569
0.320588 0.789170 0.207950
0.390686 0.766812 0.191667
0.519363 0.763235 0.205392
0.697365 0.831595 0.281863
0.805882 0.843750 0.310294
0.875000 0.859375 0.345910
0.973039 0.875490 0.368627
0.262745 0.901961 0.230882
0.286275 0.901961 0.230882
0.339828 0.898039 0.226961
0.402451 0.878125 0.209130
0.501961 0.862745 0.207353
0.696385 0.922365 0.288909
0.836275 0.960784 0.330270
0.949510 0.980392 0.373039
1.000000 0.988235 0.400000
0.000000 0.003922 0.195098
0.084804 0.068627 0.167647
0.179167 0.018627 0.182353
0.287255 0.069118 0.194730
0.431373 0.100000 0.217647
0.591544 0.150490 0.247181
0.731373 0.241912 0.294118
0.863725 0.302328 0.324510
1.000000 0.305882 0.303922
0.000000 0.093505 0.179779
0.047059 0.084329 0.175751
0.179381 0.089583 0.182353
0.299020 0.127374 0.201823
0.447488 0.150000 0.222059
0.595098 0.211443 0.259804
0.731373 0.278064 0.297794
0.872549 0.290686 0.288833
1.000000 0.297059 0.264706
0.000000 0.190931 0.190931
0.084651 0.194853 0.194026
0.204350 0.204350 0.204902
0.333578 0.222028 0.213725
0.473529 0.249020 0.229412
0.613725 0.278554 0.242984
0.747059 0.308088 0.253922
0.879412 0.332353 0.263971
1.000000 0.354902 0.271814
0.037745 0.334314 0.225490
0.123223 0.338189 0.224387
0.236152 0.341268 0.230025
0.353922 0.350000 0.245941
0.479534 0.376961 0.256311
0.642249 0.372656 0.306863
0.759283 0.372028 0.300123
0.889798 0.393811 0.299510
1.000000 0.413235 0.307353
0.123529 0.466667 0.250000
0.177941 0.469914 0.251471
0.267157 0.470588 0.253431
0.395772 0.467953 0.259743
0.495098 0.488235 0.287745
0.603431 0.500306 0.288297
0.723284 0.523162 0.282843
0.860355 0.526471 0.304963
1.000000 0.440196 0.361765
0.174020 0.587255 0.265686
0.215196 0.587255 0.268398
0.290686 0.587255 0.268995
0.389216 0.570512 0.260784
0.541912 0.600245 0.295343
0.626471 0.617157 0.324510
0.735294 0.634314 0.337745
0.834498 0.632843 0.308824
0.937255 0.646078 0.297059
0.211765 0.700000 0.280392
0.243995 0.700000 0.280637
0.312745 0.699203 0.280637
0.394608 0.683150 0.268995
0.537623 0.689338 0.288848
0.672702 0.722549 0.325980
0.750980 0.739216 0.359804
0.851961 0.753922 0.375490
0.945098 0.743137 0.341176
0.239216 0.804412 0.289216
0.266988 0.804412 0.289216
0.327574 0.803554 0.288572
0.405469 0.790104 0.280438
0.506311 0.768260 0.270895
0.693137 0.831863 0.340196
0.801103 0.841054 0.360784
0.871998 0.859375 0.395113
0.973039 0.875490 0.414828
0.270588 0.912745 0.300980
0.293627 0.909804 0.300980
0.348039 0.909804 0.300980
0.421691 0.901961 0.296078
0.501961 0.874020 0.273529
0.653554 0.888113 0.306740
0.833333 0.960784 0.383333
0.945588 0.976961 0.415196
1.000000 0.988235 0.442157
0.000000 0.023529 0.292647
0.000000 0.046078 0.289032
0.205392 0.131373 0.292279
0.313787 0.088725 0.318627
0.431373 0.147059 0.331127
0.567647 0.208762 0.364154
0.716054 0.222426 0.379534
0.863725 0.263235 0.397243
0.994608 0.316667 0.419608
0.000000 0.108824 0.291667
0.000000 0.113051 0.298261
0.213235 0.179412 0.299877
0.319547 0.143137 0.322549
0.439032 0.192984 0.338971
0.575184 0.238036 0.367961
0.724862 0.253447 0.381373
0.867647 0.292502 0.398529
0.988235 0.359620 0.431373
0.000000 0.222181 0.306863
0.092157 0.224387 0.313373
0.193199 0.220650 0.316452
0.333257 0.237224 0.334314
0.454902 0.274449 0.354473
0.594485 0.292080 0.369608
0.738603 0.321569 0.385662
0.860340 0.379059 0.418367
0.984314 0.418627 0.437745
0.040748 0.338235 0.335233
0.127145 0.341238 0.339154
0.237178 0.349081 0.347411
0.360846 0.361765 0.360846
0.489001 0.373989 0.366605
0.619202 0.391605 0.372610
0.750980 0.410907 0.377681
0.879412 0.430208 0.381487
1.000000 0.449510 0.384375
0.111029 0.475735 0.369608
0.168137 0.477696 0.369608
0.261091 0.478431 0.365686
0.376225 0.481893 0.369608
0.494118 0.489216 0.384681
0.610049 0.507843 0.385294
0.767892 0.514277 0.427451
0.889706 0.506618 0.424755
1.000000 0.523529 0.420098
0.141176 0.593627 0.365686
0.197258 0.595098 0.369547
0.291146 0.596630 0.375689
0.391605 0.598468 0.377451
0.524265 0.595098 0.384069
0.623468 0.615625 0.411213
0.733931 0.630009 0.414936
0.840196 0.639882 0.398415
0.958456 0.648468 0.397120
0.208824 0.705760 0.379534
0.243627 0.706863 0.381373
0.313480 0.707843 0.382567
0.405270 0.707843 0.382843
0.509804 0.686152 0.371078
0.665686 0.722917 0.411596
0.750000 0.738480 0.437745
0.851961 0.751348 0.449510
0.947549 0.743137 0.415196
0.239216 0.810968 0.382843
0.270098 0.812255 0.382843
0.331495 0.812485 0.385294
0.414216 0.812255 0.385294
0.503922 0.790349 0.371569
0.660003 0.808517 0.399219
0.793581 0.840196 0.434804
0.871569 0.859314 0.465954
0.976471 0.875490 0.484804
0.274510 0.917647 0.390686
0.298039 0.921569 0.393137
0.354779 0.921569 0.394608
0.432353 0.921569 0.394608
0.519608 0.908333 0.386029
0.630392 0.882353 0.377451
0.828431 0.963603 0.457353
0.937745 0.976471 0.481189
1.000000 0.988235 0.504412
0.000000 0.080392 0.403922
0.000000 0.084314 0.411765
0.275000 0.258333 0.448529
0.355882 0.194363 0.454167
0.473529 0.179412 0.476471
0.574755 0.225000 0.473284
0.696078 0.282843 0.494608
0.828431 0.319608 0.513725
0.974510 0.321569 0.519608
0.000000 0.150245 0.425245
0.000000 0.155913 0.431311
0.250123 0.249632 0.453922
0.359651 0.237745 0.453431
0.476471 0.218505 0.478431
0.576716 0.255882 0.475245
0.700000 0.306556 0.496569
0.832353 0.335294 0.513725
0.978431 0.340931 0.519608
0.000000 0.273039 0.458824
0.075490 0.266422 0.462745
0.207353 0.274510 0.468995
0.369118 0.321752 0.458824
0.480147 0.292647 0.482353
0.583333 0.322059 0.483088
0.707843 0.359804 0.501961
0.844301 0.369608 0.509804
0.987745 0.389706 0.519608
0.089461 0.375490 0.458824
0.150827 0.374265 0.458824
0.245895 0.376777 0.466667
0.352298 0.376103 0.476348
0.484926 0.386029 0.486275
0.595098 0.411213 0.494577
0.725490 0.424020 0.503431
0.863725 0.441667 0.511918
0.988971 0.475490 0.528676
0.100000 0.470588 0.467647
0.161275 0.472549 0.469608
0.260049 0.478431 0.476471
0.375858 0.488235 0.486887
0.501471 0.501961 0.501471
0.624755 0.509804 0.501593
0.750980 0.521569 0.502941
0.875490 0.534314 0.503922
1.000000 0.549020 0.503922
0.158333 0.604167 0.498039
0.204167 0.605392 0.498039
0.286765 0.606863 0.498039
0.387990 0.608854 0.494118
0.505270 0.611397 0.498039
0.623468 0.619087 0.512960
0.735478 0.631373 0.509804
0.886520 0.635539 0.546906
1.000000 0.633333 0.548039
0.176961 0.711765 0.487745
0.217831 0.714522 0.487745
0.293137 0.715686 0.487745
0.405821 0.718627 0.496078
0.511765 0.719608 0.498039
0.645527 0.718076 0.503554
0.747059 0.738480 0.531373
0.855392 0.750980 0.533640
0.956863 0.754412 0.512255
0.230147 0.816667 0.490196
0.263174 0.818382 0.490196
0.328431 0.820098 0.492157
0.416850 0.822304 0.494118
0.515686 0.824020 0.496078
0.622549 0.796722 0.480392
0.785417 0.840196 0.527451
0.871109 0.859375 0.554902
0.976471 0.875490 0.567157
0.270588 0.925490 0.494118
0.298039 0.929412 0.496078
0.355882 0.929412 0.498039
0.437745 0.933333 0.501961
0.531373 0.936275 0.503922
0.625735 0.912990 0.488725
0.792647 0.939706 0.524020
0.928186 0.972549 0.562745
1.000000 0.988235 0.586275
0.000000 0.134804 0.544118
0.000000 0.142647 0.555576
0.199510 0.221446 0.590196
0.421078 0.357353 0.597488
0.516422 0.272794 0.618627
0.626471 0.264216 0.629473
0.711152 0.287255 0.606863
0.820588 0.345588 0.618934
0.945098 0.388235 0.636765
0.000000 0.204902 0.575184
0.000000 0.212722 0.582575
0.174923 0.231602 0.598897
0.427451 0.380101 0.602941
0.514461 0.301961 0.616023
0.625551 0.291667 0.626471
0.711152 0.314216 0.607475
0.824020 0.365135 0.621078
0.945098 0.405208 0.636765
0.000000 0.303922 0.605515
0.039292 0.289936 0.576563
0.220588 0.332108 0.626471
0.426180 0.415686 0.608104
0.510539 0.363235 0.608272
0.623468 0.349510 0.626471
0.712868 0.368627 0.610784
0.824510 0.410784 0.622855
0.951471 0.442157 0.638235
0.120098 0.423529 0.606863
0.170588 0.423529 0.610784
0.261535 0.421140 0.618627
0.365893 0.424694 0.623100
0.509038 0.453401 0.598009
0.617708 0.426555 0.619202
0.718627 0.446569 0.616468
0.832353 0.476961 0.628922
0.963235 0.494118 0.640686
0.154412 0.514461 0.597549
0.199510 0.514461 0.597549
0.279657 0.510846 0.596324
0.381373 0.511305 0.602206
0.486275 0.511152 0.612010
0.617157 0.516881 0.618627
0.726471 0.539706 0.625000
0.851225 0.552451 0.634314
0.984314 0.559559 0.634314
0.134804 0.587255 0.585784
0.185294 0.591176 0.587255
0.274219 0.595098 0.593627
0.383073 0.605392 0.602597
0.503922 0.617157 0.615931
0.632269 0.632475 0.632269
0.752313 0.637684 0.629611
0.875115 0.644608 0.627160
0.996078 0.653370 0.623468
0.196078 0.723529 0.618627
0.234804 0.726471 0.618627
0.308824 0.727451 0.622181
0.404902 0.730392 0.622549
0.509804 0.731924 0.618627
0.628922 0.734681 0.622549
0.747059 0.742678 0.636765
0.854902 0.750414 0.629412
1.000000 0.752083 0.664093
0.207843 0.825797 0.606863
0.242647 0.827941 0.606396
0.308824 0.828125 0.602941
0.400980 0.831863 0.602941
0.517647 0.835784 0.611857
0.627390 0.837561 0.614706
0.764706 0.835907 0.621446
0.868076 0.860233 0.652635
0.984314 0.879412 0.660784
0.225000 0.934804 0.597549
0.256189 0.937255 0.599020
0.320588 0.938358 0.599020
0.437745 0.945098 0.613235
0.537255 0.949020 0.618627
0.642157 0.952941 0.622549
0.750980 0.922672 0.602941
0.918627 0.972549 0.656556
1.000000 0.988235 0.679902
0.000000 0.212745 0.711765
0.000000 0.220588 0.719608
0.140196 0.243137 0.739951
0.483333 0.459436 0.749142
0.549510 0.423529 0.723529
0.662377 0.346078 0.766667
0.763480 0.337255 0.766667
0.841054 0.340809 0.736152
0.945098 0.403922 0.742157
0.000000 0.275858 0.740074
0.000000 0.282843 0.746691
0.176961 0.295251 0.761703
0.474020 0.459804 0.756005
0.548039 0.442647 0.723529
0.660340 0.366085 0.762745
0.762010 0.357353 0.762837
0.841054 0.363741 0.736152
0.945098 0.420466 0.743137
0.000000 0.338235 0.716912
0.117647 0.374173 0.768229
0.232353 0.392157 0.786275
0.398407 0.416942 0.786091
0.551961 0.486029 0.729779
0.652543 0.411765 0.754442
0.757904 0.400735 0.758824
0.840196 0.411275 0.735294
0.946078 0.458088 0.743137
0.128309 0.470098 0.758824
0.174954 0.467647 0.760294
0.232690 0.448192 0.758088
0.388297 0.481863 0.782491
0.553431 0.536765 0.731373
0.638465 0.480392 0.739017
0.750000 0.466176 0.750980
0.841054 0.482981 0.739216
0.949020 0.517157 0.747059
0.184314 0.548039 0.725490
0.223039 0.548039 0.727451
0.298529 0.551961 0.736887
0.390993 0.549510 0.747059
0.490441 0.544853 0.745343
0.631005 0.571140 0.720711
0.742157 0.547059 0.743137
0.844118 0.570588 0.743137
0.954412 0.594118 0.750980
0.198897 0.641054 0.719608
0.235784 0.641054 0.721446
0.308088 0.640686 0.722549
0.399831 0.637132 0.722549
0.504228 0.635846 0.727267
0.609390 0.633532 0.734130
0.740319 0.640686 0.742249
0.851471 0.664216 0.750000
0.971569 0.673039 0.754902
0.156863 0.699020 0.695098
0.200766 0.700000 0.696078
0.283762 0.703922 0.702941
0.386949 0.714706 0.710784
0.501961 0.725000 0.722917
0.626195 0.739216 0.738603
0.756556 0.757108 0.756556
0.874449 0.758609 0.750858
0.992892 0.762745 0.746324
0.223652 0.839706 0.735294
0.258333 0.839706 0.735294
0.324510 0.840196 0.735294
0.416667 0.844118 0.739216
0.520037 0.848039 0.740502
0.629243 0.851731 0.739216
0.750245 0.856740 0.743137
0.872748 0.867754 0.761994
0.987745 0.882843 0.759681
0.250980 0.949020 0.731373
0.279289 0.949020 0.734314
0.340196 0.952941 0.735294
0.425980 0.953922 0.731373
0.525490 0.960784 0.731373
0.646078 0.968627 0.743137
0.758824 0.969608 0.747059
0.897672 0.967770 0.750123
0.996078 0.988235 0.778431
0.000000 0.302451 0.891667
0.000000 0.310294 0.899449
0.165196 0.325123 0.915074
0.443137 0.437255 0.932169
0.602451 0.541667 0.865686
0.676164 0.476471 0.857169
0.794118 0.407475 0.899020
0.890748 0.396569 0.891176
0.968627 0.392157 0.863725
0.000000 0.356863 0.915135
0.000000 0.360784 0.919056
0.200536 0.372549 0.930821
0.417915 0.428738 0.938687
0.602451 0.551471 0.865441
0.673836 0.491582 0.853248
0.790564 0.423897 0.895098
0.887684 0.412255 0.891176
0.968627 0.408272 0.863725
0.090074 0.446569 0.938725
0.157843 0.450490 0.944899
0.248529 0.457353 0.948499
0.397059 0.462255 0.950414
0.598958 0.573039 0.863725
0.668321 0.527574 0.845404
0.782721 0.461520 0.887255
0.882904 0.450490 0.886443
0.968627 0.450000 0.863358
0.000000 0.499020 0.906679
0.075758 0.491176 0.901003
0.245757 0.477451 0.867785
0.401049 0.538902 0.938350
0.545251 0.555637 0.905147
0.664706 0.582353 0.842647
0.770588 0.516667 0.875046
0.875023 0.508333 0.876616
0.964706 0.515686 0.859804
0.186275 0.594363 0.877451
0.225000 0.594118 0.879412
0.300980 0.590686 0.881373
0.373039 0.575398 0.887255
0.506005 0.595343 0.896078
0.664216 0.644700 0.843627
0.755086 0.590135 0.855944
0.864154 0.578891 0.867647
0.964706 0.595833 0.859804
0.231373 0.669914 0.844118
0.262255 0.668627 0.844118
0.324510 0.668321 0.844118
0.412929 0.668627 0.851409
0.509804 0.668137 0.863725
0.603309 0.656066 0.856059
0.747059 0.683701 0.837132
0.856311 0.662071 0.859804
0.964706 0.687745 0.863725
0.231863 0.761765 0.839216
0.265472 0.761765 0.840074
0.328922 0.761765 0.840196
0.418137 0.759191 0.840196
0.515686 0.756556 0.840196
0.622549 0.754044 0.845083
0.725643 0.750735 0.852298
0.858992 0.757843 0.859375
0.972549 0.785294 0.871569
0.164706 0.800980 0.797059
0.206924 0.804412 0.800490
0.285294 0.808333 0.804412
0.385026 0.816445 0.812293
0.498039 0.828186 0.824265
0.618896 0.843811 0.840196
0.750551 0.863725 0.860983
0.886826 0.887255 0.886826
1.000000 0.892034 0.883762
0.266667 0.960784 0.859314
0.297549 0.964706 0.859804
0.355882 0.965196 0.863235
0.441667 0.972549 0.867157
0.543137 0.976471 0.871569
0.650306 0.982169 0.875490
0.761887 0.984314 0.871569
0.879412 0.987806 0.871569
0.996078 0.992157 0.886765
0.145098 0.400000 0.980392
0.242647 0.407843 0.960294
0.335294 0.422549 0.972549
0.459804 0.455882 0.988235
0.641176 0.613725 0.990196
0.705882 0.594608 0.968627
0.800980 0.507843 0.993137
0.914706 0.458824 1.000000
1.000000 0.447059 1.000000
0.238725 0.442647 0.972549
0.273591 0.446569 0.976471
0.351961 0.458333 0.986887
0.468934 0.476961 0.972365
0.635294 0.613725 0.986275
0.705882 0.606373 0.971078
0.797181 0.523162 0.989216
0.911213 0.474449 1.000000
1.000000 0.462745 1.000000
0.344118 0.516667 0.972549
0.355882 0.520588 0.975123
0.399020 0.524510 0.978676
0.480882 0.532353 0.984314
0.604902 0.595098 0.987255
0.707353 0.631005 0.969240
0.789461 0.557843 0.977451
0.906373 0.504902 1.000000
1.000000 0.494118 1.000000
0.061765 0.520098 0.991176
0.199510 0.517463 0.976471
0.404657 0.569118 0.979657
0.488725 0.592157 0.977941
0.568627 0.593382 0.992157
0.703431 0.664277 0.965625
0.781373 0.613235 0.961152
0.894608 0.555392 1.000000
0.992157 0.543627 0.996078
0.190196 0.633333 1.000000
0.223284 0.629412 1.000000
0.263725 0.618137 1.000000
0.368873 0.594853 0.993627
0.547059 0.645098 0.986275
0.662010 0.666422 0.987990
0.770098 0.679412 0.948529
0.879412 0.617647 0.984314
0.984314 0.609804 0.988235
0.243137 0.707353 0.978922
0.271569 0.707353 0.982843
0.329902 0.707353 0.986765
0.410294 0.703431 0.992157
0.495098 0.689216 0.998529
0.608395 0.692831 0.986642
0.765686 0.744485 0.945098
0.865870 0.695588 0.965196
0.972549 0.683824 0.976471
0.266667 0.786275 0.956863
0.293627 0.785294 0.956863
0.349020 0.785294 0.956863
0.429902 0.781740 0.956863
0.523529 0.781373 0.963725
0.621078 0.777451 0.975490
0.711520 0.763235 0.962255
0.858456 0.792770 0.949387
0.968627 0.773529 0.972549
0.256863 0.874020 0.948039
0.288235 0.877941 0.951961
0.348039 0.878922 0.952941
0.429902 0.878922 0.956863
0.527451 0.875490 0.956863
0.630392 0.871569 0.956863
0.742157 0.875000 0.964706
0.844547 0.868076 0.969547
0.988235 0.887255 0.988725
0.192157 0.913725 0.909804
0.227451 0.917647 0.913725
0.300980 0.921569 0.917647
0.397059 0.929412 0.925490
0.505882 0.941176 0.937255
0.622549 0.956863 0.952941
0.747059 0.972549 0.968627
0.871569 0.988235 0.984314
1.000000 1.000000 1.000000
