darkroom/assets/luts/chrome-muted.cube
TITLE "Muted chrome"
# Preset LUT for Lolly Bitmap Studio.
# Derived from sguyader/FilmSim "Classic_Chrome" (CC0 1.0, https://github.com/sguyader/FilmSim),
# resampled from the 144³ HaldCLUT to a 33³ .cube. Public domain — see NOTICE.md.
LUT_3D_SIZE 5
DOMAIN_MIN 0.0 0.0 0.0
DOMAIN_MAX 1.0 1.0 1.0
0.000000 0.000000 0.000000
0.140196 0.026471 0.000000
0.447059 0.000000 0.000000
0.747059 0.083333 0.075490
1.000000 0.160784 0.133333
0.003922 0.182353 0.000000
0.198775 0.194118 0.014461
0.465686 0.269608 0.057353
0.764951 0.171569 0.151961
1.000000 0.203922 0.192157
0.125490 0.458824 0.090196
0.272549 0.445098 0.091667
0.500000 0.490196 0.171569
0.715686 0.514216 0.168137
1.000000 0.427451 0.284314
0.204902 0.688235 0.156863
0.297059 0.672549 0.141422
0.575000 0.715196 0.215686
0.754902 0.739216 0.278431
0.955882 0.752941 0.277451
0.258824 0.898039 0.196078
0.332353 0.890196 0.189216
0.501961 0.858824 0.174510
0.837255 0.960784 0.309804
1.000000 0.988235 0.380392
0.000000 0.003922 0.195098
0.179167 0.018627 0.182353
0.431373 0.100000 0.217647
0.731373 0.241912 0.294118
1.000000 0.305882 0.303922
0.000000 0.190931 0.190931
0.204350 0.204350 0.204902
0.473529 0.249020 0.229412
0.747059 0.308088 0.253922
1.000000 0.354902 0.271814
0.123529 0.466667 0.250000
0.267157 0.470588 0.253431
0.495098 0.488235 0.287745
0.723284 0.523162 0.282843
1.000000 0.440196 0.361765
0.211765 0.700000 0.280392
0.312745 0.699203 0.280637
0.537623 0.689338 0.288848
0.750980 0.739216 0.359804
0.945098 0.743137 0.341176
0.270588 0.912745 0.300980
0.348039 0.909804 0.300980
0.501961 0.874020 0.273529
0.833333 0.960784 0.383333
1.000000 0.988235 0.442157
0.000000 0.080392 0.403922
0.275000 0.258333 0.448529
0.473529 0.179412 0.476471
0.696078 0.282843 0.494608
0.974510 0.321569 0.519608
0.000000 0.273039 0.458824
0.207353 0.274510 0.468995
0.480147 0.292647 0.482353
0.707843 0.359804 0.501961
0.987745 0.389706 0.519608
0.100000 0.470588 0.467647
0.260049 0.478431 0.476471
0.501471 0.501961 0.501471
0.750980 0.521569 0.502941
1.000000 0.549020 0.503922
0.176961 0.711765 0.487745
0.293137 0.715686 0.487745
0.511765 0.719608 0.498039
0.747059 0.738480 0.531373
0.956863 0.754412 0.512255
0.270588 0.925490 0.494118
0.355882 0.929412 0.498039
0.531373 0.936275 0.503922
0.792647 0.939706 0.524020
1.000000 0.988235 0.586275
0.000000 0.212745 0.711765
0.140196 0.243137 0.739951
0.549510 0.423529 0.723529
0.763480 0.337255 0.766667
0.945098 0.403922 0.742157
0.000000 0.338235 0.716912
0.232353 0.392157 0.786275
0.551961 0.486029 0.729779
0.757904 0.400735 0.758824
0.946078 0.458088 0.743137
0.184314 0.548039 0.725490
0.298529 0.551961 0.736887
0.490441 0.544853 0.745343
0.742157 0.547059 0.743137
0.954412 0.594118 0.750980
0.156863 0.699020 0.695098
0.283762 0.703922 0.702941
0.501961 0.725000 0.722917
0.756556 0.757108 0.756556
0.992892 0.762745 0.746324
0.250980 0.949020 0.731373
0.340196 0.952941 0.735294
0.525490 0.960784 0.731373
0.758824 0.969608 0.747059
0.996078 0.988235 0.778431
0.145098 0.400000 0.980392
0.335294 0.422549 0.972549
0.641176 0.613725 0.990196
0.800980 0.507843 0.993137
1.000000 0.447059 1.000000
0.344118 0.516667 0.972549
0.399020 0.524510 0.978676
0.604902 0.595098 0.987255
0.789461 0.557843 0.977451
1.000000 0.494118 1.000000
0.190196 0.633333 1.000000
0.263725 0.618137 1.000000
0.547059 0.645098 0.986275
0.770098 0.679412 0.948529
0.984314 0.609804 0.988235
0.266667 0.786275 0.956863
0.349020 0.785294 0.956863
0.523529 0.781373 0.963725
0.711520 0.763235 0.962255
0.968627 0.773529 0.972549
0.192157 0.913725 0.909804
0.300980 0.921569 0.917647
0.505882 0.941176 0.937255
0.747059 0.972549 0.968627
1.000000 1.000000 1.000000
