darkroom/assets/luts/chrome-muted.cube
TITLE "Muted chrome"
# Preset LUT for Lolly Bitmap Studio.
# Derived from sguyader/FilmSim "Classic_Chrome" (CC0 1.0, https://github.com/sguyader/FilmSim),
# resampled from the 144³ HaldCLUT to a 33³ .cube. Public domain — see NOTICE.md.
LUT_3D_SIZE 33
DOMAIN_MIN 0.0 0.0 0.0
DOMAIN_MAX 1.0 1.0 1.0
0.000000 0.000000 0.000000
0.003922 0.000000 0.000000
0.011765 0.000000 0.000000
0.025123 0.000000 0.000000
0.046569 0.000000 0.000000
0.071936 0.000000 0.000000
0.096569 0.003922 0.000000
0.118750 0.012868 0.000000
0.140196 0.026471 0.000000
0.165564 0.036152 0.000000
0.194853 0.041912 0.000000
0.228676 0.043750 0.000000
0.271569 0.037745 0.000000
0.306618 0.039216 0.000000
0.353922 0.026471 0.000000
0.400245 0.003922 0.000000
0.447059 0.000000 0.000000
0.486029 0.000000 0.000000
0.522794 0.000000 0.013480
0.560049 0.003554 0.027083
0.599020 0.017157 0.039216
0.637990 0.038603 0.050368
0.673039 0.056127 0.058824
0.712010 0.069730 0.066667
0.747059 0.083333 0.075490
0.782108 0.096936 0.085172
0.817157 0.106618 0.090931
0.852206 0.116299 0.100613
0.883333 0.125980 0.106373
0.918382 0.135662 0.113725
0.949510 0.145098 0.121569
0.984559 0.152941 0.125490
1.000000 0.160784 0.133333
0.000000 0.005760 0.000000
0.004783 0.004783 0.000000
0.015441 0.005760 0.000000
0.038725 0.007843 0.000000
0.054412 0.007583 0.000000
0.079779 0.008475 0.000000
0.102719 0.013603 0.000000
0.123189 0.025954 0.000000
0.144118 0.038235 0.000000
0.170745 0.045431 0.000000
0.202696 0.048323 0.000000
0.239828 0.047346 0.000000
0.274188 0.048208 0.000000
0.314606 0.041131 0.000000
0.359191 0.026540 0.000000
0.404167 0.011822 0.000000
0.450980 0.000000 0.000000
0.486029 0.000000 0.009559
0.525000 0.001716 0.023162
0.563971 0.013431 0.036765
0.601639 0.028922 0.047748
0.637990 0.046733 0.056453
0.676961 0.063320 0.065234
0.712010 0.077574 0.074054
0.747059 0.090196 0.082353
0.782108 0.100858 0.089610
0.817157 0.110539 0.096347
0.852206 0.120852 0.104534
0.883333 0.129902 0.110034
0.918382 0.139583 0.117647
0.953186 0.149020 0.123537
0.984559 0.155886 0.129412
1.000000 0.164706 0.137255
0.000000 0.015441 0.000000
0.007843 0.015441 0.000000
0.015686 0.015441 0.000000
0.032966 0.017180 0.000000
0.065931 0.023284 0.000000
0.095136 0.030798 0.003837
0.109023 0.027206 0.000000
0.130339 0.036328 0.000000
0.151716 0.046078 0.000000
0.177328 0.050980 0.000000
0.210386 0.050980 0.000000
0.244692 0.053546 0.003102
0.281863 0.049908 0.002849
0.322304 0.042915 0.004044
0.364951 0.033441 0.005882
0.408088 0.019370 0.007721
0.454657 0.000000 0.009559
0.489951 0.000000 0.023162
0.528922 0.009452 0.035156
0.567302 0.022917 0.046469
0.602941 0.040441 0.054749
0.641873 0.054864 0.062707
0.676961 0.071569 0.071737
0.712010 0.082299 0.081304
0.747059 0.095037 0.087194
0.782108 0.105813 0.094118
0.817157 0.117448 0.101961
0.852206 0.125490 0.109720
0.887224 0.133824 0.114185
0.918382 0.143505 0.121569
0.953431 0.152711 0.129182
0.984559 0.158946 0.133333
1.000000 0.168382 0.141176
0.000000 0.034559 0.000000
0.009681 0.034559 0.000000
0.024877 0.034559 0.000000
0.039426 0.037534 0.000000
0.063649 0.042203 0.000000
0.090499 0.050000 0.000000
0.116912 0.063603 0.000000
0.146729 0.066215 0.003638
0.165319 0.052574 0.011183
0.191544 0.054393 0.011604
0.221944 0.053301 0.014085
0.256013 0.052688 0.014817
0.293168 0.052037 0.018336
0.333770 0.045328 0.020056
0.376517 0.029519 0.019317
0.423775 0.001716 0.017402
0.460417 0.007475 0.029841
0.497794 0.013358 0.040809
0.533540 0.022917 0.051677
0.571814 0.036520 0.060267
0.606863 0.052574 0.068260
0.643505 0.066303 0.075854
0.680882 0.078929 0.082851
0.715931 0.090931 0.089687
0.750980 0.102359 0.096293
0.786029 0.112623 0.103106
0.818750 0.121867 0.110103
0.852206 0.131985 0.116847
0.887255 0.141176 0.121768
0.919030 0.149020 0.128466
0.953431 0.156962 0.133433
0.985306 0.164706 0.140085
1.000000 0.172549 0.145098
0.000000 0.065686 0.000000
0.009681 0.065686 0.000000
0.034344 0.062255 0.000000
0.056005 0.065686 0.000000
0.073529 0.066176 0.000000
0.092724 0.070098 0.000000
0.116912 0.077206 0.000000
0.147304 0.086887 0.000000
0.178064 0.096569 0.000000
0.219056 0.090257 0.005346
0.241605 0.062408 0.021783
0.274831 0.058670 0.023866
0.314032 0.050551 0.023407
0.352298 0.040012 0.024740
0.395098 0.021844 0.024510
0.431143 0.023039 0.034926
0.466667 0.030392 0.048529
0.501716 0.038128 0.058211
0.540411 0.048070 0.066176
0.575735 0.058287 0.073698
0.610784 0.070098 0.081863
0.649265 0.081250 0.089093
0.684314 0.089859 0.094853
0.719363 0.100720 0.101471
0.754412 0.109436 0.109314
0.786029 0.120113 0.113588
0.821078 0.129013 0.121078
0.856127 0.137086 0.125322
0.887255 0.145527 0.132843
0.922304 0.154979 0.137056
0.953431 0.161029 0.144608
0.988480 0.170450 0.148790
1.000000 0.176471 0.152941
0.003922 0.091544 0.000000
0.021427 0.091544 0.000000
0.043995 0.088971 0.000000
0.069608 0.090016 0.000000
0.089706 0.091544 0.000000
0.103309 0.093777 0.000000
0.121929 0.098652 0.000000
0.147304 0.103309 0.000000
0.180086 0.113082 0.000000
0.217402 0.122917 0.000000
0.248951 0.133456 0.000000
0.303401 0.101241 0.018685
0.335662 0.065947 0.028676
0.369363 0.058946 0.036769
0.404412 0.056150 0.046691
0.439461 0.057598 0.053757
0.474510 0.059559 0.062132
0.509559 0.065441 0.070508
0.545198 0.074410 0.077574
0.581005 0.083460 0.086033
0.616054 0.091544 0.092509
0.651103 0.098985 0.099387
0.686152 0.107230 0.107230
0.719853 0.114216 0.113163
0.754902 0.121906 0.119638
0.789951 0.128688 0.126459
0.822426 0.137508 0.131242
0.856127 0.144213 0.137255
0.891176 0.152941 0.142525
0.922304 0.159739 0.147974
0.957353 0.166215 0.153025
0.988480 0.174632 0.158211
1.000000 0.181740 0.164706
0.015686 0.116912 0.000000
0.036397 0.116567 0.000000
0.054611 0.116176 0.000000
0.080025 0.114285 0.000000
0.100337 0.116912 0.000000
0.118260 0.120098 0.000000
0.131863 0.124020 0.000000
0.154940 0.128676 0.000000
0.183150 0.134988 0.000000
0.213641 0.141299 0.000000
0.252451 0.154902 0.000000
0.283578 0.168390 0.000000
0.318627 0.179381 0.003186
0.389354 0.129075 0.068084
0.411520 0.101884 0.065931
0.446569 0.099755 0.073775
0.481618 0.096569 0.077696
0.517379 0.096569 0.085417
0.552451 0.100812 0.091176
0.587500 0.105147 0.097304
0.622549 0.112531 0.105147
0.656978 0.116912 0.112492
0.690916 0.124755 0.118643
0.723775 0.131740 0.124755
0.758824 0.136520 0.130208
0.789951 0.143260 0.136520
0.825000 0.148422 0.141774
0.857223 0.155032 0.148284
0.891176 0.160141 0.152298
0.922304 0.166598 0.158755
0.957353 0.172748 0.163971
0.988480 0.180047 0.168283
1.000000 0.187500 0.172549
0.016789 0.147304 0.000000
0.034314 0.147304 0.000000
0.054481 0.146201 0.000000
0.076593 0.143382 0.000000
0.101471 0.147304 0.000000
0.126838 0.151225 0.000000
0.148284 0.153516 0.000000
0.162990 0.159069 0.000000
0.186275 0.165104 0.000000
0.217402 0.170833 0.002206
0.248529 0.174410 0.001103
0.286569 0.189951 0.012868
0.322549 0.203554 0.020711
0.357598 0.214235 0.024897
0.392647 0.226838 0.030139
0.461221 0.161872 0.095167
0.487377 0.140012 0.095221
0.522426 0.136642 0.102941
0.557475 0.135539 0.106985
0.592525 0.135539 0.110907
0.626471 0.136596 0.118061
0.661520 0.139461 0.122672
0.695688 0.144263 0.129756
0.727696 0.149265 0.134436
0.762040 0.154044 0.141452
0.793873 0.157966 0.146201
0.825896 0.162623 0.153148
0.860049 0.168382 0.157587
0.891176 0.173652 0.162240
0.923897 0.177574 0.168627
0.957353 0.181671 0.173652
0.988480 0.188821 0.177574
1.000000 0.193260 0.184314
0.003922 0.182353 0.000000
0.021446 0.182353 0.000000
0.042892 0.178493 0.000000
0.069853 0.178431 0.000000
0.104902 0.178431 0.000000
0.134038 0.183701 0.000000
0.159069 0.186275 0.000000
0.182322 0.190196 0.001103
0.198775 0.194118 0.014461
0.221967 0.199663 0.023407
0.255699 0.208885 0.034007
0.283578 0.213725 0.029565
0.321446 0.225000 0.034314
0.361520 0.238511 0.042157
0.396569 0.251654 0.046078
0.427696 0.261857 0.050000
0.465686 0.269608 0.057353
0.538113 0.190686 0.123621
0.564216 0.174510 0.124510
0.598284 0.170864 0.128431
0.630392 0.170588 0.132353
0.665441 0.167647 0.136275
0.699510 0.167647 0.142096
0.731618 0.170588 0.147396
0.764951 0.171569 0.151961
0.797794 0.175490 0.156587
0.828922 0.179412 0.161336
0.861060 0.183333 0.167647
0.894608 0.187255 0.172549
0.926225 0.191176 0.178217
0.957353 0.195159 0.183333
0.988480 0.199540 0.187776
1.000000 0.203922 0.192157
0.007843 0.217402 0.000000
0.026225 0.217402 0.000000
0.047618 0.213480 0.000000
0.074284 0.213480 0.000000
0.104902 0.213480 0.000000
0.140246 0.216839 0.001348
0.171239 0.221324 0.008127
0.197423 0.222426 0.013484
0.222426 0.228186 0.029626
0.237680 0.233088 0.040074
0.261152 0.239706 0.047917
0.295343 0.248775 0.058958
0.324877 0.252696 0.056618
0.357598 0.259762 0.055760
0.396569 0.273652 0.059681
0.431618 0.284164 0.063699
0.465135 0.295404 0.067525
0.497794 0.306618 0.071419
0.534666 0.308839 0.078531
0.609888 0.222748 0.147798
0.634850 0.208410 0.149877
0.669363 0.202328 0.153186
0.700490 0.201716 0.157131
0.735539 0.197794 0.160784
0.766667 0.197794 0.164920
0.799514 0.197794 0.169244
0.832843 0.198369 0.173407
0.863971 0.200858 0.177328
0.895098 0.204779 0.181633
0.926574 0.207108 0.186991
0.957353 0.208892 0.192210
0.990319 0.212623 0.196534
1.000000 0.216544 0.200858
0.018382 0.252451 0.006618
0.039828 0.252451 0.006618
0.058502 0.252451 0.006618
0.082721 0.248529 0.006618
0.109161 0.248529 0.006618
0.144799 0.248529 0.014461
0.182843 0.256373 0.025490
0.211642 0.260294 0.028209
0.237010 0.260294 0.034988
0.262377 0.268137 0.051838
0.278676 0.272059 0.061520
0.301731 0.280093 0.071009
0.335325 0.287745 0.080116
0.367770 0.291667 0.079902
0.392647 0.294409 0.073284
0.431618 0.304779 0.078516
0.466667 0.318382 0.081740
0.497917 0.328064 0.085049
0.531127 0.337209 0.085585
0.560417 0.346316 0.088971
0.610907 0.334528 0.110294
0.676823 0.247955 0.170519
0.704412 0.236765 0.171324
0.735539 0.232843 0.175245
0.770282 0.228922 0.179167
0.801716 0.225000 0.182330
0.832843 0.225000 0.184819
0.865319 0.222304 0.188235
0.898529 0.222304 0.192494
0.930147 0.225000 0.196078
0.961275 0.226225 0.200169
0.992402 0.230147 0.205354
1.000000 0.230147 0.210539
0.036520 0.287500 0.020221
0.057353 0.287500 0.020221
0.074877 0.287500 0.020221
0.095960 0.285907 0.020221
0.120665 0.283578 0.020221
0.151716 0.283578 0.025280
0.187263 0.286765 0.031870
0.225245 0.295343 0.044853
0.250613 0.298438 0.047672
0.276838 0.300123 0.058958
0.304044 0.307108 0.073897
0.318873 0.311642 0.083483
0.340319 0.318873 0.092877
0.373897 0.326716 0.102018
0.406472 0.330637 0.104634
0.432108 0.330637 0.095324
0.462745 0.338174 0.094730
0.497898 0.349529 0.098652
0.532843 0.359191 0.101961
0.563971 0.368873 0.102574
0.593857 0.375015 0.102574
0.622917 0.384314 0.102574
0.682973 0.358464 0.141628
0.741544 0.274912 0.190319
0.770588 0.263971 0.192770
0.801716 0.260049 0.196519
0.832843 0.255392 0.197312
0.867892 0.251804 0.200613
0.899020 0.248284 0.204534
0.930147 0.247672 0.208207
0.961275 0.247672 0.211803
0.992402 0.247672 0.216012
1.000000 0.247672 0.219608
0.061275 0.326471 0.037745
0.074877 0.322549 0.037745
0.092402 0.322549 0.037745
0.109926 0.322549 0.036152
0.131373 0.318627 0.033824
0.158088 0.318627 0.037745
0.192678 0.318627 0.042862
0.233578 0.327574 0.058456
0.265319 0.334314 0.065196
0.291590 0.334314 0.069439
0.318107 0.338235 0.079657
0.344240 0.346078 0.094730
0.357843 0.350000 0.104412
0.379427 0.355622 0.112393
0.412255 0.364614 0.120925
0.443382 0.369608 0.124020
0.471078 0.369608 0.116667
0.497794 0.371032 0.112255
0.532843 0.380637 0.113725
0.563971 0.390319 0.116176
0.595098 0.398529 0.116176
0.626225 0.405760 0.116176
0.653431 0.413205 0.116176
0.682644 0.420052 0.116176
0.754167 0.376961 0.171936
0.808778 0.299341 0.210294
0.836029 0.290441 0.212224
0.867892 0.283333 0.214216
0.899020 0.279412 0.218137
0.930147 0.275490 0.219608
0.961275 0.271569 0.222151
0.992402 0.270267 0.225980
1.000000 0.269118 0.229902
0.078799 0.361520 0.051348
0.092402 0.359486 0.051348
0.106005 0.357598 0.051348
0.123529 0.357598 0.051348
0.141054 0.353676 0.051026
0.166180 0.353676 0.050980
0.198529 0.350421 0.055201
0.233578 0.353676 0.062848
0.276471 0.368107 0.078707
0.303964 0.369363 0.082721
0.330997 0.373169 0.089085
0.357533 0.376896 0.098652
0.381740 0.383349 0.116176
0.393260 0.388637 0.122269
0.416337 0.392731 0.131778
0.447660 0.400735 0.137734
0.480576 0.404657 0.145282
0.509570 0.408578 0.138101
0.529128 0.404496 0.129779
0.563603 0.411765 0.129745
0.595098 0.419975 0.129779
0.626225 0.427819 0.129779
0.656127 0.435662 0.129779
0.684559 0.439871 0.129412
0.711765 0.447518 0.125858
0.740074 0.454270 0.125858
0.837056 0.382529 0.220787
0.869734 0.324514 0.228186
0.899020 0.314461 0.231740
0.930147 0.308211 0.231740
0.961275 0.302696 0.235662
0.992402 0.298775 0.239216
1.000000 0.294853 0.239583
0.096324 0.392647 0.066667
0.108892 0.392647 0.066667
0.119715 0.392647 0.066667
0.137132 0.392647 0.064951
0.154657 0.388725 0.064951
0.174655 0.384804 0.062745
0.202451 0.384804 0.064537
0.234681 0.384804 0.070588
0.275490 0.392953 0.082659
0.315066 0.404412 0.096324
0.341468 0.404412 0.100245
0.367793 0.408333 0.106227
0.393964 0.411428 0.116176
0.418260 0.418099 0.133540
0.431863 0.423055 0.140426
0.451172 0.427941 0.149089
0.482353 0.434681 0.156005
0.513549 0.439706 0.162921
0.543857 0.443627 0.158318
0.566383 0.437990 0.145956
0.591176 0.441422 0.143382
0.626225 0.448997 0.143382
0.656127 0.457108 0.143382
0.684559 0.462753 0.141659
0.713419 0.469424 0.139461
0.740074 0.476233 0.139461
0.769363 0.481051 0.139461
0.798430 0.485639 0.138381
0.902574 0.398652 0.239890
0.933050 0.347381 0.249265
0.961167 0.337745 0.249265
0.992402 0.329902 0.250176
1.000000 0.325980 0.253186
0.113725 0.427696 0.078554
0.123472 0.427574 0.078554
0.133211 0.424012 0.078554
0.146814 0.423775 0.078554
0.164338 0.423667 0.078431
0.183169 0.419811 0.074632
0.207207 0.415931 0.074609
0.237500 0.415931 0.078466
0.272549 0.415931 0.085325
0.319363 0.432353 0.105909
0.351800 0.439422 0.113725
0.377799 0.439461 0.114442
0.404948 0.441835 0.121645
0.431752 0.447193 0.133701
0.453309 0.453362 0.151225
0.466912 0.458946 0.156867
0.486336 0.462868 0.164767
0.517402 0.466908 0.172430
0.548529 0.472495 0.176593
0.579657 0.474755 0.176593
0.601593 0.473330 0.167402
0.622917 0.470833 0.156985
0.653431 0.478554 0.156985
0.685417 0.485566 0.156863
0.714706 0.491391 0.153064
0.742892 0.498162 0.153064
0.770098 0.502819 0.152229
0.797304 0.508621 0.149142
0.824035 0.513863 0.149020
0.853971 0.515587 0.151275
0.968183 0.408785 0.265518
0.994305 0.367092 0.262925
1.000000 0.361029 0.266789
0.125490 0.458824 0.090196
0.135294 0.458824 0.090196
0.146814 0.458824 0.090196
0.159620 0.454902 0.090196
0.174265 0.454902 0.088235
0.192218 0.450980 0.085600
0.214583 0.447059 0.084314
0.241422 0.446507 0.086275
0.272549 0.445098 0.091667
0.312377 0.449877 0.102819
0.358333 0.468015 0.122917
0.387194 0.470588 0.127451
0.413480 0.472549 0.130637
0.439767 0.474694 0.137623
0.466054 0.479534 0.151225
0.488358 0.486275 0.166728
0.500000 0.490196 0.171569
0.519485 0.494118 0.180331
0.549632 0.500858 0.186275
0.580025 0.505882 0.192157
0.610784 0.509804 0.194118
0.636642 0.509804 0.184926
0.654779 0.501961 0.170588
0.684559 0.507414 0.170588
0.715686 0.514216 0.168137
0.743444 0.519608 0.166667
0.770098 0.525858 0.164706
0.798652 0.530699 0.162745
0.824510 0.535294 0.160539
0.851716 0.540380 0.158824
0.878676 0.547059 0.156740
0.917218 0.534926 0.169118
1.000000 0.427451 0.284314
0.137255 0.489951 0.101838
0.146879 0.489951 0.101838
0.156503 0.489951 0.101838
0.170098 0.486102 0.101838
0.183824 0.486029 0.098039
0.201225 0.482108 0.096611
0.218873 0.478186 0.093995
0.244240 0.474387 0.094030
0.272549 0.474265 0.098009
0.311520 0.474387 0.102819
0.355921 0.488848 0.123078
0.396588 0.501716 0.137152
0.422013 0.501838 0.141054
0.447783 0.505637 0.144987
0.474931 0.509559 0.152888
0.501961 0.513484 0.168750
0.523407 0.519424 0.182292
0.533088 0.521446 0.187994
0.552397 0.527030 0.193819
0.579779 0.532843 0.199989
0.613235 0.537132 0.207721
0.642505 0.541035 0.207740
0.671729 0.544815 0.203761
0.689216 0.534015 0.188848
0.714706 0.537040 0.184191
0.742927 0.541054 0.180270
0.773284 0.548797 0.180270
0.801145 0.552819 0.176348
0.827941 0.556740 0.172534
0.853309 0.562917 0.172426
0.878676 0.568390 0.168505
0.904044 0.572369 0.164706
0.929412 0.576225 0.164583
0.150735 0.519363 0.109804
0.157667 0.519363 0.109804
0.166314 0.517157 0.109804
0.179082 0.517157 0.109804
0.193382 0.515656 0.107598
0.209191 0.513235 0.105882
0.226716 0.509314 0.102282
0.248644 0.505392 0.101961
0.276471 0.503676 0.103248
0.307598 0.501471 0.109804
0.346569 0.506373 0.116958
0.397304 0.527819 0.141789
0.430974 0.534222 0.150735
0.455430 0.535049 0.153102
0.481602 0.536765 0.157828
0.507790 0.540686 0.168750
0.534191 0.545711 0.182353
0.554534 0.552397 0.196009
0.566422 0.555407 0.200751
0.585501 0.560133 0.207843
0.611612 0.563327 0.214308
0.645833 0.569998 0.221055
0.675735 0.572748 0.225245
0.704167 0.575980 0.219600
0.725000 0.572794 0.208088
0.743375 0.566422 0.197794
0.773284 0.570343 0.193873
0.801225 0.575391 0.189951
0.828431 0.580178 0.187960
0.854328 0.585133 0.186029
0.878922 0.589951 0.182108
0.906127 0.592839 0.178186
0.929412 0.597794 0.174265
0.160784 0.548284 0.117647
0.168432 0.548284 0.117647
0.176448 0.548284 0.117647
0.188017 0.548284 0.117647
0.203064 0.544409 0.117325
0.217034 0.543141 0.113725
0.234191 0.537554 0.110470
0.253083 0.532966 0.109436
0.277451 0.532598 0.109436
0.307598 0.529044 0.113725
0.342647 0.529044 0.120090
0.386520 0.541479 0.134926
0.436045 0.562638 0.159084
0.463446 0.564338 0.164338
0.490479 0.567892 0.164706
0.517413 0.568260 0.172549
0.542953 0.572181 0.182353
0.568137 0.579546 0.199877
0.589422 0.583739 0.209398
0.599265 0.587500 0.215652
0.617157 0.591422 0.223300
0.642777 0.595098 0.227451
0.676846 0.600743 0.235041
0.705025 0.603554 0.238848
0.735202 0.607108 0.237592
0.761972 0.606844 0.227819
0.773951 0.595711 0.210662
0.801225 0.599506 0.205143
0.828431 0.603554 0.203554
0.857081 0.607475 0.199632
0.882598 0.611397 0.195711
0.907793 0.615146 0.191789
0.933333 0.618873 0.187868
0.170098 0.577941 0.126961
0.177941 0.577941 0.126961
0.185692 0.575490 0.126961
0.196676 0.575490 0.126363
0.209130 0.574203 0.125490
0.224877 0.571569 0.123039
0.239951 0.567647 0.119577
0.258165 0.563725 0.117647
0.280760 0.559804 0.115196
0.307598 0.558333 0.117647
0.338725 0.555882 0.122580
0.378079 0.558946 0.130025
0.429412 0.581373 0.156373
0.471094 0.595098 0.172549
0.497151 0.595098 0.174020
0.523238 0.597595 0.178018
0.549755 0.600245 0.185049
0.576271 0.605316 0.196002
0.601716 0.609957 0.213480
0.620711 0.614706 0.223529
0.630392 0.618627 0.228002
0.649985 0.622549 0.235294
0.674050 0.625000 0.241452
0.708088 0.632307 0.247059
0.735294 0.634926 0.252451
0.766422 0.638235 0.252451
0.793168 0.638235 0.244148
0.807629 0.627482 0.226011
0.829718 0.626777 0.217157
0.857230 0.631847 0.213235
0.884222 0.634314 0.209314
0.908747 0.637546 0.205392
0.933333 0.640686 0.201471
0.180392 0.606618 0.136642
0.187910 0.606618 0.133333
0.195259 0.606618 0.133333
0.205266 0.603309 0.133333
0.218505 0.602696 0.133333
0.232108 0.601559 0.132721
0.246324 0.598775 0.128914
0.263848 0.591372 0.124877
0.285141 0.587623 0.121569
0.307598 0.586286 0.121569
0.338725 0.583701 0.125490
0.373775 0.583701 0.133333
0.415809 0.593995 0.146308
0.471324 0.619305 0.176781
0.503899 0.626225 0.184314
0.529638 0.626245 0.187623
0.556556 0.630147 0.191850
0.583475 0.630760 0.199877
0.609214 0.636129 0.209903
0.634314 0.641912 0.227083
0.651838 0.646063 0.236535
0.661520 0.649755 0.242008
0.679657 0.653676 0.248093
0.704890 0.654289 0.254768
0.735294 0.662132 0.259651
0.766422 0.665882 0.265123
0.796814 0.669363 0.266054
0.824755 0.669975 0.259348
0.841988 0.664338 0.244317
0.859195 0.657598 0.230760
0.886520 0.658211 0.226593
0.911887 0.661845 0.220833
0.937255 0.665441 0.215074
0.189461 0.633824 0.142402
0.196653 0.633824 0.142402
0.203753 0.633824 0.141176
0.212263 0.632598 0.141176
0.224265 0.630239 0.141176
0.237868 0.629481 0.138480
0.254167 0.625980 0.137255
0.268995 0.621714 0.132575
0.288542 0.616912 0.129412
0.310662 0.612990 0.126716
0.338725 0.610294 0.129412
0.369853 0.610103 0.134980
0.408364 0.611979 0.143627
0.457590 0.629412 0.164583
0.506373 0.652895 0.190441
0.537416 0.657353 0.196078
0.562745 0.657353 0.198652
0.588113 0.659965 0.203837
0.615196 0.662454 0.211765
0.642517 0.667892 0.225973
0.665441 0.673039 0.240686
0.682966 0.676961 0.250559
0.692647 0.680040 0.254902
0.710172 0.683578 0.261887
0.734620 0.684804 0.266973
0.766422 0.692302 0.270588
0.796814 0.695573 0.276241
0.824755 0.699265 0.278431
0.855392 0.700490 0.275245
0.879887 0.698889 0.264691
0.887914 0.684804 0.244118
0.911887 0.684804 0.236520
0.941176 0.688725 0.232598
0.199142 0.661029 0.149020
0.203922 0.661029 0.149020
0.210715 0.661029 0.149020
0.219098 0.661029 0.148671
0.230882 0.657966 0.148162
0.244485 0.657108 0.145098
0.258663 0.654044 0.144401
0.275613 0.649881 0.140319
0.293137 0.645343 0.136397
0.313913 0.641422 0.133333
0.338725 0.637500 0.133333
0.366655 0.634436 0.137255
0.401517 0.634436 0.143627
0.443953 0.642647 0.154454
0.501593 0.670596 0.188725
0.541422 0.684586 0.203922
0.570159 0.685417 0.206985
0.595002 0.688480 0.210811
0.620841 0.689338 0.215686
0.646691 0.693179 0.223529
0.675444 0.700245 0.239537
0.697426 0.704167 0.254289
0.714093 0.708088 0.262745
0.723775 0.711340 0.266479
0.741513 0.712868 0.273866
0.763603 0.715931 0.278431
0.796814 0.721285 0.282353
0.824755 0.724632 0.288285
0.855392 0.727803 0.290089
0.883088 0.731618 0.288829
0.910241 0.731564 0.281196
0.918873 0.717367 0.257318
0.941176 0.712868 0.250123
0.204902 0.688235 0.156863
0.211765 0.688235 0.155484
0.219424 0.688235 0.153922
0.227451 0.687255 0.153922
0.238725 0.687255 0.153064
0.251317 0.684314 0.152941
0.265931 0.683333 0.150000
0.280239 0.678585 0.148192
0.297059 0.672549 0.141422
0.314798 0.667647 0.138021
0.338725 0.664032 0.137255
0.365931 0.660784 0.137868
0.397059 0.660784 0.145098
0.436029 0.663725 0.152941
0.482782 0.677267 0.172059
0.540472 0.706985 0.204044
0.575000 0.715196 0.215686
0.600827 0.715686 0.216667
0.626961 0.716973 0.220037
0.654167 0.719608 0.227175
0.680270 0.723529 0.236765
0.706097 0.730392 0.250827
0.728615 0.734314 0.266667
0.745221 0.737592 0.274510
0.754902 0.739216 0.278431
0.771446 0.742862 0.285447
0.793627 0.746078 0.290196
0.824418 0.750643 0.293107
0.851961 0.753922 0.299020
0.883088 0.756648 0.302543
0.910294 0.758824 0.299020
0.941422 0.762286 0.295098
0.955882 0.752941 0.277451
0.214583 0.715441 0.160784
0.219022 0.715441 0.160784
0.223529 0.715441 0.160784
0.232518 0.714296 0.160784
0.242999 0.712623 0.159681
0.256250 0.711520 0.158712
0.269853 0.708701 0.156863
0.286275 0.704779 0.152941
0.300980 0.700031 0.148192
0.318505 0.695217 0.143995
0.339951 0.689974 0.141176
0.365319 0.687990 0.141176
0.394608 0.685172 0.145098
0.428290 0.685172 0.152941
0.469845 0.691299 0.162990
0.526961 0.717892 0.193505
0.576471 0.739522 0.219608
0.607598 0.743995 0.226260
0.632468 0.743995 0.227451
0.658352 0.746814 0.231373
0.684881 0.748974 0.239216
0.712500 0.754216 0.250368
0.738480 0.759681 0.263971
0.758824 0.763362 0.277574
0.775368 0.766422 0.286275
0.783211 0.769550 0.289886
0.800735 0.771446 0.294646
0.822181 0.774265 0.301582
0.851961 0.779289 0.304917
0.881415 0.782763 0.309804
0.910294 0.786029 0.313725
0.941422 0.788630 0.312623
0.972549 0.791054 0.308701
0.219608 0.741912 0.165441
0.225758 0.741912 0.165441
0.231173 0.741912 0.165441
0.239216 0.740617 0.164706
0.250490 0.738725 0.164706
0.260654 0.737990 0.164706
0.274510 0.734804 0.161520
0.291299 0.733172 0.159888
0.304902 0.727757 0.154473
0.322426 0.721607 0.149020
0.339951 0.716192 0.145098
0.365319 0.713963 0.145098
0.393137 0.710539 0.145098
0.424265 0.710539 0.152941
0.461106 0.710539 0.159069
0.505515 0.722526 0.175980
0.569853 0.755270 0.214951
0.611520 0.770075 0.231273
0.637331 0.773284 0.235294
