darkroom/assets/luts/mono-fine.cube
TITLE "Fine mono"
# Preset LUT for Lolly Bitmap Studio.
# Derived from sguyader/FilmSim "Acros" (CC0 1.0, https://github.com/sguyader/FilmSim),
# resampled from the 144³ HaldCLUT to a 33³ .cube. Public domain - see NOTICE.md.
LUT_3D_SIZE 33
DOMAIN_MIN 0.0 0.0 0.0
DOMAIN_MAX 1.0 1.0 1.0
0.007843 0.007843 0.007843
0.009681 0.009681 0.009681
0.011765 0.011765 0.011765
0.017279 0.017279 0.017279
0.023529 0.023529 0.023529
0.035294 0.035294 0.035294
0.046324 0.046324 0.046324
0.063848 0.063848 0.063848
0.077451 0.077451 0.077451
0.091054 0.091054 0.091054
0.104657 0.104657 0.104657
0.118260 0.118260 0.118260
0.135784 0.135784 0.135784
0.149387 0.149387 0.149387
0.166912 0.166912 0.166912
0.184436 0.184436 0.184436
0.201961 0.201961 0.201961
0.219485 0.219485 0.219485
0.237010 0.237010 0.237010
0.254534 0.254534 0.254534
0.275980 0.275980 0.275980
0.293505 0.293505 0.293505
0.311029 0.311029 0.311029
0.328554 0.328554 0.328554
0.346078 0.346078 0.346078
0.363603 0.363603 0.363603
0.381127 0.381127 0.381127
0.398652 0.398652 0.398652
0.412255 0.412255 0.412255
0.425858 0.425858 0.425858
0.439461 0.439461 0.439461
0.453064 0.453064 0.453064
0.466667 0.466667 0.466667
0.015686 0.015686 0.015686
0.019363 0.019363 0.019363
0.025123 0.025123 0.025123
0.030136 0.030136 0.030136
0.037132 0.037132 0.037132
0.048897 0.048897 0.048897
0.060317 0.060317 0.060317
0.073012 0.073012 0.073012
0.085294 0.085294 0.085294
0.098441 0.098441 0.098441
0.111068 0.111068 0.111068
0.126103 0.126103 0.126103
0.139706 0.139706 0.139706
0.157230 0.157230 0.157230
0.172672 0.172672 0.172672
0.188358 0.188358 0.188358
0.205882 0.205882 0.205882
0.223407 0.223407 0.223407
0.242770 0.242770 0.242770
0.262377 0.262377 0.262377
0.279902 0.279902 0.279902
0.297426 0.297426 0.297426
0.314951 0.314951 0.314951
0.332475 0.332475 0.332475
0.350000 0.350000 0.350000
0.367525 0.367525 0.367525
0.385049 0.385049 0.385049
0.399284 0.399284 0.399284
0.415916 0.415916 0.415916
0.429779 0.429779 0.429779
0.443382 0.443382 0.443382
0.456985 0.456985 0.456985
0.468505 0.468505 0.468505
0.031127 0.031127 0.031127
0.035049 0.035049 0.035049
0.038971 0.038971 0.038971
0.046814 0.046814 0.046814
0.054167 0.054167 0.054167
0.062500 0.062500 0.062500
0.070542 0.070542 0.070542
0.082177 0.082177 0.082177
0.092953 0.092953 0.092953
0.102819 0.102819 0.102819
0.117570 0.117570 0.117570
0.133127 0.133127 0.133127
0.147396 0.147396 0.147396
0.161152 0.161152 0.161152
0.178676 0.178676 0.178676
0.195956 0.195956 0.195956
0.213480 0.213480 0.213480
0.231005 0.231005 0.231005
0.248775 0.248775 0.248775
0.266299 0.266299 0.266299
0.283824 0.283824 0.283824
0.301348 0.301348 0.301348
0.322549 0.322549 0.322549
0.340074 0.340074 0.340074
0.353922 0.353922 0.353922
0.371446 0.371446 0.371446
0.388925 0.388925 0.388925
0.402574 0.402574 0.402574
0.419393 0.419393 0.419393
0.433555 0.433555 0.433555
0.446829 0.446829 0.446829
0.458709 0.458709 0.458709
0.470588 0.470588 0.470588
0.048652 0.048652 0.048652
0.052574 0.052574 0.052574
0.056495 0.056495 0.056495
0.064338 0.064338 0.064338
0.068260 0.068260 0.068260
0.076103 0.076103 0.076103
0.083946 0.083946 0.083946
0.092444 0.092444 0.092444
0.102574 0.102574 0.102574
0.114583 0.114583 0.114583
0.126585 0.126585 0.126585
0.141789 0.141789 0.141789
0.156985 0.156985 0.156985
0.170588 0.170588 0.170588
0.188113 0.188113 0.188113
0.205587 0.205587 0.205587
0.221569 0.221569 0.221569
0.239093 0.239093 0.239093
0.256618 0.256618 0.256618
0.274142 0.274142 0.274142
0.293260 0.293260 0.293260
0.310784 0.310784 0.310784
0.328309 0.328309 0.328309
0.344240 0.344240 0.344240
0.361765 0.361765 0.361765
0.377616 0.377616 0.377616
0.392892 0.392892 0.392892
0.408088 0.408088 0.408088
0.423729 0.423729 0.423729
0.437623 0.437623 0.437623
0.451080 0.451080 0.451080
0.461654 0.461654 0.461654
0.474510 0.474510 0.474510
0.070098 0.070098 0.070098
0.073759 0.073759 0.073759
0.074020 0.074020 0.074020
0.079534 0.079534 0.079534
0.085784 0.085784 0.085784
0.091054 0.091054 0.091054
0.097549 0.097549 0.097549
0.106495 0.106495 0.106495
0.117157 0.117157 0.117157
0.129029 0.129029 0.129029
0.140686 0.140686 0.140686
0.156373 0.156373 0.156373
0.170588 0.170588 0.170588
0.184191 0.184191 0.184191
0.201716 0.201716 0.201716
0.215809 0.215809 0.215809
0.232843 0.232843 0.232843
0.250368 0.250368 0.250368
0.267892 0.267892 0.267892
0.285417 0.285417 0.285417
0.302941 0.302941 0.302941
0.320466 0.320466 0.320466
0.337990 0.337990 0.337990
0.352083 0.352083 0.352083
0.369485 0.369485 0.369485
0.384176 0.384176 0.384176
0.400643 0.400643 0.400643
0.414338 0.414338 0.414338
0.427941 0.427941 0.427941
0.441544 0.441544 0.441544
0.455116 0.455116 0.455116
0.468490 0.468490 0.468490
0.478431 0.478431 0.478431
0.088971 0.088971 0.088971
0.091544 0.091544 0.091544
0.095305 0.095305 0.095305
0.097059 0.097059 0.097059
0.102987 0.102987 0.102987
0.109463 0.109463 0.109463
0.118260 0.118260 0.118260
0.127217 0.127217 0.127217
0.137623 0.137623 0.137623
0.148357 0.148357 0.148357
0.160907 0.160907 0.160907
0.174510 0.174510 0.174510
0.188113 0.188113 0.188113
0.201716 0.201716 0.201716
0.217793 0.217793 0.217793
0.232843 0.232843 0.232843
0.250368 0.250368 0.250368
0.264051 0.264051 0.264051
0.281495 0.281495 0.281495
0.299020 0.299020 0.299020
0.316544 0.316544 0.316544
0.330549 0.330549 0.330549
0.347672 0.347672 0.347672
0.363848 0.363848 0.363848
0.378799 0.378799 0.378799
0.394975 0.394975 0.394975
0.408578 0.408578 0.408578
0.422645 0.422645 0.422645
0.435784 0.435784 0.435784
0.449387 0.449387 0.449387
0.462829 0.462829 0.462829
0.473303 0.473303 0.473303
0.486275 0.486275 0.486275
0.112255 0.112255 0.112255
0.112990 0.112990 0.112990
0.116176 0.116176 0.116176
0.118206 0.118206 0.118206
0.123621 0.123621 0.123621
0.130025 0.130025 0.130025
0.140303 0.140303 0.140303
0.149387 0.149387 0.149387
0.159865 0.159865 0.159865
0.172511 0.172511 0.172511
0.185539 0.185539 0.185539
0.195956 0.195956 0.195956
0.209559 0.209559 0.209559
0.223162 0.223162 0.223162
0.238159 0.238159 0.238159
0.254266 0.254266 0.254266
0.267892 0.267892 0.267892
0.284704 0.284704 0.284704
0.299020 0.299020 0.299020
0.316544 0.316544 0.316544
0.330147 0.330147 0.330147
0.347672 0.347672 0.347672
0.361275 0.361275 0.361275
0.375613 0.375613 0.375613
0.391605 0.391605 0.391605
0.406005 0.406005 0.406005
0.419608 0.419608 0.419608
0.433211 0.433211 0.433211
0.446415 0.446415 0.446415
0.457230 0.457230 0.457230
0.469899 0.469899 0.469899
0.480515 0.480515 0.480515
0.493382 0.493382 0.493382
0.135539 0.135539 0.135539
0.138358 0.138358 0.138358
0.139461 0.139461 0.139461
0.143382 0.143382 0.143382
0.149770 0.149770 0.149770
0.154423 0.154423 0.154423
0.165074 0.165074 0.165074
0.175858 0.175858 0.175858
0.188634 0.188634 0.188634
0.199142 0.199142 0.199142
0.211987 0.211987 0.211987
0.224805 0.224805 0.224805
0.236029 0.236029 0.236029
0.249632 0.249632 0.249632
0.263235 0.263235 0.263235
0.276804 0.276804 0.276804
0.290441 0.290441 0.290441
0.304132 0.304132 0.304132
0.320466 0.320466 0.320466
0.334069 0.334069 0.334069
0.347672 0.347672 0.347672
0.361275 0.361275 0.361275
0.376815 0.376815 0.376815
0.391540 0.391540 0.391540
0.405025 0.405025 0.405025
0.418815 0.418815 0.418815
0.429289 0.429289 0.429289
0.442892 0.442892 0.442892
0.456357 0.456357 0.456357
0.467322 0.467322 0.467322
0.478676 0.478676 0.478676
0.489461 0.489461 0.489461
0.501961 0.501961 0.501961
0.162745 0.162745 0.162745
0.166667 0.166667 0.166667
0.167586 0.167586 0.167586
0.170987 0.170987 0.170987
0.175368 0.175368 0.175368
0.182690 0.182690 0.182690
0.189645 0.189645 0.189645
0.202237 0.202237 0.202237
0.216667 0.216667 0.216667
0.229626 0.229626 0.229626
0.240257 0.240257 0.240257
0.253094 0.253094 0.253094
0.263603 0.263603 0.263603
0.276838 0.276838 0.276838
0.290441 0.290441 0.290441
0.303952 0.303952 0.303952
0.316176 0.316176 0.316176
0.328309 0.328309 0.328309
0.341912 0.341912 0.341912
0.355515 0.355515 0.355515
0.368750 0.368750 0.368750
0.381893 0.381893 0.381893
0.394424 0.394424 0.394424
0.406005 0.406005 0.406005
0.419608 0.419608 0.419608
0.433211 0.433211 0.433211
0.442892 0.442892 0.442892
0.456495 0.456495 0.456495
0.467034 0.467034 0.467034
0.478033 0.478033 0.478033
0.489461 0.489461 0.489461
0.499602 0.499602 0.499602
0.509804 0.509804 0.509804
0.193015 0.193015 0.193015
0.193873 0.193873 0.193873
0.196936 0.196936 0.196936
0.200858 0.200858 0.200858
0.204779 0.204779 0.204779
0.210612 0.210612 0.210612
0.217241 0.217241 0.217241
0.226348 0.226348 0.226348
0.243015 0.243015 0.243015
0.257288 0.257288 0.257288
0.270489 0.270489 0.270489
0.280760 0.280760 0.280760
0.293827 0.293827 0.293827
0.304044 0.304044 0.304044
0.317165 0.317165 0.317165
0.330296 0.330296 0.330296
0.340502 0.340502 0.340502
0.353703 0.353703 0.353703
0.365939 0.365939 0.365939
0.377819 0.377819 0.377819
0.390564 0.390564 0.390564
0.401582 0.401582 0.401582
0.413848 0.413848 0.413848
0.424387 0.424387 0.424387
0.437132 0.437132 0.437132
0.447675 0.447675 0.447675
0.459681 0.459681 0.459681
0.470098 0.470098 0.470098
0.479779 0.479779 0.479779
0.490705 0.490705 0.490705
0.502014 0.502014 0.502014
0.512289 0.512289 0.512289
0.521569 0.521569 0.521569
0.221078 0.221078 0.221078
0.223568 0.223568 0.223568
0.225000 0.225000 0.225000
0.228922 0.228922 0.228922
0.232843 0.232843 0.232843
0.238917 0.238917 0.238917
0.245604 0.245604 0.245604
0.254435 0.254435 0.254435
0.265135 0.265135 0.265135
0.281985 0.281985 0.281985
0.296431 0.296431 0.296431
0.309000 0.309000 0.309000
0.321569 0.321569 0.321569
0.332361 0.332361 0.332361
0.343336 0.343336 0.343336
0.355722 0.355722 0.355722
0.366789 0.366789 0.366789
0.379044 0.379044 0.379044
0.390242 0.390242 0.390242
0.401218 0.401218 0.401218
0.412010 0.412010 0.412010
0.422304 0.422304 0.422304
0.434911 0.434911 0.434911
0.444975 0.444975 0.444975
0.454657 0.454657 0.454657
0.465097 0.465097 0.465097
0.474020 0.474020 0.474020
0.485049 0.485049 0.485049
0.494455 0.494455 0.494455
0.504657 0.504657 0.504657
0.513894 0.513894 0.513894
0.524265 0.524265 0.524265
0.532108 0.532108 0.532108
0.251593 0.251593 0.251593
0.252206 0.252206 0.252206
0.255515 0.255515 0.255515
0.257472 0.257472 0.257472
0.262944 0.262944 0.262944
0.267892 0.267892 0.267892
0.274502 0.274502 0.274502
0.283138 0.283138 0.283138
0.291268 0.291268 0.291268
0.303431 0.303431 0.303431
0.320956 0.320956 0.320956
0.335172 0.335172 0.335172
0.348392 0.348392 0.348392
0.361455 0.361455 0.361455
0.371714 0.371714 0.371714
0.381721 0.381721 0.381721
0.391422 0.391422 0.391422
0.404412 0.404412 0.404412
0.414093 0.414093 0.414093
0.423832 0.423832 0.423832
0.433839 0.433839 0.433839
0.444267 0.444267 0.444267
0.455515 0.455515 0.455515
0.463837 0.463837 0.463837
0.475123 0.475123 0.475123
0.482966 0.482966 0.482966
0.492042 0.492042 0.492042
0.502574 0.502574 0.502574
0.510907 0.510907 0.510907
0.520588 0.520588 0.520588
0.530025 0.530025 0.530025
0.537868 0.537868 0.537868
0.545711 0.545711 0.545711
0.279412 0.279412 0.279412
0.282031 0.282031 0.282031
0.283333 0.283333 0.283333
0.287255 0.287255 0.287255
0.291176 0.291176 0.291176
0.295604 0.295604 0.295604
0.302482 0.302482 0.302482
0.309023 0.309023 0.309023
0.318015 0.318015 0.318015
0.326792 0.326792 0.326792
0.342402 0.342402 0.342402
0.359926 0.359926 0.359926
0.373529 0.373529 0.373529
0.386994 0.386994 0.386994
0.396814 0.396814 0.396814
0.406495 0.406495 0.406495
0.417402 0.417402 0.417402
0.425934 0.425934 0.425934
0.436918 0.436918 0.436918
0.445588 0.445588 0.445588
0.456434 0.456434 0.456434
0.465196 0.465196 0.465196
0.474265 0.474265 0.474265
0.484482 0.484482 0.484482
0.493627 0.493627 0.493627
0.503309 0.503309 0.503309
0.512255 0.512255 0.512255
0.520098 0.520098 0.520098
0.528431 0.528431 0.528431
0.535784 0.535784 0.535784
0.543873 0.543873 0.543873
0.553554 0.553554 0.553554
0.560784 0.560784 0.560784
0.310172 0.310172 0.310172
0.310539 0.310539 0.310539
0.313871 0.313871 0.313871
0.314461 0.314461 0.314461
0.318382 0.318382 0.318382
0.323526 0.323526 0.323526
0.329113 0.329113 0.329113
0.335068 0.335068 0.335068
0.341820 0.341820 0.341820
0.350532 0.350532 0.350532
0.363848 0.363848 0.363848
0.377451 0.377451 0.377451
0.394975 0.394975 0.394975
0.408912 0.408912 0.408912
0.422181 0.422181 0.422181
0.431752 0.431752 0.431752
0.441544 0.441544 0.441544
0.451237 0.451237 0.451237
0.459352 0.459352 0.459352
0.467367 0.467367 0.467367
0.476578 0.476578 0.476578
0.486642 0.486642 0.486642
0.495711 0.495711 0.495711
0.505392 0.505392 0.505392
0.514093 0.514093 0.514093
0.521936 0.521936 0.521936
0.529779 0.529779 0.529779
0.537623 0.537623 0.537623
0.545956 0.545956 0.545956
0.553309 0.553309 0.553309
0.561397 0.561397 0.561397
0.568995 0.568995 0.568995
0.576838 0.576838 0.576838
0.337745 0.337745 0.337745
0.337745 0.337745 0.337745
0.339461 0.339461 0.339461
0.342364 0.342364 0.342364
0.345588 0.345588 0.345588
0.350100 0.350100 0.350100
0.354825 0.354825 0.354825
0.361757 0.361757 0.361757
0.368566 0.368566 0.368566
0.375237 0.375237 0.375237
0.384115 0.384115 0.384115
0.396837 0.396837 0.396837
0.412500 0.412500 0.412500
0.430025 0.430025 0.430025
0.443627 0.443627 0.443627
0.453309 0.453309 0.453309
0.464093 0.464093 0.464093
0.472741 0.472741 0.472741
0.481602 0.481602 0.481602
0.490479 0.490479 0.490479
0.499173 0.499173 0.499173
0.507475 0.507475 0.507475
0.515931 0.515931 0.515931
0.523775 0.523775 0.523775
0.532169 0.532169 0.532169
0.539461 0.539461 0.539461
0.548039 0.548039 0.548039
0.555147 0.555147 0.555147
0.563480 0.563480 0.563480
0.570833 0.570833 0.570833
0.578676 0.578676 0.578676
0.586520 0.586520 0.586520
0.594363 0.594363 0.594363
0.364828 0.364828 0.364828
0.364886 0.364886 0.364886
0.364951 0.364951 0.364951
0.368800 0.368800 0.368800
0.372672 0.372672 0.372672
0.376593 0.376593 0.376593
0.380515 0.380515 0.380515
0.385627 0.385627 0.385627
0.392279 0.392279 0.392279
0.400123 0.400123 0.400123
0.406778 0.406778 0.406778
0.416422 0.416422 0.416422
0.430025 0.430025 0.430025
0.447549 0.447549 0.447549
0.461152 0.461152 0.461152
0.474755 0.474755 0.474755
0.484436 0.484436 0.484436
0.494240 0.494240 0.494240
0.503799 0.503799 0.503799
0.513480 0.513480 0.513480
0.519317 0.519317 0.519317
0.528922 0.528922 0.528922
0.534681 0.534681 0.534681
0.544363 0.544363 0.544363
0.550123 0.550123 0.550123
0.559804 0.559804 0.559804
0.565564 0.565564 0.565564
0.572672 0.572672 0.572672
0.581005 0.581005 0.581005
0.588358 0.588358 0.588358
0.596201 0.596201 0.596201
0.602206 0.602206 0.602206
0.607966 0.607966 0.607966
0.390196 0.390196 0.390196
0.390196 0.390196 0.390196
0.392157 0.392157 0.392157
0.394118 0.394118 0.394118
0.397794 0.397794 0.397794
0.400674 0.400674 0.400674
0.405515 0.405515 0.405515
0.409804 0.409804 0.409804
0.415196 0.415196 0.415196
0.421569 0.421569 0.421569
0.428799 0.428799 0.428799
0.437255 0.437255 0.437255
0.446324 0.446324 0.446324
0.460968 0.460968 0.460968
0.477574 0.477574 0.477574
0.492279 0.492279 0.492279
0.503922 0.503922 0.503922
0.515564 0.515564 0.515564
0.523529 0.523529 0.523529
0.531373 0.531373 0.531373
0.539951 0.539951 0.539951
0.547059 0.547059 0.547059
0.554902 0.554902 0.554902
0.562745 0.562745 0.562745
0.570588 0.570588 0.570588
0.577328 0.577328 0.577328
0.583088 0.583088 0.583088
0.591483 0.591483 0.591483
0.598529 0.598529 0.598529
0.605882 0.605882 0.605882
0.613725 0.613725 0.613725
0.619730 0.619730 0.619730
0.625490 0.625490 0.625490
0.411642 0.411642 0.411642
0.415441 0.415441 0.415441
0.415564 0.415564 0.415564
0.419363 0.419363 0.419363
0.419485 0.419485 0.419485
0.423407 0.423407 0.423407
0.427328 0.427328 0.427328
0.431250 0.431250 0.431250
0.438021 0.438021 0.438021
0.443015 0.443015 0.443015
0.449548 0.449548 0.449548
0.455392 0.455392 0.455392
0.464997 0.464997 0.464997
0.474755 0.474755 0.474755
0.488358 0.488358 0.488358
0.505882 0.505882 0.505882
0.519485 0.519485 0.519485
0.533088 0.533088 0.533088
0.542770 0.542770 0.542770
0.552451 0.552451 0.552451
0.558211 0.558211 0.558211
0.567892 0.567892 0.567892
0.573652 0.573652 0.573652
0.580270 0.580270 0.580270
0.588113 0.588113 0.588113
0.595956 0.595956 0.595956
0.603799 0.603799 0.603799
0.610294 0.610294 0.610294
0.615564 0.615564 0.615564
0.623407 0.623407 0.623407
0.631250 0.631250 0.631250
0.635172 0.635172 0.635172
0.643015 0.643015 0.643015
0.437010 0.437010 0.437010
0.437010 0.437010 0.437010
0.438618 0.438618 0.438618
0.440931 0.440931 0.440931
0.442433 0.442433 0.442433
0.444853 0.444853 0.444853
0.448775 0.448775 0.448775
0.452696 0.452696 0.452696
0.456618 0.456618 0.456618
0.462737 0.462737 0.462737
0.468382 0.468382 0.468382
0.476225 0.476225 0.476225
0.482598 0.482598 0.482598
0.491912 0.491912 0.491912
0.501961 0.501961 0.501961
0.515633 0.515633 0.515633
0.533088 0.533088 0.533088
0.546760 0.546760 0.546760
0.558578 0.558578 0.558578
0.569975 0.569975 0.569975
0.578186 0.578186 0.578186
0.585417 0.585417 0.585417
0.593873 0.593873 0.593873
0.600858 0.600858 0.600858
0.606618 0.606618 0.606618
0.613480 0.613480 0.613480
0.621324 0.621324 0.621324
0.626693 0.626693 0.626693
0.633088 0.633088 0.633088
0.639338 0.639338 0.639338
0.645098 0.645098 0.645098
0.652696 0.652696 0.652696
0.656618 0.656618 0.656618
0.458456 0.458456 0.458456
0.458456 0.458456 0.458456
0.458456 0.458456 0.458456
0.462377 0.462377 0.462377
0.462377 0.462377 0.462377
0.466299 0.466299 0.466299
0.470152 0.470152 0.470152
0.474142 0.474142 0.474142
0.478064 0.478064 0.478064
0.481985 0.481985 0.481985
0.488350 0.488350 0.488350
0.493750 0.493750 0.493750
0.500123 0.500123 0.500123
0.505882 0.505882 0.505882
0.515564 0.515564 0.515564
0.529056 0.529056 0.529056
0.543137 0.543137 0.543137
0.560294 0.560294 0.560294
0.573897 0.573897 0.573897
0.583946 0.583946 0.583946
0.593260 0.593260 0.593260
0.602941 0.602941 0.602941
0.611397 0.611397 0.611397
0.618382 0.618382 0.618382
0.624142 0.624142 0.624142
0.631005 0.631005 0.631005
0.638848 0.638848 0.638848
0.642770 0.642770 0.642770
0.650613 0.650613 0.650613
0.656863 0.656863 0.656863
0.662377 0.662377 0.662377
0.668382 0.668382 0.668382
0.674142 0.674142 0.674142
0.479902 0.479902 0.479902
0.479902 0.479902 0.479902
0.479902 0.479902 0.479902
0.480499 0.480499 0.480499
0.483824 0.483824 0.483824
0.486137 0.486137 0.486137
0.487745 0.487745 0.487745
0.491667 0.491667 0.491667
0.495588 0.495588 0.495588
0.499510 0.499510 0.499510
0.506127 0.506127 0.506127
0.511275 0.511275 0.511275
0.517647 0.517647 0.517647
0.523407 0.523407 0.523407
0.530882 0.530882 0.530882
0.541222 0.541222 0.541222
0.552451 0.552451 0.552451
0.569975 0.569975 0.569975
0.584957 0.584957 0.584957
0.597411 0.597411 0.597411
0.609314 0.609314 0.609314
0.617157 0.617157 0.617157
0.626225 0.626225 0.626225
0.635907 0.635907 0.635907
0.641667 0.641667 0.641667
0.648529 0.648529 0.648529
0.656373 0.656373 0.656373
0.660294 0.660294 0.660294
0.666850 0.666850 0.666850
0.672059 0.672059 0.672059
0.678523 0.678523 0.678523
0.683824 0.683824 0.683824
0.687745 0.687745 0.687745
0.497426 0.497426 0.497426
0.497426 0.497426 0.497426
0.497426 0.497426 0.497426
0.501348 0.501348 0.501348
0.501348 0.501348 0.501348
0.505270 0.505270 0.505270
0.505270 0.505270 0.505270
0.509191 0.509191 0.509191
0.513113 0.513113 0.513113
0.517168 0.517168 0.517168
0.523652 0.523652 0.523652
0.528799 0.528799 0.528799
0.532721 0.532721 0.532721
0.540564 0.540564 0.540564
0.546691 0.546691 0.546691
0.553045 0.553045 0.553045
0.564400 0.564400 0.564400
0.576451 0.576451 0.576451
0.593873 0.593873 0.593873
0.610784 0.610784 0.610784
0.622917 0.622917 0.622917
0.634069 0.634069 0.634069
0.642525 0.642525 0.642525
0.650368 0.650368 0.650368
0.658211 0.658211 0.658211
0.664951 0.664951 0.664951
0.670711 0.670711 0.670711
0.677819 0.677819 0.677819
0.681817 0.681817 0.681817
0.687990 0.687990 0.687990
0.693505 0.693505 0.693505
0.697752 0.697752 0.697752
0.705270 0.705270 0.705270
0.514951 0.514951 0.514951
0.514951 0.514951 0.514951
0.518873 0.518873 0.518873
0.518873 0.518873 0.518873
0.518873 0.518873 0.518873
0.522794 0.522794 0.522794
0.524985 0.524985 0.524985
0.526716 0.526716 0.526716
0.530637 0.530637 0.530637
0.534559 0.534559 0.534559
0.538480 0.538480 0.538480
0.543015 0.543015 0.543015
0.550245 0.550245 0.550245
0.554534 0.554534 0.554534
0.562010 0.562010 0.562010
0.569853 0.569853 0.569853
0.577083 0.577083 0.577083
0.588151 0.588151 0.588151
0.601716 0.601716 0.601716
0.619240 0.619240 0.619240
0.633609 0.633609 0.633609
0.644171 0.644171 0.644171
0.655285 0.655285 0.655285
0.663971 0.663971 0.663971
0.672488 0.672488 0.672488
0.679657 0.679657 0.679657
0.686504 0.686504 0.686504
0.691422 0.691422 0.691422
0.698192 0.698192 0.698192
0.703186 0.703186 0.703186
0.707276 0.707276 0.707276
0.712462 0.712462 0.712462
0.718873 0.718873 0.718873
0.532475 0.532475 0.532475
0.532475 0.532475 0.532475
0.536152 0.536152 0.536152
0.536397 0.536397 0.536397
0.536397 0.536397 0.536397
0.540319 0.540319 0.540319
0.540319 0.540319 0.540319
0.544240 0.544240 0.544240
0.548162 0.548162 0.548162
0.552083 0.552083 0.552083
0.556005 0.556005 0.556005
0.559926 0.559926 0.559926
0.563848 0.563848 0.563848
0.571691 0.571691 0.571691
0.575613 0.575613 0.575613
0.583456 0.583456 0.583456
0.589767 0.589767 0.589767
0.599046 0.599046 0.599046
0.609559 0.609559 0.609559
0.626225 0.626225 0.626225
0.642601 0.642601 0.642601
0.654768 0.654768 0.654768
0.667034 0.667034 0.667034
0.676903 0.676903 0.676903
0.685631 0.685631 0.685631
0.693260 0.693260 0.693260
0.701103 0.701103 0.701103
0.705587 0.705587 0.705587
0.712868 0.712868 0.712868
0.716789 0.716789 0.716789
0.721760 0.721760 0.721760
0.727118 0.727118 0.727118
0.732475 0.732475 0.732475
0.550000 0.550000 0.550000
0.550000 0.550000 0.550000
0.550000 0.550000 0.550000
0.552941 0.552941 0.552941
0.553922 0.553922 0.553922
0.553922 0.553922 0.553922
0.557843 0.557843 0.557843
0.561060 0.561060 0.561060
0.561765 0.561765 0.561765
0.565686 0.565686 0.565686
0.569608 0.569608 0.569608
0.573989 0.573989 0.573989
0.579902 0.579902 0.579902
0.585294 0.585294 0.585294
0.590870 0.590870 0.590870
0.597059 0.597059 0.597059
0.602941 0.602941 0.602941
0.608824 0.608824 0.608824
0.620037 0.620037 0.620037
0.632261 0.632261 0.632261
0.648529 0.648529 0.648529
0.663572 0.663572 0.663572
0.676716 0.676716 0.676716
0.687040 0.687040 0.687040
0.698284 0.698284 0.698284
0.705055 0.705055 0.705055
0.711520 0.711520 0.711520
0.718627 0.718627 0.718627
0.725613 0.725613 0.725613
0.730392 0.730392 0.730392
0.734559 0.734559 0.734559
0.741697 0.741697 0.741697
0.746078 0.746078 0.746078
0.564706 0.564706 0.564706
0.567525 0.567525 0.567525
0.567525 0.567525 0.567525
0.567525 0.567525 0.567525
0.568490 0.568490 0.568490
0.571446 0.571446 0.571446
0.572342 0.572342 0.572342
0.575368 0.575368 0.575368
0.579289 0.579289 0.579289
0.583211 0.583211 0.583211
0.586252 0.586252 0.586252
0.591054 0.591054 0.591054
0.594975 0.594975 0.594975
0.598897 0.598897 0.598897
0.603439 0.603439 0.603439
0.610662 0.610662 0.610662
0.616544 0.616544 0.616544
0.622426 0.622426 0.622426
0.630752 0.630752 0.630752
0.641770 0.641770 0.641770
0.655270 0.655270 0.655270
0.669975 0.669975 0.669975
0.685516 0.685516 0.685516
0.697798 0.697798 0.697798
0.706587 0.706587 0.706587
0.715751 0.715751 0.715751
0.724387 0.724387 0.724387
0.731261 0.731261 0.731261
0.736642 0.736642 0.736642
0.743995 0.743995 0.743995
0.749196 0.749196 0.749196
0.755760 0.755760 0.755760
0.763603 0.763603 0.763603
0.581127 0.581127 0.581127
0.581127 0.581127 0.581127
0.581127 0.581127 0.581127
0.582422 0.582422 0.582422
0.585049 0.585049 0.585049
0.585049 0.585049 0.585049
0.588833 0.588833 0.588833
0.588971 0.588971 0.588971
0.592892 0.592892 0.592892
0.596814 0.596814 0.596814
0.600506 0.600506 0.600506
0.604657 0.604657 0.604657
0.608303 0.608303 0.608303
0.612500 0.612500 0.612500
0.616422 0.616422 0.616422
0.623552 0.623552 0.623552
0.628186 0.628186 0.628186
0.635907 0.635907 0.635907
0.641345 0.641345 0.641345
0.651348 0.651348 0.651348
