darkroom/assets/luts/mono-fine.cube
TITLE "Fine mono"
# Preset LUT for Lolly Bitmap Studio.
# Derived from sguyader/FilmSim "Acros" (CC0 1.0, https://github.com/sguyader/FilmSim),
# resampled from the 144³ HaldCLUT to a 33³ .cube. Public domain - see NOTICE.md.
LUT_3D_SIZE 5
DOMAIN_MIN 0.0 0.0 0.0
DOMAIN_MAX 1.0 1.0 1.0
0.007843 0.007843 0.007843
0.077451 0.077451 0.077451
0.201961 0.201961 0.201961
0.346078 0.346078 0.346078
0.466667 0.466667 0.466667
0.162745 0.162745 0.162745
0.216667 0.216667 0.216667
0.316176 0.316176 0.316176
0.419608 0.419608 0.419608
0.509804 0.509804 0.509804
0.390196 0.390196 0.390196
0.415196 0.415196 0.415196
0.503922 0.503922 0.503922
0.570588 0.570588 0.570588
0.625490 0.625490 0.625490
0.550000 0.550000 0.550000
0.561765 0.561765 0.561765
0.602941 0.602941 0.602941
0.698284 0.698284 0.698284
0.746078 0.746078 0.746078
0.662745 0.662745 0.662745
0.670588 0.670588 0.670588
0.698039 0.698039 0.698039
0.749020 0.749020 0.749020
0.901961 0.901961 0.901961
0.031373 0.031373 0.031373
0.120588 0.120588 0.120588
0.236275 0.236275 0.236275
0.357843 0.357843 0.357843
0.474510 0.474510 0.474510
0.190931 0.190931 0.190931
0.236458 0.236458 0.236458
0.323652 0.323652 0.323652
0.427451 0.427451 0.427451
0.517402 0.517402 0.517402
0.415686 0.415686 0.415686
0.440931 0.440931 0.440931
0.516422 0.516422 0.516422
0.578431 0.578431 0.578431
0.625490 0.625490 0.625490
0.569363 0.569363 0.569363
0.581373 0.581373 0.581373
0.620466 0.620466 0.620466
0.706127 0.706127 0.706127
0.753922 0.753922 0.753922
0.678431 0.678431 0.678431
0.686275 0.686275 0.686275
0.709804 0.709804 0.709804
0.756127 0.756127 0.756127
0.913725 0.913725 0.913725
0.090196 0.090196 0.090196
0.144118 0.144118 0.144118
0.325490 0.325490 0.325490
0.457843 0.457843 0.457843
0.550980 0.550980 0.550980
0.287255 0.287255 0.287255
0.299020 0.299020 0.299020
0.398284 0.398284 0.398284
0.500000 0.500000 0.500000
0.570588 0.570588 0.570588
0.479412 0.479412 0.479412
0.497549 0.497549 0.497549
0.544118 0.544118 0.544118
0.586275 0.586275 0.586275
0.636275 0.636275 0.636275
0.608824 0.608824 0.608824
0.620588 0.620588 0.620588
0.658333 0.658333 0.658333
0.723407 0.723407 0.723407
0.772059 0.772059 0.772059
0.709804 0.709804 0.709804
0.719118 0.719118 0.719118
0.744118 0.744118 0.744118
0.794608 0.794608 0.794608
0.937255 0.937255 0.937255
0.169608 0.169608 0.169608
0.211765 0.211765 0.211765
0.382353 0.382353 0.382353
0.503676 0.503676 0.503676
0.593137 0.593137 0.593137
0.361765 0.361765 0.361765
0.335294 0.335294 0.335294
0.414093 0.414093 0.414093
0.540809 0.540809 0.540809
0.622549 0.622549 0.622549
0.520588 0.520588 0.520588
0.543995 0.543995 0.543995
0.580637 0.580637 0.580637
0.634314 0.634314 0.634314
0.696078 0.696078 0.696078
0.679412 0.679412 0.679412
0.687990 0.687990 0.687990
0.713971 0.713971 0.713971
0.753370 0.753370 0.753370
0.782353 0.782353 0.782353
0.753922 0.753922 0.753922
0.764706 0.764706 0.764706
0.798529 0.798529 0.798529
0.876225 0.876225 0.876225
0.964706 0.964706 0.964706
0.266667 0.266667 0.266667
0.301961 0.301961 0.301961
0.409804 0.409804 0.409804
0.546078 0.546078 0.546078
0.627451 0.627451 0.627451
0.375490 0.375490 0.375490
0.391176 0.391176 0.391176
0.456373 0.456373 0.456373
0.577206 0.577206 0.577206
0.650980 0.650980 0.650980
0.586275 0.586275 0.586275
0.594118 0.594118 0.594118
0.600000 0.600000 0.600000
0.648039 0.648039 0.648039
0.715686 0.715686 0.715686
0.706863 0.706863 0.706863
0.714706 0.714706 0.714706
0.737745 0.737745 0.737745
0.777451 0.777451 0.777451
0.845098 0.845098 0.845098
0.886275 0.886275 0.886275
0.894118 0.894118 0.894118
0.923529 0.923529 0.923529
0.956863 0.956863 0.956863
0.988235 0.988235 0.988235
