darkroom/assets/luts/mono-fine.cube
TITLE "Fine mono"
# Preset LUT for Lolly Bitmap Studio.
# Derived from sguyader/FilmSim "Acros" (CC0 1.0, https://github.com/sguyader/FilmSim),
# resampled from the 144³ HaldCLUT to a 33³ .cube. Public domain - see NOTICE.md.
LUT_3D_SIZE 9
DOMAIN_MIN 0.0 0.0 0.0
DOMAIN_MAX 1.0 1.0 1.0
0.007843 0.007843 0.007843
0.023529 0.023529 0.023529
0.077451 0.077451 0.077451
0.135784 0.135784 0.135784
0.201961 0.201961 0.201961
0.275980 0.275980 0.275980
0.346078 0.346078 0.346078
0.412255 0.412255 0.412255
0.466667 0.466667 0.466667
0.070098 0.070098 0.070098
0.085784 0.085784 0.085784
0.117157 0.117157 0.117157
0.170588 0.170588 0.170588
0.232843 0.232843 0.232843
0.302941 0.302941 0.302941
0.369485 0.369485 0.369485
0.427941 0.427941 0.427941
0.478431 0.478431 0.478431
0.162745 0.162745 0.162745
0.175368 0.175368 0.175368
0.216667 0.216667 0.216667
0.263603 0.263603 0.263603
0.316176 0.316176 0.316176
0.368750 0.368750 0.368750
0.419608 0.419608 0.419608
0.467034 0.467034 0.467034
0.509804 0.509804 0.509804
0.279412 0.279412 0.279412
0.291176 0.291176 0.291176
0.318015 0.318015 0.318015
0.373529 0.373529 0.373529
0.417402 0.417402 0.417402
0.456434 0.456434 0.456434
0.493627 0.493627 0.493627
0.528431 0.528431 0.528431
0.560784 0.560784 0.560784
0.390196 0.390196 0.390196
0.397794 0.397794 0.397794
0.415196 0.415196 0.415196
0.446324 0.446324 0.446324
0.503922 0.503922 0.503922
0.539951 0.539951 0.539951
0.570588 0.570588 0.570588
0.598529 0.598529 0.598529
0.625490 0.625490 0.625490
0.479902 0.479902 0.479902
0.483824 0.483824 0.483824
0.495588 0.495588 0.495588
0.517647 0.517647 0.517647
0.552451 0.552451 0.552451
0.609314 0.609314 0.609314
0.641667 0.641667 0.641667
0.666850 0.666850 0.666850
0.687745 0.687745 0.687745
0.550000 0.550000 0.550000
0.553922 0.553922 0.553922
0.561765 0.561765 0.561765
0.579902 0.579902 0.579902
0.602941 0.602941 0.602941
0.648529 0.648529 0.648529
0.698284 0.698284 0.698284
0.725613 0.725613 0.725613
0.746078 0.746078 0.746078
0.608333 0.608333 0.608333
0.612255 0.612255 0.612255
0.620098 0.620098 0.620098
0.635294 0.635294 0.635294
0.653186 0.653186 0.653186
0.679902 0.679902 0.679902
0.730392 0.730392 0.730392
0.776532 0.776532 0.776532
0.820098 0.820098 0.820098
0.662745 0.662745 0.662745
0.666667 0.666667 0.666667
0.670588 0.670588 0.670588
0.682353 0.682353 0.682353
0.698039 0.698039 0.698039
0.717647 0.717647 0.717647
0.749020 0.749020 0.749020
0.827941 0.827941 0.827941
0.901961 0.901961 0.901961
0.015686 0.015686 0.015686
0.042218 0.042218 0.042218
0.088725 0.088725 0.088725
0.139706 0.139706 0.139706
0.205882 0.205882 0.205882
0.279902 0.279902 0.279902
0.350000 0.350000 0.350000
0.416176 0.416176 0.416176
0.470588 0.470588 0.470588
0.077880 0.077880 0.077880
0.089706 0.089706 0.089706
0.120971 0.120971 0.120971
0.174510 0.174510 0.174510
0.236765 0.236765 0.236765
0.306863 0.306863 0.306863
0.373039 0.373039 0.373039
0.431801 0.431801 0.431801
0.482353 0.482353 0.482353
0.170588 0.170588 0.170588
0.183211 0.183211 0.183211
0.221569 0.221569 0.221569
0.267525 0.267525 0.267525
0.317463 0.317463 0.317463
0.369118 0.369118 0.369118
0.422273 0.422273 0.422273
0.469730 0.469730 0.469730
0.512745 0.512745 0.512745
0.288725 0.288725 0.288725
0.300146 0.300146 0.300146
0.325858 0.325858 0.325858
0.378370 0.378370 0.378370
0.421324 0.421324 0.421324
0.458824 0.458824 0.458824
0.493627 0.493627 0.493627
0.527941 0.527941 0.527941
0.560784 0.560784 0.560784
0.398039 0.398039 0.398039
0.405852 0.405852 0.405852
0.423039 0.423039 0.423039
0.452114 0.452114 0.452114
0.507843 0.507843 0.507843
0.543137 0.543137 0.543137
0.572855 0.572855 0.572855
0.601961 0.601961 0.601961
0.625490 0.625490 0.625490
0.485110 0.485110 0.485110
0.491628 0.491628 0.491628
0.503431 0.503431 0.503431
0.523039 0.523039 0.523039
0.556373 0.556373 0.556373
0.612316 0.612316 0.612316
0.644608 0.644608 0.644608
0.668444 0.668444 0.668444
0.691667 0.691667 0.691667
0.553922 0.553922 0.553922
0.557843 0.557843 0.557843
0.569608 0.569608 0.569608
0.585294 0.585294 0.585294
0.608762 0.608762 0.608762
0.648529 0.648529 0.648529
0.699755 0.699755 0.699755
0.726838 0.726838 0.726838
0.750000 0.750000 0.750000
0.616115 0.616115 0.616115
0.618804 0.618804 0.618804
0.626271 0.626271 0.626271
0.639683 0.639683 0.639683
0.658824 0.658824 0.658824
0.682537 0.682537 0.682537
0.730392 0.730392 0.730392
0.777451 0.777451 0.777451
0.824020 0.824020 0.824020
0.666667 0.666667 0.666667
0.670588 0.670588 0.670588
0.677083 0.677083 0.677083
0.686275 0.686275 0.686275
0.701961 0.701961 0.701961
0.721569 0.721569 0.721569
0.750000 0.750000 0.750000
0.831434 0.831434 0.831434
0.905882 0.905882 0.905882
0.031373 0.031373 0.031373
0.047059 0.047059 0.047059
0.120588 0.120588 0.120588
0.185784 0.185784 0.185784
0.236275 0.236275 0.236275
0.299142 0.299142 0.299142
0.357843 0.357843 0.357843
0.423897 0.423897 0.423897
0.474510 0.474510 0.474510
0.108333 0.108333 0.108333
0.119730 0.119730 0.119730
0.154442 0.154442 0.154442
0.210600 0.210600 0.210600
0.261949 0.261949 0.261949
0.318137 0.318137 0.318137
0.380882 0.380882 0.380882
0.439108 0.439108 0.439108
0.488848 0.488848 0.488848
0.190931 0.190931 0.190931
0.204841 0.204841 0.204841
0.236458 0.236458 0.236458
0.275276 0.275276 0.275276
0.323652 0.323652 0.323652
0.376961 0.376961 0.376961
0.427451 0.427451 0.427451
0.474663 0.474663 0.474663
0.517402 0.517402 0.517402
0.307966 0.307966 0.307966
0.319593 0.319593 0.319593
0.344914 0.344914 0.344914
0.389216 0.389216 0.389216
0.429167 0.429167 0.429167
0.461275 0.461275 0.461275
0.496569 0.496569 0.496569
0.531327 0.531327 0.531327
0.563235 0.563235 0.563235
0.415686 0.415686 0.415686
0.423039 0.423039 0.423039
0.440931 0.440931 0.440931
0.467708 0.467708 0.467708
0.516422 0.516422 0.516422
0.550980 0.550980 0.550980
0.578431 0.578431 0.578431
0.602451 0.602451 0.602451
0.625490 0.625490 0.625490
0.499510 0.499510 0.499510
0.506143 0.506143 0.506143
0.518873 0.518873 0.518873
0.538358 0.538358 0.538358
0.565993 0.565993 0.565993
0.618627 0.618627 0.618627
0.652451 0.652451 0.652451
0.675659 0.675659 0.675659
0.695588 0.695588 0.695588
0.569363 0.569363 0.569363
0.573192 0.573192 0.573192
0.581373 0.581373 0.581373
0.597059 0.597059 0.597059
0.620466 0.620466 0.620466
0.653064 0.653064 0.653064
0.706127 0.706127 0.706127
0.733456 0.733456 0.733456
0.753922 0.753922 0.753922
0.627451 0.627451 0.627451
0.630193 0.630193 0.630193
0.637714 0.637714 0.637714
0.650888 0.650888 0.650888
0.668444 0.668444 0.668444
0.690610 0.690610 0.690610
0.733456 0.733456 0.733456
0.785294 0.785294 0.785294
0.835784 0.835784 0.835784
0.678431 0.678431 0.678431
0.678431 0.678431 0.678431
0.686275 0.686275 0.686275
0.697672 0.697672 0.697672
0.709804 0.709804 0.709804
0.729412 0.729412 0.729412
0.756127 0.756127 0.756127
0.835784 0.835784 0.835784
0.913725 0.913725 0.913725
0.057353 0.057353 0.057353
0.074326 0.074326 0.074326
0.135294 0.135294 0.135294
0.220588 0.220588 0.220588
0.286765 0.286765 0.286765
0.359314 0.359314 0.359314
0.414583 0.414583 0.414583
0.457843 0.457843 0.457843
0.492647 0.492647 0.492647
0.150674 0.150674 0.150674
0.132820 0.132820 0.132820
0.155392 0.155392 0.155392
0.247733 0.247733 0.247733
0.311581 0.311581 0.311581
0.375176 0.375176 0.375176
0.426838 0.426838 0.426838
0.465686 0.465686 0.465686
0.500184 0.500184 0.500184
0.217157 0.217157 0.217157
0.244240 0.244240 0.244240
0.274265 0.274265 0.274265
0.315196 0.315196 0.315196
0.369608 0.369608 0.369608
0.414017 0.414017 0.414017
0.452696 0.452696 0.452696
0.485218 0.485218 0.485218
0.524510 0.524510 0.524510
0.345159 0.345159 0.345159
0.354611 0.354611 0.354611
0.374862 0.374862 0.374862
0.407123 0.407123 0.407123
0.435049 0.435049 0.435049
0.468199 0.468199 0.468199
0.501471 0.501471 0.501471
0.536275 0.536275 0.536275
0.571078 0.571078 0.571078
0.438480 0.438480 0.438480
0.445098 0.445098 0.445098
0.461703 0.461703 0.461703
0.487960 0.487960 0.487960
0.529044 0.529044 0.529044
0.558824 0.558824 0.558824
0.580882 0.580882 0.580882
0.603523 0.603523 0.603523
0.629412 0.629412 0.629412
0.519118 0.519118 0.519118
0.525490 0.525490 0.525490
0.537255 0.537255 0.537255
0.557093 0.557093 0.557093
0.583088 0.583088 0.583088
0.629496 0.629496 0.629496
0.660294 0.660294 0.660294
0.680093 0.680093 0.680093
0.699510 0.699510 0.699510
0.585294 0.585294 0.585294
0.589216 0.589216 0.589216
0.600337 0.600337 0.600337
0.616115 0.616115 0.616115
0.637194 0.637194 0.637194
0.664415 0.664415 0.664415
0.713971 0.713971 0.713971
0.741835 0.741835 0.741835
0.761765 0.761765 0.761765
0.643627 0.643627 0.643627
0.647365 0.647365 0.647365
0.654810 0.654810 0.654810
0.667088 0.667088 0.667088
0.683915 0.683915 0.683915
0.705997 0.705997 0.705997
0.737377 0.737377 0.737377
0.800597 0.800597 0.800597
0.851777 0.851777 0.851777
0.692647 0.692647 0.692647
0.694118 0.694118 0.694118
0.701961 0.701961 0.701961
0.709804 0.709804 0.709804
0.725490 0.725490 0.725490
0.742647 0.742647 0.742647
0.769240 0.769240 0.769240
0.840196 0.840196 0.840196
0.925490 0.925490 0.925490
0.090196 0.090196 0.090196
0.103676 0.103676 0.103676
0.144118 0.144118 0.144118
0.254657 0.254657 0.254657
0.325490 0.325490 0.325490
0.389706 0.389706 0.389706
0.457843 0.457843 0.457843
0.506373 0.506373 0.506373
0.550980 0.550980 0.550980
0.155882 0.155882 0.155882
0.148499 0.148499 0.148499
0.175735 0.175735 0.175735
0.275337 0.275337 0.275337
0.347794 0.347794 0.347794
0.407108 0.407108 0.407108
0.471507 0.471507 0.471507
0.517647 0.517647 0.517647
0.556863 0.556863 0.556863
0.287255 0.287255 0.287255
0.299020 0.299020 0.299020
0.299020 0.299020 0.299020
0.315196 0.315196 0.315196
0.398284 0.398284 0.398284
0.447855 0.447855 0.447855
0.500000 0.500000 0.500000
0.540931 0.540931 0.540931
0.570588 0.570588 0.570588
0.366422 0.366422 0.366422
0.374265 0.374265 0.374265
0.403615 0.403615 0.403615
0.435815 0.435815 0.435815
0.467157 0.467157 0.467157
0.507567 0.507567 0.507567
0.542157 0.542157 0.542157
0.568137 0.568137 0.568137
0.590196 0.590196 0.590196
0.479412 0.479412 0.479412
0.484314 0.484314 0.484314
0.497549 0.497549 0.497549
0.517279 0.517279 0.517279
0.544118 0.544118 0.544118
0.563848 0.563848 0.563848
0.586275 0.586275 0.586275
0.610172 0.610172 0.610172
0.636275 0.636275 0.636275
0.542647 0.542647 0.542647
0.548284 0.548284 0.548284
0.559252 0.559252 0.559252
0.578707 0.578707 0.578707
0.605025 0.605025 0.605025
0.641881 0.641881 0.641881
0.668137 0.668137 0.668137
0.683824 0.683824 0.683824
0.699510 0.699510 0.699510
0.608824 0.608824 0.608824
0.612684 0.612684 0.612684
0.620588 0.620588 0.620588
0.636275 0.636275 0.636275
0.658333 0.658333 0.658333
0.683027 0.683027 0.683027
0.723407 0.723407 0.723407
0.750245 0.750245 0.750245
0.772059 0.772059 0.772059
0.663235 0.663235 0.663235
0.666912 0.666912 0.666912
0.674755 0.674755 0.674755
0.686673 0.686673 0.686673
0.703309 0.703309 0.703309
0.722702 0.722702 0.722702
0.749142 0.749142 0.749142
0.816667 0.816667 0.816667
0.873284 0.873284 0.873284
0.709804 0.709804 0.709804
0.713725 0.713725 0.713725
0.719118 0.719118 0.719118
0.729412 0.729412 0.729412
0.744118 0.744118 0.744118
0.764706 0.764706 0.764706
0.794608 0.794608 0.794608
0.853676 0.853676 0.853676
0.937255 0.937255 0.937255
0.126961 0.126961 0.126961
0.138725 0.138725 0.138725
0.173652 0.173652 0.173652
0.259252 0.259252 0.259252
0.360294 0.360294 0.360294
0.422549 0.422549 0.422549
0.476593 0.476593 0.476593
0.531189 0.531189 0.531189
0.580392 0.580392 0.580392
0.171752 0.171752 0.171752
0.177451 0.177451 0.177451
0.206878 0.206878 0.206878
0.268934 0.268934 0.268934
0.378431 0.378431 0.378431
0.439507 0.439507 0.439507
0.490288 0.490288 0.490288
0.541667 0.541667 0.541667
0.588235 0.588235 0.588235
0.339583 0.339583 0.339583
0.340686 0.340686 0.340686
0.313327 0.313327 0.313327
0.334421 0.334421 0.334421
0.418199 0.418199 0.418199
0.474311 0.474311 0.474311
0.518474 0.518474 0.518474
0.566161 0.566161 0.566161
0.607230 0.607230 0.607230
0.419608 0.419608 0.419608
0.427451 0.427451 0.427451
0.445358 0.445358 0.445358
0.459804 0.459804 0.459804
0.467616 0.467616 0.467616
0.526409 0.526409 0.526409
0.563833 0.563833 0.563833
0.604228 0.604228 0.604228
0.638297 0.638297 0.638297
0.498039 0.498039 0.498039
0.502604 0.502604 0.502604
0.512316 0.512316 0.512316
0.535754 0.535754 0.535754
0.563113 0.563113 0.563113
0.590196 0.590196 0.590196
0.621569 0.621569 0.621569
0.650000 0.650000 0.650000
0.672059 0.672059 0.672059
0.587255 0.587255 0.587255
0.591176 0.591176 0.591176
0.599020 0.599020 0.599020
0.614154 0.614154 0.614154
0.633578 0.633578 0.633578
0.658418 0.658418 0.658418
0.672289 0.672289 0.672289
0.687860 0.687860 0.687860
0.706434 0.706434 0.706434
0.632353 0.632353 0.632353
0.636275 0.636275 0.636275
0.644945 0.644945 0.644945
0.659574 0.659574 0.659574
0.679963 0.679963 0.679963
0.704044 0.704044 0.704044
0.737500 0.737500 0.737500
0.761765 0.761765 0.761765
0.777451 0.777451 0.777451
0.686458 0.686458 0.686458
0.688051 0.688051 0.688051
0.694608 0.694608 0.694608
0.707177 0.707177 0.707177
0.722702 0.722702 0.722702
0.743827 0.743827 0.743827
0.773131 0.773131 0.773131
0.841935 0.841935 0.841935
0.892463 0.892463 0.892463
0.730882 0.730882 0.730882
0.733333 0.733333 0.733333
0.738725 0.738725 0.738725
0.749939 0.749939 0.749939
0.767402 0.767402 0.767402
0.792708 0.792708 0.792708
0.831740 0.831740 0.831740
0.882537 0.882537 0.882537
0.950490 0.950490 0.950490
0.169608 0.169608 0.169608
0.181250 0.181250 0.181250
0.211765 0.211765 0.211765
0.269730 0.269730 0.269730
0.382353 0.382353 0.382353
0.451348 0.451348 0.451348
0.503676 0.503676 0.503676
0.549142 0.549142 0.549142
0.593137 0.593137 0.593137
0.207353 0.207353 0.207353
0.216176 0.216176 0.216176
0.243689 0.243689 0.243689
0.292739 0.292739 0.292739
0.392157 0.392157 0.392157
0.464752 0.464752 0.464752
0.514706 0.514706 0.514706
0.558104 0.558104 0.558104
0.603554 0.603554 0.603554
0.361765 0.361765 0.361765
0.349112 0.349112 0.349112
0.335294 0.335294 0.335294
0.358701 0.358701 0.358701
0.414093 0.414093 0.414093
0.495772 0.495772 0.495772
0.540809 0.540809 0.540809
0.580760 0.580760 0.580760
0.622549 0.622549 0.622549
0.461275 0.461275 0.461275
0.465196 0.465196 0.465196
0.476961 0.476961 0.476961
0.472626 0.472626 0.472626
0.482292 0.482292 0.482292
0.541176 0.541176 0.541176
0.581556 0.581556 0.581556
0.616575 0.616575 0.616575
0.653799 0.653799 0.653799
0.520588 0.520588 0.520588
0.527941 0.527941 0.527941
0.543995 0.543995 0.543995
0.563358 0.563358 0.563358
0.580637 0.580637 0.580637
0.591667 0.591667 0.591667
0.634314 0.634314 0.634314
0.664767 0.664767 0.664767
0.696078 0.696078 0.696078
0.605760 0.605760 0.605760
0.609314 0.609314 0.609314
0.617157 0.617157 0.617157
0.628922 0.628922 0.628922
0.647978 0.647978 0.647978
0.672059 0.672059 0.672059
0.692647 0.692647 0.692647
0.717831 0.717831 0.717831
0.741544 0.741544 0.741544
0.679412 0.679412 0.679412
0.682598 0.682598 0.682598
0.687990 0.687990 0.687990
0.699203 0.699203 0.699203
0.713971 0.713971 0.713971
0.730668 0.730668 0.730668
0.753370 0.753370 0.753370
0.765809 0.765809 0.765809
0.782353 0.782353 0.782353
0.709926 0.709926 0.709926
0.711152 0.711152 0.711152
0.718137 0.718137 0.718137
0.729534 0.729534 0.729534
0.745404 0.745404 0.745404
0.769439 0.769439 0.769439
0.806127 0.806127 0.806127
0.871247 0.871247 0.871247
0.906863 0.906863 0.906863
0.753922 0.753922 0.753922
0.756863 0.756863 0.756863
0.764706 0.764706 0.764706
0.777083 0.777083 0.777083
0.798529 0.798529 0.798529
0.833456 0.833456 0.833456
0.876225 0.876225 0.876225
0.917770 0.917770 0.917770
0.964706 0.964706 0.964706
0.216176 0.216176 0.216176
0.227880 0.227880 0.227880
0.255270 0.255270 0.255270
0.304412 0.304412 0.304412
0.392157 0.392157 0.392157
0.475980 0.475980 0.475980
0.525613 0.525613 0.525613
0.569118 0.569118 0.569118
0.608333 0.608333 0.608333
0.250980 0.250980 0.250980
0.259199 0.259199 0.259199
0.285080 0.285080 0.285080
0.327834 0.327834 0.327834
0.398039 0.398039 0.398039
0.486190 0.486190 0.486190
0.534635 0.534635 0.534635
0.577390 0.577390 0.577390
0.616115 0.616115 0.616115
0.354902 0.354902 0.354902
0.354902 0.354902 0.354902
0.360172 0.360172 0.360172
0.387561 0.387561 0.387561
0.432414 0.432414 0.432414
0.510294 0.510294 0.510294
0.560049 0.560049 0.560049
0.599295 0.599295 0.599295
0.635294 0.635294 0.635294
0.492647 0.492647 0.492647
0.496569 0.496569 0.496569
0.499203 0.499203 0.499203
0.483333 0.483333 0.483333
0.498775 0.498775 0.498775
0.541176 0.541176 0.541176
0.596967 0.596967 0.596967
0.633847 0.633847 0.633847
0.665380 0.665380 0.665380
0.558824 0.558824 0.558824
0.562745 0.562745 0.562745
0.571078 0.571078 0.571078
0.586275 0.586275 0.586275
0.592157 0.592157 0.592157
0.601961 0.601961 0.601961
0.645650 0.645650 0.645650
0.676746 0.676746 0.676746
0.704167 0.704167 0.704167
0.621078 0.621078 0.621078
0.621569 0.621569 0.621569
0.631020 0.631020 0.631020
0.648047 0.648047 0.648047
0.667494 0.667494 0.667494
0.683824 0.683824 0.683824
0.696569 0.696569 0.696569
0.726961 0.726961 0.726961
0.750490 0.750490 0.750490
0.699020 0.699020 0.699020
0.699449 0.699449 0.699449
0.706863 0.706863 0.706863
0.714706 0.714706 0.714706
0.726471 0.726471 0.726471
0.742157 0.742157 0.742157
0.763756 0.763756 0.763756
0.790885 0.790885 0.790885
0.829412 0.829412 0.829412
0.757782 0.757782 0.757782
0.760846 0.760846 0.760846
0.765671 0.765671 0.765671
0.777451 0.777451 0.777451
0.796814 0.796814 0.796814
0.824510 0.824510 0.824510
0.860677 0.860677 0.860677
0.898698 0.898698 0.898698
0.914216 0.914216 0.914216
0.788725 0.788725 0.788725
0.792586 0.792586 0.792586
0.800368 0.800368 0.800368
0.815993 0.815993 0.815993
0.841667 0.841667 0.841667
0.878615 0.878615 0.878615
0.913848 0.913848 0.913848
0.945159 0.945159 0.945159
0.976471 0.976471 0.976471
0.266667 0.266667 0.266667
0.278431 0.278431 0.278431
0.301961 0.301961 0.301961
0.343627 0.343627 0.343627
0.409804 0.409804 0.409804
0.495588 0.495588 0.495588
0.546078 0.546078 0.546078
0.588235 0.588235 0.588235
0.627451 0.627451 0.627451
0.297549 0.297549 0.297549
0.305821 0.305821 0.305821
0.328922 0.328922 0.328922
0.366850 0.366850 0.366850
0.421569 0.421569 0.421569
0.503431 0.503431 0.503431
0.553922 0.553922 0.553922
0.596078 0.596078 0.596078
0.634804 0.634804 0.634804
0.375490 0.375490 0.375490
0.379412 0.379412 0.379412
0.391176 0.391176 0.391176
0.418627 0.418627 0.418627
0.456373 0.456373 0.456373
0.518505 0.518505 0.518505
0.577206 0.577206 0.577206
0.614828 0.614828 0.614828
0.650980 0.650980 0.650980
0.514706 0.514706 0.514706
0.512255 0.512255 0.512255
0.502941 0.502941 0.502941
0.496569 0.496569 0.496569
0.518137 0.518137 0.518137
0.552941 0.552941 0.552941
0.610662 0.610662 0.610662
0.647365 0.647365 0.647365
0.678431 0.678431 0.678431
0.586275 0.586275 0.586275
0.586275 0.586275 0.586275
0.594118 0.594118 0.594118
0.605882 0.605882 0.605882
0.600000 0.600000 0.600000
0.614461 0.614461 0.614461
0.648039 0.648039 0.648039
0.688480 0.688480 0.688480
0.715686 0.715686 0.715686
0.644608 0.644608 0.644608
0.648529 0.648529 0.648529
0.656373 0.656373 0.656373
0.668137 0.668137 0.668137
0.683088 0.683088 0.683088
0.693137 0.693137 0.693137
0.704044 0.704044 0.704044
0.734804 0.734804 0.734804
0.762255 0.762255 0.762255
0.706863 0.706863 0.706863
0.710784 0.710784 0.710784
0.714706 0.714706 0.714706
0.722549 0.722549 0.722549
0.737745 0.737745 0.737745
0.755392 0.755392 0.755392
0.777451 0.777451 0.777451
0.797549 0.797549 0.797549
0.845098 0.845098 0.845098
0.784804 0.784804 0.784804
0.785294 0.785294 0.785294
0.792647 0.792647 0.792647
0.804718 0.804718 0.804718
0.824265 0.824265 0.824265
0.848039 0.848039 0.848039
0.880270 0.880270 0.880270
0.910355 0.910355 0.910355
0.937745 0.937745 0.937745
0.886275 0.886275 0.886275
0.886275 0.886275 0.886275
0.894118 0.894118 0.894118
0.908333 0.908333 0.908333
0.923529 0.923529 0.923529
0.941176 0.941176 0.941176
0.956863 0.956863 0.956863
0.972549 0.972549 0.972549
0.988235 0.988235 0.988235
