darkroom/assets/luts/slide-standard.cube
TITLE "Standard slide"
# Preset LUT for Lolly Bitmap Studio.
# Derived from sguyader/FilmSim "Provia_Std" (CC0 1.0, https://github.com/sguyader/FilmSim),
# resampled from the 144³ HaldCLUT to a 33³ .cube. Public domain - see NOTICE.md.
LUT_3D_SIZE 9
DOMAIN_MIN 0.0 0.0 0.0
DOMAIN_MAX 1.0 1.0 1.0
0.000000 0.000000 0.000000
0.042647 0.000000 0.000000
0.162745 0.027451 0.000000
0.327451 0.034314 0.000000
0.503922 0.062745 0.000000
0.667157 0.134804 0.000000
0.817647 0.185294 0.000000
0.950000 0.220098 0.000000
1.000000 0.247059 0.000000
0.000000 0.077451 0.000000
0.080944 0.077941 0.000000
0.191422 0.081863 0.000000
0.346078 0.119118 0.000000
0.507843 0.157843 0.000000
0.669608 0.200797 0.000000
0.813725 0.235784 0.000000
0.946078 0.262255 0.000000
1.000000 0.281863 0.000000
0.000000 0.209804 0.000000
0.107966 0.205882 0.000000
0.213725 0.224510 0.000000
0.342157 0.232721 0.000000
0.478431 0.249020 0.000000
0.637377 0.291667 0.000000
0.794118 0.325245 0.000000
0.930392 0.340196 0.000000
1.000000 0.351961 0.000000
0.000000 0.357843 0.000000
0.111458 0.350000 0.000000
0.252941 0.365686 0.000000
0.365686 0.378370 0.002451
0.491422 0.389706 0.031618
0.627941 0.328002 0.000000
0.731373 0.385294 0.000000
0.869301 0.412255 0.000000
1.000000 0.448039 0.000000
0.027451 0.484314 0.000000
0.117157 0.474510 0.000000
0.233333 0.468627 0.000000
0.369363 0.494118 0.000000
0.489216 0.504902 0.004902
0.617157 0.525490 0.086275
0.727451 0.494608 0.000000
0.882843 0.445343 0.046078
0.972549 0.511765 0.000000
0.006373 0.597549 0.000000
0.101287 0.587255 0.000000
0.213725 0.575490 0.000000
0.353370 0.584314 0.000000
0.485539 0.613235 0.000000
0.605944 0.626471 0.000000
0.739216 0.653922 0.109804
0.845404 0.630392 0.000000
0.996078 0.553431 0.000000
0.000000 0.711765 0.000000
0.089706 0.703064 0.000000
0.202696 0.688235 0.000000
0.322549 0.680392 0.000000
0.505392 0.732353 0.000000
0.614338 0.739216 0.000000
0.730392 0.753922 0.000000
0.858946 0.777574 0.130760
0.968627 0.758824 0.011765
0.000000 0.828431 0.000000
0.077880 0.820098 0.000000
0.191054 0.801838 0.000000
0.306556 0.788909 0.000000
0.442647 0.794608 0.000000
0.642157 0.863235 0.000000
0.739216 0.867647 0.000000
0.851471 0.878922 0.000000
0.976471 0.902451 0.168627
0.000000 0.945098 0.000000
0.070098 0.937255 0.000000
0.182353 0.918627 0.000000
0.296569 0.903431 0.000000
0.419608 0.898039 0.000000
0.599510 0.945588 0.000000
0.774510 1.000000 0.000000
0.887255 1.000000 0.027941
0.984314 1.000000 0.043137
0.000000 0.000000 0.054902
0.076961 0.000000 0.076532
0.195098 0.000000 0.096691
0.310784 0.000000 0.073529
0.467402 0.035539 0.107108
0.659804 0.107353 0.120098
0.817647 0.162132 0.108333
0.950000 0.196998 0.080453
1.000000 0.224020 0.049020
0.000000 0.093627 0.089706
0.081855 0.081855 0.081801
0.213297 0.070588 0.062730
0.357460 0.087929 0.069608
0.513725 0.128462 0.081373
0.670895 0.175896 0.089216
0.814047 0.215319 0.089108
0.946078 0.242708 0.072610
1.000000 0.262745 0.037255
0.000000 0.213725 0.069608
0.081265 0.217647 0.069179
0.212990 0.220588 0.096170
0.350904 0.203738 0.071032
0.501593 0.270343 0.117463
0.653692 0.296661 0.127574
0.798039 0.313756 0.104197
0.931143 0.327681 0.071844
1.000000 0.340196 0.025980
0.000000 0.368137 0.069608
0.109130 0.365686 0.065219
0.233333 0.355025 0.018704
0.362684 0.374449 0.121699
0.487500 0.381373 0.120588
0.651716 0.351754 0.138059
0.736581 0.383854 0.017586
0.896546 0.432537 0.123935
1.000000 0.444301 0.103431
0.012255 0.500000 0.039216
0.125000 0.494118 0.024020
0.225980 0.474326 0.000000
0.378768 0.494118 0.023713
0.487255 0.502941 0.123775
0.614063 0.520833 0.157353
0.729902 0.478186 0.086213
0.874020 0.463051 0.064277
0.976471 0.509804 0.000000
0.019608 0.614522 0.000000
0.120159 0.606702 0.000000
0.214706 0.583333 0.000000
0.339882 0.578056 0.000000
0.483578 0.614706 0.035876
0.605392 0.625000 0.119784
0.738235 0.650000 0.172917
0.844118 0.626739 0.096998
1.000000 0.549510 0.000000
0.032230 0.731373 0.000000
0.117157 0.723422 0.000000
0.209436 0.698958 0.000000
0.321936 0.684314 0.000000
0.489461 0.720588 0.000000
0.613235 0.739216 0.090119
0.728186 0.750980 0.121324
0.858946 0.777574 0.187745
0.968627 0.755882 0.100000
0.046569 0.848039 0.000000
0.117042 0.840135 0.000000
0.201271 0.815855 0.000000
0.306824 0.794263 0.000000
0.435294 0.792647 0.000000
0.638396 0.861359 0.000000
0.739216 0.867279 0.094102
0.851471 0.875919 0.120588
0.979902 0.902451 0.215196
0.062255 0.968137 0.000000
0.120588 0.957292 0.000000
0.198897 0.933333 0.000000
0.300490 0.911091 0.000000
0.419608 0.901961 0.000000
0.582659 0.932353 0.000000
0.779412 1.000000 0.000000
0.887255 1.000000 0.136336
0.984314 1.000000 0.140686
0.034314 0.000000 0.121569
0.101471 0.000000 0.202328
0.213725 0.000000 0.230147
0.330392 0.000000 0.232230
0.469118 0.025490 0.247549
0.606863 0.044608 0.237255
0.747059 0.147059 0.258578
0.892157 0.193505 0.269608
1.000000 0.210784 0.260784
0.000000 0.093137 0.236397
0.080882 0.093137 0.247672
0.222212 0.089951 0.233333
0.334314 0.108502 0.235784
0.462745 0.112255 0.225858
0.609804 0.145818 0.236719
0.756097 0.204963 0.262408
0.923162 0.227328 0.263404
1.000000 0.238725 0.240196
0.000000 0.236275 0.235539
0.109099 0.233333 0.233333
0.223039 0.222304 0.222304
0.371783 0.223039 0.215931
0.525490 0.235784 0.217647
0.673529 0.257843 0.221569
0.813542 0.278799 0.217647
0.942157 0.296415 0.209528
1.000000 0.312010 0.194118
0.000000 0.371446 0.217647
0.004718 0.372059 0.213863
0.232230 0.372549 0.217647
0.362684 0.369608 0.244409
0.486397 0.359743 0.228983
0.634513 0.381801 0.204749
0.766667 0.412745 0.252665
0.902328 0.420588 0.236688
1.000000 0.424877 0.205392
0.000000 0.503922 0.205882
0.066973 0.503431 0.205882
0.234314 0.501593 0.201593
0.352267 0.478738 0.155086
0.484314 0.497059 0.245098
0.607537 0.506373 0.252083
0.754534 0.446569 0.186642
0.853860 0.494118 0.150919
1.000000 0.543137 0.243137
0.000000 0.622549 0.180270
0.082307 0.622549 0.178431
0.230392 0.616973 0.170221
0.330392 0.585401 0.094730
0.473836 0.607169 0.152328
0.602941 0.619930 0.241406
0.735294 0.646078 0.272549
0.844118 0.620496 0.229412
1.000000 0.563971 0.221324
0.000000 0.747059 0.150000
0.106863 0.746170 0.149050
0.234314 0.737684 0.132966
0.323652 0.700674 0.021324
0.452941 0.695588 0.000000
0.610784 0.739216 0.218260
0.727451 0.750000 0.245098
0.859804 0.774877 0.281648
0.965686 0.750980 0.226471
0.033824 0.871569 0.109314
0.132950 0.867647 0.101471
0.238235 0.855790 0.068995
0.319654 0.815778 0.000000
0.427451 0.796936 0.000000
0.615732 0.846216 0.000000
0.739216 0.864583 0.230300
0.851532 0.875490 0.245098
0.983824 0.906373 0.301348
0.094118 0.995098 0.014706
0.156373 0.991176 0.002941
0.246078 0.976471 0.000000
0.320098 0.936642 0.000000
0.419608 0.913235 0.000000
0.560172 0.918015 0.000000
0.785294 1.000000 0.024265
0.883333 1.000000 0.254289
0.984314 1.000000 0.260784
0.000000 0.000000 0.383333
0.061275 0.000000 0.385294
0.209804 0.000000 0.381373
0.358762 0.000000 0.379902
0.488725 0.012255 0.387990
0.626471 0.119118 0.416667
0.752819 0.135784 0.403064
0.879412 0.133333 0.381373
1.000000 0.148039 0.367157
0.000000 0.095282 0.389216
0.053102 0.093137 0.393137
0.228998 0.097059 0.397059
0.368689 0.100797 0.386213
0.490196 0.137102 0.389216
0.626471 0.180706 0.412860
0.747059 0.182353 0.389124
0.875490 0.184314 0.373529
0.990870 0.226961 0.376287
0.000000 0.240809 0.372426
0.083839 0.244118 0.385294
0.249020 0.256618 0.419945
0.386443 0.252022 0.397059
0.493934 0.260784 0.389216
0.614997 0.264216 0.382414
0.743137 0.265411 0.369608
0.861305 0.296446 0.376915
0.994730 0.316054 0.380760
0.060355 0.396140 0.393137
0.150674 0.393252 0.393137
0.264017 0.388297 0.388526
0.371446 0.371446 0.370872
0.520129 0.366299 0.359681
0.666605 0.364767 0.346653
0.801961 0.367540 0.338235
0.931794 0.375000 0.326471
1.000000 0.382843 0.317096
0.000000 0.509804 0.357108
0.000000 0.507843 0.355147
0.180025 0.505882 0.347304
0.357843 0.501501 0.344884
0.486275 0.494118 0.367402
0.600245 0.484314 0.353922
0.751777 0.493321 0.317708
0.875490 0.524418 0.367157
1.000000 0.532108 0.359314
0.000000 0.626471 0.312316
0.000000 0.625115 0.319907
0.182843 0.622549 0.322549
0.347549 0.621423 0.318627
0.463971 0.593627 0.268597
0.602941 0.616199 0.365112
0.731173 0.632966 0.378309
0.866360 0.574870 0.304029
0.990196 0.603431 0.283456
0.000000 0.747059 0.305882
0.000000 0.747059 0.305882
0.194853 0.747059 0.302941
0.350000 0.746829 0.298790
0.443137 0.704841 0.224510
0.587148 0.725873 0.286305
0.727451 0.746324 0.367341
0.859314 0.770588 0.393137
0.964706 0.747059 0.350000
0.000000 0.875490 0.286765
0.000000 0.875306 0.285478
0.214338 0.875000 0.283333
0.353922 0.868451 0.274502
0.433241 0.819608 0.187990
0.564821 0.810915 0.146860
0.738848 0.865548 0.354182
0.851961 0.875061 0.369608
0.991667 0.910294 0.408824
0.000000 1.000000 0.266176
0.089216 1.000000 0.266176
0.242647 1.000000 0.263725
0.365686 0.995159 0.250490
0.440441 0.945588 0.165196
0.548039 0.921569 0.025123
0.754412 0.986765 0.187255
0.883333 1.000000 0.377451
0.984314 1.000000 0.381373
0.000000 0.000000 0.525490
0.021078 0.000000 0.529412
0.225490 0.000000 0.535294
0.361765 0.000000 0.537255
0.514706 0.000000 0.539216
0.650000 0.050735 0.545098
0.766667 0.165686 0.560784
0.887255 0.190441 0.564706
0.994118 0.178431 0.525490
0.000000 0.100490 0.538971
0.028676 0.100705 0.544608
0.239828 0.100980 0.552022
0.373529 0.116483 0.549020
0.520588 0.122426 0.543995
0.649265 0.151716 0.545098
0.762745 0.215196 0.556863
0.885263 0.229167 0.556863
0.988235 0.215441 0.515686
0.000000 0.251961 0.546569
0.000000 0.256863 0.563174
0.248039 0.260662 0.572549
0.400674 0.268627 0.572549
0.529167 0.261765 0.548039
0.639951 0.272672 0.537255
0.754902 0.297794 0.545221
0.873100 0.298529 0.529657
0.982843 0.282843 0.496078
0.118382 0.408824 0.533333
0.170833 0.404167 0.529565
0.253922 0.395527 0.533395
0.401900 0.406832 0.572549
0.525858 0.392157 0.537255
0.622549 0.389216 0.519577
0.739645 0.388419 0.512745
0.851562 0.374265 0.483732
0.971324 0.380637 0.477696
0.099020 0.528431 0.527451
0.170833 0.526593 0.525490
0.276471 0.521814 0.521569
0.389216 0.512745 0.512132
0.494118 0.495098 0.495098
0.638603 0.485294 0.478064
0.785049 0.476471 0.461520
0.919608 0.475490 0.448775
1.000000 0.477451 0.439216
0.000000 0.630392 0.481618
0.000000 0.630392 0.479657
0.123958 0.626777 0.474265
0.305852 0.625000 0.465931
0.474510 0.620466 0.463358
0.606863 0.614706 0.488695
0.719608 0.607108 0.475061
0.880760 0.608854 0.439614
0.996078 0.642157 0.486275
0.000000 0.750980 0.444608
0.000000 0.750980 0.442647
0.000000 0.750980 0.437132
0.307537 0.750980 0.447059
0.470588 0.747059 0.443137
0.584130 0.715380 0.390564
0.730392 0.743137 0.490564
0.856740 0.761091 0.504228
0.974020 0.716667 0.457353
0.000000 0.875490 0.431373
0.000000 0.875490 0.431373
0.085907 0.875490 0.430882
0.313971 0.875490 0.427451
0.470588 0.872426 0.423407
0.556955 0.824418 0.342310
0.705576 0.843076 0.418444
0.852175 0.871998 0.494118
0.992157 0.906863 0.523775
0.000000 1.000000 0.415686
0.000000 1.000000 0.415686
0.141667 1.000000 0.415686
0.334804 1.000000 0.415686
0.485294 1.000000 0.413725
0.560294 0.953431 0.327206
0.694608 0.945098 0.296569
0.883333 1.000000 0.500245
0.988235 1.000000 0.505882
0.000000 0.000000 0.673529
0.015012 0.000000 0.678738
0.237255 0.000000 0.689216
0.375919 0.000000 0.693137
0.517647 0.004657 0.695833
0.661765 0.025919 0.690135
0.781863 0.079902 0.679779
0.894792 0.183333 0.689216
1.000000 0.219608 0.693137
0.000000 0.108517 0.689216
0.032514 0.108824 0.694263
0.248943 0.112745 0.703876
0.391376 0.120588 0.706189
0.521569 0.139124 0.700980
0.661765 0.140380 0.689216
0.781863 0.159804 0.679779
0.890908 0.229596 0.685294
1.000000 0.254412 0.689216
0.000000 0.263725 0.713848
0.000000 0.263725 0.716667
0.251961 0.264706 0.724357
0.408824 0.268627 0.724510
0.530882 0.272549 0.707598
0.661765 0.264706 0.686213
0.778431 0.269792 0.676348
0.881235 0.310876 0.676348
1.000000 0.324510 0.681373
0.000000 0.385294 0.669608
0.000000 0.385294 0.674885
0.222289 0.405990 0.708716
0.397633 0.406028 0.724510
0.537255 0.406097 0.710784
0.654266 0.388641 0.674449
0.760754 0.388756 0.657843
0.867647 0.406679 0.661765
0.988787 0.411213 0.658395
0.176471 0.537990 0.657843
0.221232 0.537255 0.657108
0.300858 0.532782 0.653922
0.381097 0.515686 0.650000
0.520221 0.525490 0.688603
0.642157 0.509344 0.653922
0.738603 0.503922 0.634620
0.856373 0.505392 0.633517
0.960784 0.485784 0.597794
0.118199 0.649081 0.646078
0.182598 0.648529 0.646078
0.281832 0.646078 0.644608
0.394608 0.640893 0.638235
0.508578 0.631311 0.630392
0.615970 0.615625 0.616199
0.761382 0.605699 0.598775
0.906863 0.595902 0.580216
1.000000 0.590257 0.567096
0.000000 0.758211 0.611887
0.000000 0.757843 0.610172
0.048621 0.754902 0.606250
0.279902 0.754902 0.600812
0.435539 0.750980 0.592279
0.602941 0.747059 0.590257
0.735294 0.743137 0.616697
0.844118 0.733915 0.599556
1.000000 0.722672 0.567279
0.000000 0.879412 0.575184
0.000000 0.879412 0.575000
0.000000 0.879412 0.571078
0.194914 0.879412 0.563534
0.432506 0.875490 0.571569
0.593627 0.875375 0.567532
0.704412 0.837132 0.510784
0.859536 0.871569 0.618666
0.992647 0.899510 0.640870
0.000000 1.000000 0.540196
0.000000 1.000000 0.540196
0.000000 1.000000 0.544485
0.252390 1.000000 0.559804
0.445588 1.000000 0.559804
0.605944 1.000000 0.560723
0.691176 0.961887 0.476838
0.844118 0.979596 0.567341
0.988235 1.000000 0.630392
0.000000 0.000000 0.825490
0.061275 0.000000 0.829412
0.253676 0.000000 0.837255
0.400980 0.000000 0.845098
0.517647 0.025490 0.841176
0.653922 0.058824 0.833333
0.789216 0.054902 0.821569
0.891422 0.097304 0.794485
1.000000 0.178431 0.816667
0.000000 0.120588 0.837255
0.073529 0.121446 0.841176
0.260784 0.128339 0.849020
0.408824 0.133333 0.852941
0.523958 0.144118 0.845098
0.653922 0.153309 0.833333
0.786275 0.147396 0.817647
0.890564 0.164323 0.793505
1.000000 0.225980 0.812868
0.000000 0.268627 0.860784
0.035294 0.268627 0.860784
0.260049 0.272549 0.866360
0.412990 0.272549 0.868627
0.537255 0.276471 0.856863
0.653922 0.272549 0.833058
0.781618 0.260784 0.812745
0.889706 0.266330 0.790074
1.000000 0.311765 0.805147
0.000000 0.410294 0.846569
0.000000 0.410662 0.855270
0.210294 0.408824 0.866176
0.393827 0.404902 0.864706
0.537255 0.400980 0.855453
0.649632 0.396140 0.825490
0.773621 0.381373 0.801072
0.890686 0.380836 0.789706
0.997059 0.416054 0.794118
0.000000 0.509314 0.775980
0.023223 0.507353 0.776471
0.194975 0.505392 0.784314
0.342647 0.515441 0.812745
0.508824 0.519363 0.834069
0.646078 0.519118 0.818873
0.766667 0.503799 0.787010
0.880086 0.505453 0.778248
0.988235 0.523529 0.781863
0.208824 0.657843 0.774510
0.247549 0.656373 0.774510
0.324510 0.653922 0.771048
0.418827 0.650000 0.770588
0.502757 0.634314 0.764277
0.635003 0.638235 0.801961
0.762010 0.630576 0.774234
0.862270 0.626471 0.758824
0.979289 0.628922 0.758333
0.149265 0.773529 0.770588
0.203431 0.773529 0.770588
0.295711 0.770588 0.770404
0.404902 0.767402 0.766667
0.519240 0.762745 0.762745
0.634038 0.755637 0.754902
0.743689 0.743873 0.743873
0.886857 0.729657 0.722457
1.000000 0.714706 0.700735
0.000000 0.883333 0.738848
0.000000 0.882966 0.738848
0.000643 0.882843 0.736152
0.256725 0.879412 0.732230
0.416176 0.879412 0.724387
0.563235 0.875490 0.716544
0.727451 0.875490 0.715594
0.864920 0.872059 0.747059
0.976961 0.864216 0.731740
0.000000 1.000000 0.707843
0.000000 1.000000 0.707843
0.000000 1.000000 0.704902
0.108333 1.000000 0.703922
0.365196 1.000000 0.700000
0.572672 1.000000 0.711765
0.735294 1.000000 0.708578
0.841054 0.976471 0.649510
0.992157 1.000000 0.754902
0.000000 0.000000 0.965686
0.117096 0.000000 0.969608
0.272917 0.010907 0.977451
0.412745 0.027941 0.981373
0.533578 0.043627 0.977451
0.642157 0.075980 0.965686
0.770588 0.074877 0.953431
0.899020 0.047488 0.937316
1.000000 0.085294 0.914706
0.000000 0.136275 0.977451
0.124081 0.136275 0.981373
0.276838 0.140579 0.985294
0.416828 0.148039 0.989216
0.539461 0.151961 0.985294
0.644033 0.159827 0.965686
0.770466 0.156265 0.950000
0.898100 0.140250 0.934314
1.000000 0.155882 0.911213
0.000000 0.273039 0.993137
0.098039 0.276471 0.996569
0.271906 0.276471 0.998499
0.416667 0.276471 0.999142
0.545098 0.276471 0.990502
0.644608 0.272549 0.967831
0.765319 0.265441 0.944730
0.891176 0.252941 0.926471
1.000000 0.264216 0.906863
0.000000 0.408824 0.996569
0.000000 0.408824 0.996569
0.218137 0.404902 0.996569
0.390617 0.401532 0.993137
0.533180 0.396906 0.985294
0.644608 0.390686 0.965686
0.757475 0.381373 0.934314
0.886336 0.371078 0.918627
0.996078 0.378738 0.902451
0.000000 0.492157 0.908824
0.000000 0.496078 0.916452
0.129167 0.511520 0.938603
0.326961 0.517402 0.966759
0.496078 0.509804 0.964583
0.638143 0.505637 0.952941
0.750980 0.505208 0.926471
0.882414 0.494118 0.910754
1.000000 0.498039 0.905882
0.079534 0.639216 0.888542
0.131028 0.631373 0.886949
0.223897 0.622871 0.882843
0.334245 0.618137 0.886589
0.458487 0.621078 0.911275
0.614591 0.624694 0.934314
0.754412 0.630254 0.922549
0.879412 0.622365 0.902489
1.000000 0.626471 0.901471
0.246201 0.777451 0.894608
0.278324 0.777451 0.894608
0.347181 0.774510 0.891176
0.437745 0.774510 0.891176
0.539706 0.770588 0.887255
0.625490 0.751838 0.880377
0.746017 0.750858 0.909804
0.878064 0.747059 0.889936
0.984314 0.747059 0.881985
0.176471 0.890686 0.887255
0.222610 0.890686 0.887255
0.305224 0.890686 0.887255
0.410133 0.887255 0.886765
0.523315 0.886765 0.883333
0.638703 0.883333 0.882843
0.758395 0.879412 0.879412
0.875544 0.875490 0.875866
1.000000 0.861520 0.854167
0.000000 1.000000 0.871569
0.000000 1.000000 0.871569
0.005882 1.000000 0.871569
0.261765 1.000000 0.871569
0.420343 1.000000 0.868137
0.564216 1.000000 0.866360
0.707843 1.000000 0.860172
0.867647 1.000000 0.856311
0.996078 1.000000 0.878922
0.152941 0.074510 1.000000
0.215196 0.082353 1.000000
0.315686 0.094118 1.000000
0.437745 0.141176 1.000000
0.543137 0.156863 1.000000
0.632843 0.133333 1.000000
0.738235 0.149020 1.000000
0.871569 0.074020 1.000000
1.000000 0.027451 1.000000
0.156863 0.163725 1.000000
0.215196 0.167647 1.000000
0.336275 0.187745 1.000000
0.441483 0.199510 1.000000
0.545098 0.211275 1.000000
0.636765 0.191667 1.000000
0.735294 0.199510 1.000000
0.871078 0.148529 1.000000
1.000000 0.128431 1.000000
0.197059 0.288235 1.000000
0.246569 0.291789 1.000000
0.333088 0.293137 1.000000
0.440196 0.297059 1.000000
0.545588 0.300980 1.000000
0.641789 0.285294 1.000000
0.734314 0.285294 1.000000
0.863725 0.253922 1.000000
0.996078 0.242157 1.000000
0.134804 0.406373 1.000000
0.197059 0.406373 1.000000
0.302083 0.406373 1.000000
0.419056 0.405453 1.000000
0.534069 0.402451 1.000000
0.640686 0.390686 1.000000
0.732353 0.386275 1.000000
0.857169 0.369608 1.000000
0.992157 0.361765 1.000000
0.000000 0.515686 1.000000
0.000000 0.513725 1.000000
0.201471 0.511765 1.000000
0.370343 0.509804 1.000000
0.494118 0.502941 1.000000
0.623775 0.498039 1.000000
0.734804 0.490686 1.000000
0.851961 0.487990 1.000000
0.988235 0.482353 1.000000
0.000000 0.591176 0.988235
0.000000 0.591176 0.988235
0.008456 0.591176 0.994608
0.263725 0.598468 1.000000
0.433578 0.609314 1.000000
0.597549 0.606863 1.000000
0.731373 0.603554 1.000000
0.851961 0.610784 1.000000
0.984314 0.606863 1.000000
0.230392 0.770588 1.000000
0.257353 0.770588 1.000000
0.309559 0.762745 1.000000
0.372181 0.744485 0.997059
0.462255 0.728431 0.988235
0.570466 0.724632 1.000000
0.714951 0.723529 1.000000
0.851961 0.731373 1.000000
0.984314 0.731373 1.000000
0.274510 0.890686 1.000000
0.304963 0.890686 1.000000
0.363725 0.887255 1.000000
0.449510 0.887255 1.000000
0.549020 0.887255 1.000000
0.656556 0.887255 1.000000
0.743627 0.868505 0.996446
0.851961 0.855882 1.000000
1.000000 0.872059 1.000000
0.305882 1.000000 1.000000
0.332843 1.000000 1.000000
0.434314 1.000000 1.000000
0.504412 1.000000 1.000000
0.617647 1.000000 1.000000
0.723039 1.000000 1.000000
0.832353 1.000000 1.000000
0.918627 1.000000 1.000000
1.000000 1.000000 1.000000
