darkroom/assets/luts/slide-standard.cube
TITLE "Standard slide"
# Preset LUT for Lolly Bitmap Studio.
# Derived from sguyader/FilmSim "Provia_Std" (CC0 1.0, https://github.com/sguyader/FilmSim),
# resampled from the 144³ HaldCLUT to a 33³ .cube. Public domain - see NOTICE.md.
LUT_3D_SIZE 33
DOMAIN_MIN 0.0 0.0 0.0
DOMAIN_MAX 1.0 1.0 1.0
0.000000 0.000000 0.000000
0.003922 0.000000 0.000000
0.011520 0.000000 0.000000
0.021201 0.000000 0.000000
0.042647 0.000000 0.000000
0.073284 0.000000 0.000000
0.104412 0.003922 0.000000
0.131618 0.012868 0.000000
0.162745 0.027451 0.000000
0.197794 0.034436 0.000000
0.236765 0.037990 0.000000
0.279657 0.035907 0.000000
0.327451 0.034314 0.000000
0.373652 0.027819 0.000000
0.424020 0.021814 0.000000
0.462990 0.043260 0.000000
0.503922 0.062745 0.000000
0.544853 0.082230 0.000000
0.587745 0.099755 0.000000
0.626716 0.117279 0.000000
0.667157 0.134804 0.000000
0.707966 0.148407 0.000000
0.743627 0.162010 0.000000
0.782598 0.175613 0.000000
0.817647 0.185294 0.000000
0.852696 0.196078 0.000000
0.883824 0.204657 0.000000
0.918873 0.214338 0.000000
0.950000 0.220098 0.000000
0.981127 0.227451 0.000000
1.000000 0.235294 0.000000
1.000000 0.239216 0.000000
1.000000 0.247059 0.000000
0.000000 0.003922 0.000000
0.003922 0.003922 0.000000
0.011634 0.004036 0.000000
0.026961 0.003922 0.000000
0.052099 0.007843 0.000000
0.082334 0.010398 0.000000
0.110562 0.017525 0.000000
0.138358 0.033211 0.000000
0.167126 0.044516 0.000000
0.202118 0.048951 0.000000
0.244608 0.051593 0.000000
0.287500 0.049510 0.000000
0.330392 0.052037 0.000000
0.377206 0.053186 0.000000
0.424020 0.051103 0.000000
0.463113 0.068627 0.000000
0.505882 0.086152 0.000000
0.544853 0.099755 0.000000
0.587745 0.117279 0.000000
0.626716 0.132966 0.000000
0.667157 0.148407 0.000000
0.707966 0.162010 0.000000
0.743627 0.173775 0.000000
0.782598 0.185750 0.000000
0.817647 0.196538 0.000000
0.852696 0.205243 0.000000
0.883824 0.213994 0.000000
0.917666 0.220814 0.000000
0.950000 0.227681 0.000000
0.981127 0.234448 0.000000
1.000000 0.241054 0.000000
1.000000 0.246082 0.000000
1.000000 0.250980 0.000000
0.000000 0.015441 0.000000
0.007598 0.015441 0.000000
0.015441 0.015441 0.000000
0.035149 0.019363 0.000000
0.061091 0.015901 0.000000
0.088725 0.028470 0.000000
0.116866 0.038235 0.000000
0.143313 0.050804 0.000000
0.174326 0.058578 0.000000
0.210309 0.062554 0.000000
0.248453 0.065273 0.000000
0.287500 0.070918 0.000000
0.330392 0.074173 0.000000
0.377895 0.076930 0.000000
0.424020 0.076471 0.000000
0.466912 0.090074 0.000000
0.505882 0.103676 0.000000
0.548652 0.117402 0.000000
0.587745 0.134804 0.000000
0.626716 0.148407 0.000000
0.669608 0.162010 0.000000
0.707966 0.175613 0.000000
0.743627 0.185294 0.000000
0.782598 0.196025 0.000000
0.817647 0.204841 0.000000
0.848843 0.214407 0.000000
0.883824 0.223330 0.000000
0.915035 0.229864 0.000000
0.949510 0.235754 0.000000
0.981127 0.242892 0.000000
1.000000 0.247289 0.000000
1.000000 0.252934 0.000000
1.000000 0.258824 0.000000
0.000000 0.042402 0.000000
0.009681 0.042402 0.000000
0.021201 0.042402 0.000000
0.042402 0.046324 0.000000
0.073529 0.053968 0.000000
0.093938 0.051838 0.000000
0.124020 0.048215 0.000000
0.146159 0.070588 0.000000
0.180208 0.076103 0.000000
0.217402 0.080373 0.000000
0.254044 0.085041 0.000000
0.295841 0.089576 0.000000
0.338235 0.093382 0.000000
0.385049 0.095860 0.000000
0.426225 0.106457 0.000000
0.466912 0.117034 0.000000
0.507843 0.129841 0.000000
0.548775 0.142647 0.000000
0.588442 0.155231 0.000000
0.630270 0.166081 0.000000
0.669608 0.179534 0.000000
0.707966 0.189828 0.000000
0.743627 0.201593 0.000000
0.778676 0.209436 0.000000
0.813725 0.218260 0.000000
0.848775 0.227941 0.000000
0.883824 0.233701 0.000000
0.914951 0.240809 0.000000
0.946078 0.247258 0.000000
0.977206 0.252574 0.000000
1.000000 0.258923 0.000000
1.000000 0.263591 0.000000
1.000000 0.268260 0.000000
0.000000 0.077451 0.000000
0.013603 0.077451 0.000000
0.034344 0.077451 0.000000
0.056204 0.077451 0.000000
0.080944 0.077941 0.000000
0.108410 0.089216 0.000000
0.128186 0.085294 0.000000
0.151716 0.077803 0.000000
0.191422 0.081863 0.000000
0.209666 0.098407 0.000000
0.255790 0.109161 0.000000
0.300827 0.113235 0.000000
0.346078 0.119118 0.000000
0.385049 0.128431 0.000000
0.424295 0.136550 0.000000
0.466912 0.148055 0.000000
0.507843 0.157843 0.000000
0.548775 0.168122 0.000000
0.589461 0.179626 0.000000
0.630270 0.190855 0.000000
0.669608 0.200797 0.000000
0.704657 0.210662 0.000000
0.743627 0.220190 0.000000
0.778676 0.226961 0.000000
0.813725 0.235784 0.000000
0.848775 0.242647 0.000000
0.879902 0.250490 0.000000
0.914951 0.254733 0.000000
0.946078 0.262255 0.000000
0.977206 0.266176 0.000000
1.000000 0.270343 0.000000
1.000000 0.276333 0.000000
1.000000 0.281863 0.000000
0.009191 0.107230 0.000000
0.030637 0.107230 0.000000
0.052083 0.104657 0.000000
0.074575 0.104657 0.000000
0.090885 0.108410 0.000000
0.111152 0.111152 0.000000
0.139453 0.118260 0.000000
0.164204 0.119619 0.000000
0.188603 0.114491 0.000000
0.225023 0.101298 0.000000
0.253715 0.119416 0.000000
0.287098 0.132510 0.000000
0.332460 0.137638 0.000000
0.379779 0.154657 0.000000
0.423430 0.166812 0.000000
0.463113 0.177861 0.000000
0.505882 0.188297 0.000000
0.547346 0.197346 0.000000
0.587745 0.207744 0.000000
0.626716 0.216793 0.000000
0.666651 0.225383 0.000000
0.704657 0.233858 0.000000
0.742279 0.240985 0.000000
0.778676 0.248407 0.000000
0.812377 0.256250 0.000000
0.844853 0.262990 0.000000
0.879649 0.268015 0.000000
0.911029 0.271936 0.000000
0.942157 0.276348 0.000000
0.973284 0.283701 0.000000
1.000000 0.287623 0.000000
1.000000 0.291544 0.000000
1.000000 0.295466 0.000000
0.023529 0.135784 0.000000
0.041789 0.135784 0.000000
0.061765 0.135784 0.000000
0.081319 0.135784 0.000000
0.100827 0.139308 0.000000
0.118995 0.139959 0.000000
0.143627 0.146814 0.000000
0.172465 0.153309 0.000000
0.206127 0.158762 0.000000
0.229167 0.154657 0.000000
0.261290 0.136045 0.000000
0.309229 0.129910 0.000000
0.327665 0.164767 0.000000
0.365441 0.167226 0.000000
0.403431 0.179657 0.000000
0.448897 0.196201 0.000000
0.498407 0.212990 0.000000
0.541644 0.225881 0.000000
0.583824 0.234145 0.000000
0.623460 0.242333 0.000000
0.662500 0.251440 0.000000
0.700735 0.258088 0.000000
0.739706 0.265931 0.000000
0.774755 0.272342 0.000000
0.809804 0.277696 0.000000
0.841667 0.281618 0.000000
0.875980 0.288863 0.000000
0.907108 0.293130 0.000000
0.938879 0.297304 0.000000
0.971392 0.301225 0.000000
1.000000 0.305147 0.000000
1.000000 0.309069 0.000000
1.000000 0.312990 0.000000
0.016789 0.170833 0.000000
0.037132 0.170833 0.000000
0.055760 0.170833 0.000000
0.082843 0.170833 0.000000
0.105392 0.170833 0.000000
0.126593 0.174755 0.000000
0.151471 0.178676 0.000000
0.177884 0.183701 0.000000
0.207996 0.191575 0.000000
0.245715 0.201589 0.000000
0.270466 0.194363 0.000000
0.303186 0.187232 0.000000
0.342157 0.160585 0.000000
0.381702 0.170362 0.000000
0.404894 0.205645 0.000000
0.439461 0.210137 0.000000
0.475919 0.222672 0.000000
0.520098 0.236275 0.000000
0.570335 0.253799 0.000000
0.613848 0.267402 0.000000
0.654979 0.276026 0.000000
0.692892 0.284386 0.000000
0.731104 0.291299 0.000000
0.766912 0.296082 0.000000
0.801961 0.300950 0.000000
0.837010 0.306193 0.000000
0.870956 0.310907 0.000000
0.903186 0.314828 0.000000
0.934314 0.318750 0.000000
0.968260 0.321527 0.000000
0.998966 0.326593 0.000000
1.000000 0.328676 0.000000
1.000000 0.330515 0.000000
0.000000 0.209804 0.000000
0.022825 0.205882 0.000000
0.048591 0.205882 0.000000
0.080025 0.205882 0.000000
0.107966 0.205882 0.000000
0.136029 0.211152 0.000000
0.152022 0.216115 0.000000
0.184712 0.217647 0.000000
0.213725 0.224510 0.000000
0.245067 0.230484 0.000000
0.286765 0.243199 0.002941
0.310876 0.235815 0.000000
0.342157 0.232721 0.000000
0.381127 0.207475 0.000000
0.417157 0.195650 0.000000
0.449173 0.220037 0.000000
0.478431 0.249020 0.000000
0.512500 0.252941 0.000000
0.546875 0.263480 0.000000
0.588205 0.274418 0.000000
0.637377 0.291667 0.000000
0.682108 0.304442 0.000000
0.721078 0.313664 0.000000
0.759069 0.320374 0.000000
0.794118 0.325245 0.000000
0.829167 0.330545 0.000000
0.864216 0.332904 0.000000
0.896324 0.336275 0.000000
0.930392 0.340196 0.000000
0.961918 0.344118 0.000000
0.993566 0.347120 0.000000
1.000000 0.349602 0.000000
1.000000 0.351961 0.000000
0.000000 0.245711 0.000000
0.007196 0.244853 0.000000
0.034804 0.244853 0.000000
0.065931 0.244853 0.000000
0.098300 0.244853 0.000000
0.132108 0.244853 0.000000
0.171078 0.252696 0.000000
0.190441 0.253313 0.000000
0.221783 0.256618 0.000000
0.252696 0.264461 0.000000
0.280760 0.268382 0.005760
0.326716 0.284069 0.015820
0.352865 0.279090 0.007200
0.381127 0.275938 0.000000
0.416176 0.265311 0.000000
0.455147 0.234777 0.000000
0.496752 0.239216 0.008088
0.518313 0.273828 0.000054
0.548529 0.287990 0.000000
0.579657 0.291054 0.000000
0.613848 0.300368 0.000000
0.652819 0.310049 0.000000
0.699732 0.325858 0.000000
0.742525 0.337925 0.000000
0.781495 0.345956 0.000000
0.817402 0.352937 0.000000
0.852451 0.357721 0.000000
0.887500 0.361642 0.000000
0.921691 0.365564 0.000000
0.954921 0.366422 0.000000
0.987868 0.369539 0.000000
1.000000 0.373407 0.000000
1.000000 0.377328 0.000000
0.000000 0.283824 0.000000
0.009681 0.281334 0.000000
0.038725 0.279902 0.000000
0.069853 0.279902 0.000000
0.100980 0.279902 0.000000
0.136029 0.279902 0.000000
0.171078 0.287010 0.000000
0.208257 0.291667 0.000000
0.229412 0.291667 0.000000
0.260539 0.295588 0.000000
0.291667 0.303431 0.000000
0.321339 0.307544 0.014024
0.365686 0.323039 0.029136
0.395221 0.321699 0.030767
0.420098 0.313971 0.000000
0.451225 0.310011 0.000000
0.490809 0.281373 0.000000
0.529167 0.264300 0.000000
0.569225 0.278922 0.015548
0.582353 0.317027 0.000000
0.610784 0.323039 0.000000
0.641912 0.324265 0.000000
0.674265 0.333333 0.000000
0.713235 0.343015 0.000000
0.757353 0.353922 0.000000
0.802183 0.368283 0.000000
0.841912 0.375980 0.000000
0.876961 0.383088 0.000000
0.912010 0.387010 0.000000
0.945833 0.390931 0.000000
0.978186 0.394853 0.000000
1.000000 0.397549 0.000000
1.000000 0.401471 0.000000
0.000000 0.318873 0.000000
0.015767 0.318873 0.000000
0.043467 0.318873 0.000000
0.074387 0.314951 0.000000
0.105392 0.314951 0.000000
0.136642 0.314951 0.000000
0.171078 0.318137 0.000000
0.213971 0.326716 0.000000
0.240288 0.330637 0.000000
0.267659 0.330637 0.000000
0.299510 0.334367 0.000000
0.330637 0.342402 0.000000
0.357843 0.346324 0.023055
0.400735 0.361455 0.043195
0.433923 0.362010 0.047672
0.458965 0.350839 0.003581
0.486275 0.350245 0.000000
0.521324 0.336010 0.000000
0.561742 0.304144 0.000000
0.598652 0.301340 0.011994
0.627665 0.316437 0.010646
0.642008 0.353362 0.000000
0.673039 0.354167 0.000000
0.704167 0.357475 0.000000
0.734681 0.364859 0.000000
0.769730 0.372989 0.000000
0.812745 0.385049 0.000000
0.857686 0.396481 0.000000
0.898407 0.405025 0.000000
0.933456 0.412377 0.000000
0.968505 0.416337 0.000000
0.999713 0.420546 0.000000
1.000000 0.424142 0.000000
0.000000 0.357843 0.000000
0.024586 0.353922 0.000000
0.053033 0.353922 0.000000
0.081618 0.350000 0.000000
0.111458 0.350000 0.000000
0.139951 0.350000 0.000000
0.175000 0.350000 0.000000
0.211152 0.356081 0.000000
0.252941 0.365686 0.000000
0.270297 0.365686 0.000000
0.303431 0.365686 0.000000
0.334559 0.369838 0.000000
0.365686 0.378370 0.002451
0.392892 0.381373 0.032828
0.434712 0.393536 0.054902
0.466912 0.399433 0.061275
0.491422 0.389706 0.031618
0.519899 0.385294 0.000000
0.551379 0.378186 0.000000
0.591192 0.347656 0.000000
0.627941 0.328002 0.000000
0.666912 0.335401 0.031311
0.679871 0.358670 0.000000
0.701103 0.384758 0.000000
0.731373 0.385294 0.000000
0.762500 0.386351 0.000000
0.793627 0.395343 0.000000
0.830147 0.402451 0.000000
0.869301 0.412255 0.000000
0.913480 0.425858 0.000000
0.954902 0.435447 0.000000
0.989951 0.441667 0.000000
1.000000 0.448039 0.000000
0.011765 0.392892 0.000000
0.035244 0.388971 0.000000
0.058923 0.388971 0.000000
0.087868 0.385049 0.000000
0.116667 0.385049 0.000000
0.143873 0.381127 0.000000
0.175000 0.381127 0.000000
0.209681 0.384785 0.000000
0.251593 0.395466 0.000000
0.291134 0.400735 0.000000
0.303546 0.400735 0.000000
0.338480 0.400735 0.000000
0.369608 0.404657 0.000000
0.400368 0.412500 0.004289
0.425735 0.416422 0.036887
0.462745 0.424020 0.062757
0.500000 0.432108 0.068627
0.525724 0.424755 0.056239
0.550896 0.416422 0.000000
0.579657 0.412868 0.000000
0.614338 0.394746 0.000000
0.657230 0.362868 0.000000
0.692279 0.351118 0.000000
0.732315 0.367770 0.040200
0.734957 0.403064 0.000000
0.759681 0.416054 0.000000
0.789706 0.416054 0.000000
0.820833 0.416422 0.000000
0.851915 0.427497 0.000000
0.886642 0.434069 0.000000
0.925835 0.443160 0.000000
0.970393 0.456985 0.000000
1.000000 0.466667 0.000000
0.019608 0.424020 0.000000
0.044064 0.421814 0.000000
0.066314 0.420098 0.000000
0.091789 0.417195 0.000000
0.117157 0.416176 0.000000
0.145320 0.413971 0.000000
0.175000 0.412255 0.000000
0.206127 0.412255 0.000000
0.242463 0.417463 0.000000
0.287990 0.430139 0.000000
0.321860 0.431863 0.000000
0.336619 0.433310 0.000000
0.369608 0.433578 0.000000
0.400735 0.437707 0.000000
0.430898 0.444593 0.006878
0.455147 0.447549 0.038672
0.491912 0.455147 0.070588
0.529167 0.463235 0.074441
0.557613 0.459804 0.070328
0.580025 0.447756 0.005859
0.609314 0.446078 0.000000
0.641912 0.438258 0.000000
0.682598 0.403676 0.000000
0.719853 0.383946 0.000000
0.757047 0.383211 0.021998
0.784674 0.396078 0.023506
0.791498 0.439629 0.000000
0.820833 0.445343 0.000000
0.851471 0.447549 0.000000
0.879864 0.448568 0.000000
0.912010 0.457353 0.000000
0.947059 0.464951 0.000000
0.986029 0.474510 0.000000
0.023529 0.455147 0.000000
0.048897 0.453244 0.000000
0.066536 0.451225 0.000000
0.091789 0.447304 0.000000
0.117157 0.447181 0.000000
0.146446 0.443382 0.000000
0.174900 0.443260 0.000000
0.204936 0.443260 0.000000
0.237255 0.443260 0.000000
0.277057 0.451961 0.000000
0.323001 0.462952 0.000000
0.348549 0.463584 0.000000
0.369562 0.462990 0.000000
0.400735 0.463346 0.000000
0.431863 0.469049 0.000000
0.459187 0.474755 0.007724
0.486275 0.478676 0.038787
0.521082 0.486156 0.074506
0.558578 0.494363 0.078362
0.587500 0.494363 0.078910
0.610861 0.481173 0.032169
0.637990 0.474755 0.000000
0.669079 0.470918 0.000000
0.703213 0.450191 0.000000
0.746936 0.419087 0.000000
0.781985 0.404201 0.000000
0.820956 0.415709 0.043352
0.831863 0.431131 0.000946
0.848146 0.474525 0.000000
0.879167 0.478554 0.000000
0.910294 0.478676 0.000000
0.941422 0.480695 0.000000
0.972549 0.490319 0.000000
0.027451 0.484314 0.000000
0.048897 0.482353 0.000000
0.068260 0.480392 0.000000
0.091789 0.478431 0.000000
0.117157 0.474510 0.000000
0.143873 0.472549 0.000000
0.171446 0.470588 0.000000
0.201654 0.468627 0.000000
0.233333 0.468627 0.000000
0.268382 0.472549 0.000000
0.314583 0.487010 0.000000
0.354167 0.494118 0.000000
0.369363 0.494118 0.000000
0.398591 0.494118 0.000000
0.429657 0.494118 0.000000
0.460968 0.500000 0.000000
0.489216 0.504902 0.004902
0.513603 0.509743 0.036765
0.546569 0.513480 0.078431
0.587500 0.525306 0.082169
0.617157 0.525490 0.086275
0.642218 0.514338 0.059007
0.667892 0.505882 0.000000
0.696324 0.504350 0.000000
0.727451 0.494608 0.000000
0.771752 0.460478 0.000000
0.809314 0.436887 0.000000
0.842402 0.431985 0.010294
0.882843 0.445343 0.046078
0.887439 0.479105 0.000000
0.910294 0.507966 0.000000
0.941422 0.509804 0.000000
0.972549 0.511765 0.000000
0.023529 0.513480 0.000000
0.044975 0.509681 0.000000
0.066422 0.509559 0.000000
0.089461 0.505710 0.000000
0.113343 0.502313 0.000000
0.142525 0.501716 0.000000
0.167992 0.497917 0.000000
0.197216 0.497794 0.000000
0.229412 0.493995 0.000000
0.260539 0.497794 0.000000
0.299594 0.501838 0.000000
0.347040 0.518137 0.000000
0.385294 0.521446 0.000000
0.392904 0.525245 0.000000
0.427941 0.525245 0.000000
0.459069 0.525245 0.000000
0.490196 0.529228 0.000000
0.517525 0.536891 0.003803
0.542892 0.537132 0.032667
0.571936 0.541042 0.081997
0.614782 0.554243 0.086275
0.645833 0.556618 0.090196
0.673001 0.548736 0.079458
0.696324 0.537010 0.000000
0.723529 0.537010 0.000000
0.754779 0.530147 0.000000
0.790686 0.506909 0.000000
0.836642 0.475448 0.000000
0.871569 0.458578 0.000000
0.909069 0.466544 0.039537
0.940694 0.475023 0.036566
0.947059 0.525915 0.000000
0.972549 0.540931 0.000000
0.019608 0.540686 0.000000
0.041054 0.538971 0.000000
0.062393 0.536765 0.000000
0.085539 0.534153 0.000000
0.111244 0.531127 0.000000
0.137477 0.528332 0.000000
0.165763 0.525000 0.000000
0.193880 0.523284 0.000000
0.222120 0.521078 0.000000
0.254902 0.521078 0.000000
0.289951 0.523284 0.000000
0.333456 0.535662 0.000000
0.380729 0.550735 0.000000
0.415847 0.552451 0.000000
0.424020 0.552451 0.000000
0.457284 0.552451 0.000000
0.488235 0.554657 0.000000
0.519661 0.558578 0.000000
0.546814 0.565181 0.000000
0.571814 0.568137 0.029121
0.599847 0.568964 0.084957
0.644118 0.585417 0.090196
0.676961 0.587745 0.098039
0.704542 0.584199 0.094110
0.727451 0.571507 0.023468
0.754657 0.568137 0.000000
0.785784 0.564216 0.000000
0.819118 0.551593 0.000000
0.862500 0.517678 0.000000
0.902696 0.495021 0.000000
0.936029 0.485815 0.000000
0.975000 0.497005 0.057215
0.993382 0.512010 0.015441
0.012132 0.568260 0.000000
0.033383 0.567892 0.000000
0.055002 0.564338 0.000000
0.080174 0.560417 0.000000
0.105714 0.560049 0.000000
0.132349 0.556127 0.000000
0.160348 0.552574 0.000000
0.189442 0.548652 0.000000
0.217739 0.548376 0.000000
0.248775 0.548284 0.000000
0.283824 0.548537 0.000000
0.319795 0.553186 0.000000
0.368505 0.570711 0.000000
0.412868 0.580358 0.000000
0.438641 0.582024 0.000000
0.455147 0.583578 0.000000
0.486275 0.583578 0.000000
0.517402 0.583946 0.000000
0.548529 0.589422 0.000000
0.576068 0.595343 0.000000
0.601241 0.599265 0.027099
0.630147 0.599575 0.089396
0.673407 0.612875 0.097786
0.708088 0.619240 0.101961
0.735294 0.618781 0.104442
0.759578 0.607843 0.063630
0.785784 0.599265 0.000000
0.814338 0.599023 0.000000
0.848039 0.590564 0.000000
0.886152 0.566054 0.000000
0.930270 0.535317 0.000000
0.965319 0.518382 0.000000
1.000000 0.517647 0.005515
0.006373 0.597549 0.000000
0.027819 0.595098 0.000000
0.050643 0.591330 0.000000
0.075230 0.589706 0.000000
0.101287 0.587255 0.000000
0.128186 0.583333 0.000000
0.156127 0.579412 0.000000
0.186106 0.577941 0.000000
0.213725 0.575490 0.000000
0.244531 0.574020 0.000000
0.275980 0.574020 0.000000
0.311029 0.575873 0.000000
0.353370 0.584314 0.000000
0.404887 0.605760 0.000000
0.447549 0.610784 0.000000
0.459344 0.613281 0.000000
0.485539 0.613235 0.000000
0.517402 0.614660 0.000000
0.548529 0.615778 0.000000
0.579657 0.620849 0.000000
0.605944 0.626471 0.000000
0.630377 0.630162 0.025337
0.657353 0.630392 0.090165
0.701838 0.643750 0.105882
0.739216 0.653922 0.109804
0.767525 0.653922 0.114782
0.794363 0.642892 0.089767
0.818260 0.631740 0.002022
0.845404 0.630392 0.000000
0.876241 0.626471 0.000000
0.910447 0.613235 0.000000
0.957721 0.577037 0.000000
0.996078 0.553431 0.000000
0.000000 0.626225 0.000000
0.021446 0.622629 0.000000
0.043467 0.622304 0.000000
0.070217 0.618382 0.000000
0.097549 0.614537 0.000000
0.124667 0.610941 0.000000
0.152704 0.607230 0.000000
0.182598 0.605687 0.000000
0.209957 0.602696 0.000000
0.240208 0.599387 0.000000
0.272059 0.599387 0.000000
0.303799 0.599904 0.000000
0.342540 0.605760 0.000000
0.389951 0.620286 0.000000
0.442180 0.640464 0.000000
0.478657 0.641912 0.000000
0.484007 0.645833 0.000000
0.517402 0.645833 0.000000
0.548529 0.645833 0.000000
0.579657 0.646446 0.000000
0.610784 0.651608 0.000000
0.637990 0.657598 0.000000
0.661083 0.661520 0.023422
0.688480 0.661520 0.093627
0.729044 0.674877 0.113113
0.770343 0.685049 0.116544
0.800237 0.685049 0.121569
0.826103 0.678343 0.110260
0.850934 0.665441 0.020267
0.876838 0.661520 0.000000
0.906373 0.661481 0.000000
0.941422 0.652738 0.000000
0.977696 0.627696 0.000000
0.000000 0.653431 0.000000
0.017525 0.652206 0.000000
0.038971 0.649510 0.000000
0.067532 0.645588 0.000000
0.093627 0.644363 0.000000
0.122917 0.640441 0.000000
0.151471 0.636749 0.000000
0.178676 0.633824 0.000000
0.206863 0.629902 0.000000
0.236742 0.628676 0.000000
0.267295 0.626823 0.000000
0.299265 0.625980 0.000000
0.334314 0.629442 0.000000
0.376095 0.636887 0.000000
0.428922 0.658333 0.000000
0.477489 0.673039 0.000000
0.509069 0.673039 0.000000
0.513519 0.676961 0.000000
0.548529 0.676961 0.000000
0.580025 0.676961 0.000000
0.610784 0.680116 0.000000
0.641912 0.684612 0.000000
0.668275 0.689568 0.000000
0.692402 0.692647 0.023575
0.719608 0.693321 0.096630
0.757353 0.704779 0.117647
0.800965 0.716176 0.122074
0.830025 0.718873 0.129412
0.859314 0.713327 0.123529
0.881985 0.700988 0.066644
0.907521 0.696324 0.000000
0.937500 0.692647 0.000000
0.968627 0.688725 0.000000
0.000000 0.684559 0.000000
0.013603 0.680637 0.000000
0.038725 0.677765 0.000000
0.064687 0.676716 0.000000
0.093137 0.672794 0.000000
0.120343 0.668873 0.000000
0.147710 0.665112 0.000000
0.177574 0.661646 0.000000
0.205882 0.658732 0.000000
0.233088 0.657108 0.000000
0.264216 0.654044 0.000000
0.295343 0.654044 0.000000
0.327328 0.654044 0.000000
0.365522 0.658333 0.000000
0.411397 0.671936 0.000000
0.467892 0.696446 0.000000
0.510233 0.705025 0.000000
0.539365 0.705025 0.000000
0.544608 0.708088 0.000000
0.579657 0.708088 0.000000
0.614384 0.710095 0.000000
0.642525 0.712010 0.000000
0.673039 0.716789 0.000000
0.699575 0.720711 0.000000
0.722549 0.723775 0.023468
0.750119 0.724632 0.100609
0.786642 0.733211 0.125490
0.828971 0.748162 0.126053
0.859804 0.751225 0.133824
0.890422 0.747304 0.134069
0.914162 0.738358 0.099594
0.939338 0.727696 0.000000
0.964706 0.723775 0.000000
0.000000 0.711765 0.000000
0.013603 0.711305 0.000000
0.035049 0.707843 0.000000
0.062010 0.705668 0.000000
0.089706 0.703064 0.000000
0.118995 0.699663 0.000000
0.147549 0.695282 0.000000
0.174755 0.691881 0.000000
0.202696 0.688235 0.000000
0.232230 0.684314 0.000000
0.260294 0.683333 0.000000
0.291422 0.680392 0.000000
0.322549 0.680392 0.000000
0.357598 0.683425 0.000000
0.398223 0.689890 0.000000
0.450490 0.710999 0.000000
0.505392 0.732353 0.000000
0.544853 0.739185 0.000000
0.558088 0.739216 0.000000
0.578401 0.739216 0.000000
0.614338 0.739216 0.000000
0.645833 0.742984 0.000000
0.675735 0.744056 0.000000
0.704381 0.749357 0.000000
0.730392 0.753922 0.000000
0.751838 0.754902 0.022059
0.777941 0.757843 0.101225
0.814583 0.764338 0.129412
0.858946 0.777574 0.130760
0.890931 0.781955 0.139001
0.918137 0.782108 0.142096
0.945803 0.771048 0.121722
0.968627 0.758824 0.011765
0.000000 0.742892 0.000000
0.013603 0.740074 0.000000
0.034804 0.738971 0.000000
0.062010 0.735049 0.000000
0.089216 0.731265 0.000000
0.116422 0.727930 0.000000
0.143834 0.723491 0.000000
0.171626 0.720155 0.000000
0.201961 0.716544 0.000000
0.229167 0.714825 0.000000
0.257598 0.711520 0.000000
0.287500 0.708701 0.000000
0.318627 0.708701 0.000000
0.353676 0.708701 0.000000
0.389346 0.712623 0.000000
0.432843 0.724510 0.000000
0.493260 0.749877 0.000000
0.542000 0.767402 0.000000
0.579419 0.770343 0.000000
0.579553 0.771343 0.000000
0.610784 0.770343 0.000000
0.645833 0.771446 0.000000
0.676961 0.774265 0.000000
0.708088 0.777570 0.000000
0.735294 0.779994 0.000000
0.759371 0.783211 0.000000
0.781656 0.786029 0.017241
0.809069 0.787132 0.100257
0.841437 0.791544 0.134789
0.886520 0.807395 0.137255
0.918137 0.813480 0.145098
0.949265 0.813480 0.149020
0.976471 0.805637 0.137868
0.000000 0.770098 0.000000
0.009681 0.770098 0.000000
0.031127 0.766376 0.000000
0.059980 0.765441 0.000000
0.085784 0.761612 0.000000
0.114591 0.758081 0.000000
0.143030 0.753814 0.000000
0.170627 0.750283 0.000000
0.198039 0.746017 0.000000
0.225245 0.742486 0.000000
0.255867 0.738725 0.000000
0.283578 0.737990 0.000000
0.314706 0.734804 0.000000
0.345833 0.734804 0.000000
0.380882 0.737990 0.000000
0.419953 0.742747 0.000000
0.471814 0.761152 0.000000
0.529144 0.784926 0.000000
0.575980 0.800735 0.000000
