darkroom/assets/luts/slide-vivid.cube
TITLE "Vivid slide"
# Preset LUT for Lolly Bitmap Studio.
# Derived from sguyader/FilmSim "Velvia_Vivid_v2" (CC0 1.0, https://github.com/sguyader/FilmSim),
# resampled from the 144³ HaldCLUT to a 33³ .cube. Public domain — see NOTICE.md.
LUT_3D_SIZE 5
DOMAIN_MIN 0.0 0.0 0.0
DOMAIN_MAX 1.0 1.0 1.0
0.000000 0.000000 0.000000
0.115686 0.019608 0.000000
0.509804 0.033333 0.000000
0.864706 0.185294 0.000000
1.000000 0.227451 0.000000
0.010784 0.194118 0.000000
0.217647 0.220588 0.000000
0.558824 0.260784 0.000000
0.872549 0.269853 0.000000
1.000000 0.316667 0.000000
0.066667 0.560784 0.000000
0.257843 0.564706 0.000000
0.549020 0.549020 0.000000
0.803922 0.529412 0.000000
1.000000 0.466667 0.000000
0.000000 0.781373 0.000000
0.204902 0.778431 0.000000
0.446569 0.782353 0.000000
0.754902 0.762745 0.000000
1.000000 0.766667 0.000000
0.000000 1.000000 0.000000
0.178431 1.000000 0.000000
0.445098 1.000000 0.000000
0.782353 1.000000 0.000000
1.000000 1.000000 0.482353
0.025490 0.000000 0.069608
0.197304 0.000000 0.201961
0.470588 0.000000 0.226961
0.826471 0.173529 0.229167
1.000000 0.026471 0.086275
0.000000 0.215931 0.220588
0.204289 0.203370 0.203922
0.553431 0.230882 0.194240
0.863358 0.257843 0.146814
1.000000 0.265686 0.023529
0.000000 0.552941 0.199020
0.236520 0.545098 0.176471
0.531863 0.534559 0.217892
0.800000 0.510539 0.202941
1.000000 0.431373 0.000000
0.000000 0.774510 0.000000
0.164767 0.773529 0.000000
0.415686 0.774510 0.000000
0.750061 0.754902 0.110417
1.000000 0.758824 0.202941
0.000000 1.000000 0.000000
0.127206 1.000000 0.000000
0.439216 1.000000 0.000000
0.763725 1.000000 0.000000
1.000000 1.000000 0.533333
0.000000 0.000000 0.643137
0.232353 0.000000 0.641176
0.569608 0.000000 0.574510
0.830882 0.140196 0.576471
1.000000 0.180392 0.535294
0.000000 0.173529 0.558333
0.260172 0.241054 0.661520
0.592157 0.236029 0.596078
0.808211 0.302941 0.556863
1.000000 0.248039 0.484804
0.141176 0.560784 0.568627
0.300000 0.545588 0.552941
0.501961 0.502451 0.501961
0.793137 0.486029 0.458333
1.000000 0.433333 0.362745
0.000000 0.777451 0.419608
0.000000 0.770588 0.397426
0.421078 0.750245 0.380637
0.735294 0.741176 0.418137
1.000000 0.739216 0.444608
0.000000 1.000000 0.331373
0.000000 1.000000 0.327451
0.424510 1.000000 0.303922
0.723529 1.000000 0.197059
1.000000 1.000000 0.652941
0.000000 0.000000 1.000000
0.291176 0.000000 1.000000
0.628431 0.000000 1.000000
0.883333 0.000000 0.884314
1.000000 0.107843 0.834314
0.000000 0.197059 1.000000
0.299265 0.228983 1.000000
0.642034 0.184804 1.000000
0.869363 0.189951 0.872733
1.000000 0.267892 0.813725
0.000000 0.519608 0.846078
0.170588 0.490074 0.827819
0.536029 0.513235 0.925980
0.819118 0.465686 0.823039
1.000000 0.485784 0.756863
0.112990 0.769608 0.781373
0.276103 0.762561 0.773775
0.499632 0.744240 0.750980
0.721078 0.720343 0.720343
1.000000 0.703186 0.680392
0.000000 1.000000 0.700980
0.000000 1.000000 0.693137
0.095588 1.000000 0.671569
0.758824 1.000000 0.723529
1.000000 1.000000 0.820588
0.474510 0.000000 1.000000
0.571569 0.000000 1.000000
0.715686 0.000000 1.000000
0.851961 0.000000 1.000000
1.000000 0.000000 1.000000
0.482353 0.181373 1.000000
0.533333 0.229412 1.000000
0.700980 0.233333 1.000000
0.848039 0.022549 1.000000
1.000000 0.142157 1.000000
0.000000 0.452941 1.000000
0.269608 0.452941 1.000000
0.603922 0.478431 1.000000
0.834314 0.415686 1.000000
1.000000 0.380392 1.000000
0.222549 0.747059 1.000000
0.300000 0.739216 1.000000
0.403922 0.686765 1.000000
0.718873 0.696078 1.000000
1.000000 0.669608 1.000000
0.517647 1.000000 1.000000
0.587255 1.000000 1.000000
0.723529 1.000000 1.000000
0.894118 1.000000 1.000000
1.000000 1.000000 1.000000
