darkroom/assets/luts/slide-vivid.cube
TITLE "Vivid slide"
# Preset LUT for Lolly Bitmap Studio.
# Derived from sguyader/FilmSim "Velvia_Vivid_v2" (CC0 1.0, https://github.com/sguyader/FilmSim),
# resampled from the 144³ HaldCLUT to a 33³ .cube. Public domain — see NOTICE.md.
LUT_3D_SIZE 33
DOMAIN_MIN 0.0 0.0 0.0
DOMAIN_MAX 1.0 1.0 1.0
0.000000 0.000000 0.000000
0.003922 0.000000 0.000000
0.003922 0.000000 0.000000
0.003922 0.000000 0.000000
0.011275 0.000000 0.000000
0.026225 0.000000 0.000000
0.050245 0.003922 0.000000
0.080637 0.011765 0.000000
0.115686 0.019608 0.000000
0.142892 0.032230 0.000000
0.179167 0.045833 0.000000
0.221446 0.050368 0.000000
0.276471 0.048529 0.000000
0.330515 0.047426 0.000000
0.387500 0.048284 0.000000
0.447304 0.047304 0.000000
0.509804 0.033333 0.000000
0.564338 0.050735 0.000000
0.612990 0.080147 0.000000
0.661642 0.105515 0.000000
0.706373 0.126961 0.000000
0.747794 0.144485 0.000000
0.790686 0.162010 0.000000
0.829657 0.175613 0.000000
0.864706 0.185294 0.000000
0.900858 0.196078 0.000000
0.934804 0.204657 0.000000
0.969853 0.211765 0.000000
1.000000 0.216176 0.000000
1.000000 0.221936 0.000000
1.000000 0.223529 0.000000
1.000000 0.227451 0.000000
1.000000 0.227451 0.000000
0.000000 0.000000 0.000000
0.000000 0.000000 0.000000
0.003676 0.000000 0.000000
0.007843 0.000000 0.000000
0.017034 0.000000 0.000000
0.035275 0.003922 0.000000
0.063113 0.007453 0.000000
0.093723 0.016203 0.000000
0.121967 0.026930 0.000000
0.150735 0.043539 0.000000
0.187623 0.050329 0.000000
0.231453 0.056740 0.000000
0.283333 0.059191 0.000000
0.336837 0.063848 0.000000
0.394853 0.061956 0.000000
0.455155 0.059168 0.000000
0.516605 0.046814 0.000000
0.568260 0.076103 0.000000
0.615196 0.099387 0.000000
0.661642 0.122867 0.000000
0.706373 0.140564 0.000000
0.751103 0.158088 0.000000
0.790686 0.173123 0.000000
0.829657 0.185750 0.000000
0.864706 0.196538 0.000000
0.899755 0.205243 0.000000
0.934804 0.212109 0.000000
0.967279 0.219608 0.000000
0.998392 0.223759 0.000000
1.000000 0.228542 0.000000
1.000000 0.231373 0.000000
1.000000 0.233211 0.000000
1.000000 0.235294 0.000000
0.000000 0.003676 0.000000
0.000000 0.003922 0.000000
0.003922 0.003922 0.000000
0.011619 0.005415 0.000000
0.026930 0.007598 0.000000
0.052083 0.009107 0.000000
0.076716 0.011719 0.000000
0.100176 0.019432 0.000000
0.127267 0.030392 0.000000
0.154657 0.047917 0.000000
0.196155 0.054902 0.000000
0.241054 0.062707 0.000000
0.292004 0.067892 0.000000
0.346201 0.070711 0.000000
0.403186 0.071569 0.000000
0.463105 0.070581 0.000000
0.519608 0.072304 0.000000
0.568375 0.097312 0.000000
0.616912 0.118980 0.000000
0.665342 0.136642 0.000000
0.708824 0.154167 0.000000
0.751103 0.171691 0.000000
0.790686 0.185294 0.000000
0.829657 0.195833 0.000000
0.864706 0.204841 0.000000
0.899755 0.214407 0.000000
0.934804 0.223284 0.000000
0.965931 0.227367 0.000000
0.996569 0.231373 0.000000
1.000000 0.235294 0.000000
1.000000 0.238971 0.000000
1.000000 0.239216 0.000000
1.000000 0.242892 0.000000
0.000000 0.013358 0.000000
0.000747 0.013358 0.000000
0.007598 0.017279 0.000000
0.018873 0.019818 0.000000
0.040119 0.024831 0.000000
0.063113 0.029044 0.000000
0.089024 0.034260 0.000000
0.112500 0.042402 0.000000
0.136887 0.048070 0.000000
0.167666 0.055250 0.000000
0.204887 0.058824 0.000000
0.250126 0.064453 0.000000
0.302466 0.070588 0.000000
0.354412 0.081985 0.000000
0.413151 0.085455 0.000000
0.467329 0.091422 0.000000
0.526287 0.097672 0.000000
0.573847 0.119118 0.000000
0.620833 0.137339 0.000000
0.665931 0.155760 0.000000
0.710294 0.171691 0.000000
0.751716 0.185658 0.000000
0.790686 0.198897 0.000000
0.829657 0.209088 0.000000
0.864706 0.218260 0.000000
0.899755 0.226796 0.000000
0.934804 0.232966 0.000000
0.965931 0.238415 0.000000
0.996569 0.243137 0.000000
1.000000 0.244730 0.000000
1.000000 0.248652 0.000000
1.000000 0.248652 0.000000
1.000000 0.250980 0.000000
0.000000 0.038235 0.000000
0.003922 0.042157 0.000000
0.011520 0.042157 0.000000
0.028554 0.046078 0.000000
0.053493 0.050429 0.000000
0.076716 0.057843 0.000000
0.100735 0.061765 0.000000
0.126103 0.069746 0.000000
0.154412 0.074020 0.000000
0.185539 0.076700 0.000000
0.222947 0.075092 0.000000
0.264017 0.078018 0.000000
0.312929 0.081679 0.000000
0.365763 0.082230 0.000000
0.422243 0.086397 0.000000
0.482721 0.090319 0.000000
0.531373 0.115196 0.000000
0.579550 0.136642 0.000000
0.624755 0.158088 0.000000
0.669807 0.175613 0.000000
0.712745 0.189216 0.000000
0.754611 0.202819 0.000000
0.794271 0.215196 0.000000
0.829657 0.226103 0.000000
0.864706 0.232230 0.000000
0.899755 0.241544 0.000000
0.934804 0.246569 0.000000
0.965931 0.250490 0.000000
0.996569 0.254473 0.000000
1.000000 0.258333 0.000000
1.000000 0.258824 0.000000
1.000000 0.262255 0.000000
1.000000 0.262255 0.000000
0.001348 0.073284 0.000000
0.016318 0.075839 0.000000
0.022304 0.077206 0.000000
0.042157 0.077206 0.000000
0.065855 0.081127 0.000000
0.092008 0.085049 0.000000
0.114338 0.092639 0.000000
0.140809 0.096814 0.000000
0.171936 0.100735 0.000000
0.206985 0.107525 0.000000
0.245956 0.111696 0.000000
0.286677 0.109314 0.000000
0.335156 0.105499 0.000000
0.382843 0.105025 0.000000
0.435417 0.105415 0.000000
0.490564 0.104779 0.000000
0.537929 0.120956 0.000000
0.583988 0.142402 0.000000
0.629435 0.166422 0.000000
0.673775 0.187868 0.000000
0.716667 0.205392 0.000000
0.755637 0.219206 0.000000
0.794608 0.230025 0.000000
0.829657 0.240269 0.000000
0.865717 0.248407 0.000000
0.899755 0.255871 0.000000
0.934069 0.260172 0.000000
0.965931 0.264093 0.000000
0.996569 0.268015 0.000000
1.000000 0.271936 0.000000
1.000000 0.271936 0.000000
1.000000 0.274510 0.000000
1.000000 0.275858 0.000000
0.018873 0.108333 0.000000
0.033211 0.108333 0.000000
0.045343 0.109023 0.000000
0.059245 0.112255 0.000000
0.080729 0.112255 0.000000
0.102826 0.116176 0.000000
0.127941 0.124020 0.000000
0.157437 0.131863 0.000000
0.189461 0.135784 0.000000
0.224510 0.140403 0.000000
0.266176 0.145818 0.000000
0.310792 0.148782 0.000000
0.357567 0.154657 0.000000
0.407407 0.143329 0.000000
0.453263 0.141176 0.000000
0.501494 0.146814 0.000000
0.546691 0.153431 0.000000
0.591789 0.163235 0.000000
0.636198 0.177451 0.000000
0.680584 0.191720 0.000000
0.720588 0.209314 0.000000
0.759559 0.226838 0.000000
0.798024 0.240441 0.000000
0.833578 0.253309 0.000000
0.868627 0.262010 0.000000
0.899755 0.268957 0.000000
0.934069 0.273912 0.000000
0.963358 0.278179 0.000000
0.993137 0.281710 0.000000
1.000000 0.285539 0.000000
1.000000 0.286275 0.000000
1.000000 0.289461 0.000000
1.000000 0.289461 0.000000
0.030270 0.147304 0.000000
0.043873 0.148407 0.000000
0.054833 0.148407 0.000000
0.066667 0.151225 0.000000
0.085294 0.152328 0.000000
0.107954 0.157219 0.000000
0.139706 0.162990 0.000000
0.171626 0.170833 0.000000
0.205178 0.177696 0.000000
0.242034 0.183701 0.000000
0.281005 0.187623 0.000000
0.324337 0.191544 0.000000
0.368551 0.197227 0.000000
0.416525 0.203309 0.000000
0.462002 0.207230 0.000000
0.510083 0.196569 0.000000
0.553493 0.199387 0.000000
0.599667 0.202206 0.000000
0.642647 0.207843 0.000000
0.685275 0.213971 0.000000
0.724923 0.222871 0.000000
0.763480 0.231863 0.000000
0.802451 0.243482 0.000000
0.837500 0.254044 0.000000
0.869455 0.267647 0.000000
0.903676 0.277639 0.000000
0.934804 0.286275 0.000000
0.963358 0.290920 0.000000
0.993137 0.295221 0.000000
1.000000 0.298694 0.000000
1.000000 0.299318 0.000000
1.000000 0.302547 0.000000
1.000000 0.303064 0.000000
0.010784 0.194118 0.000000
0.016085 0.197059 0.000000
0.034007 0.197059 0.000000
0.061060 0.199786 0.000000
0.083456 0.200980 0.000000
0.111520 0.204902 0.000000
0.144179 0.208824 0.000000
0.182598 0.214553 0.000000
0.217647 0.220588 0.000000
0.255637 0.226348 0.000000
0.294608 0.235355 0.000000
0.333732 0.240196 0.000000
0.375368 0.244118 0.000000
0.420619 0.248131 0.000000
0.465441 0.254596 0.000000
0.513971 0.259835 0.000000
0.558824 0.260784 0.000000
0.603676 0.248131 0.000000
0.646569 0.249020 0.000000
0.689369 0.249020 0.000000
0.728431 0.252941 0.000000
0.767402 0.256403 0.000000
0.803370 0.260784 0.000000
0.841422 0.265472 0.000000
0.872549 0.269853 0.000000
0.906893 0.278156 0.000000
0.937194 0.287010 0.000000
0.965931 0.296691 0.000000
0.993137 0.302328 0.000000
1.000000 0.308824 0.000000
1.000000 0.312745 0.000000
1.000000 0.313725 0.000000
1.000000 0.316667 0.000000
0.000000 0.249632 0.000000
0.000000 0.249632 0.000000
0.011872 0.249632 0.000000
0.042034 0.251735 0.000000
0.075245 0.253554 0.000000
0.104753 0.257475 0.000000
0.141713 0.260662 0.000000
0.186761 0.264702 0.000000
0.230055 0.269240 0.000000
0.269240 0.273162 0.000000
0.306396 0.279190 0.000000
0.347181 0.284926 0.000000
0.385830 0.290763 0.000000
0.428186 0.293057 0.000000
0.469738 0.296691 0.000000
0.513971 0.300708 0.000000
0.558395 0.306066 0.000000
0.603554 0.308429 0.000000
0.646086 0.305775 0.000000
0.689461 0.292850 0.000000
0.728431 0.290763 0.000000
0.767402 0.287990 0.000000
0.806373 0.287990 0.000000
0.841422 0.287990 0.000000
0.876256 0.291054 0.000000
0.907598 0.291054 0.000000
0.938725 0.294975 0.000000
0.969853 0.298039 0.000000
0.996569 0.302068 0.000000
1.000000 0.309455 0.000000
1.000000 0.316843 0.000000
1.000000 0.321569 0.000000
1.000000 0.325490 0.000000
0.000000 0.302206 0.000000
0.000000 0.302206 0.000000
0.006204 0.302206 0.000000
0.049020 0.304527 0.000000
0.084069 0.306127 0.000000
0.109122 0.310049 0.000000
0.145588 0.311045 0.000000
0.189560 0.313971 0.000000
0.236949 0.317892 0.000000
0.283111 0.321814 0.000000
0.321814 0.324893 0.000000
0.357054 0.327152 0.000613
0.395833 0.334344 0.010539
0.434804 0.338725 0.005139
0.474464 0.341422 0.000000
0.514093 0.342647 0.000000
0.556863 0.345343 0.000000
0.599632 0.346569 0.000000
0.641131 0.349801 0.000000
0.681618 0.350490 0.000000
0.723284 0.342647 0.000000
0.766981 0.327382 0.000000
0.802451 0.323039 0.000000
0.837500 0.319975 0.000000
0.872549 0.319118 0.000000
0.907598 0.315196 0.000000
0.938725 0.314691 0.000000
0.969853 0.312500 0.000000
0.997641 0.312500 0.000000
1.000000 0.313725 0.000000
1.000000 0.316498 0.000000
1.000000 0.319730 0.000000
1.000000 0.325490 0.000000
0.000000 0.350858 0.000000
0.000287 0.354167 0.000000
0.028148 0.354779 0.000000
0.070466 0.354779 0.000000
0.105515 0.354779 0.000000
0.131373 0.358701 0.000000
0.159429 0.362010 0.000000
0.198284 0.362623 0.000000
0.241636 0.366544 0.000000
0.289327 0.370466 0.000000
0.335225 0.370466 0.000000
0.370466 0.370466 0.000000
0.404902 0.373775 0.015441
0.440874 0.378309 0.028064
0.478922 0.381618 0.024410
0.514093 0.382230 0.008946
0.554596 0.382230 0.000000
0.595117 0.385539 0.000000
0.634459 0.385539 0.000000
0.673717 0.385539 0.000000
0.713986 0.385539 0.000000
0.751716 0.382135 0.000000
0.793995 0.369853 0.000000
0.833444 0.358222 0.000000
0.868627 0.350245 0.000000
0.903064 0.346324 0.000000
0.934804 0.342287 0.000000
0.965931 0.338078 0.000000
0.996569 0.333946 0.000000
1.000000 0.330273 0.000000
1.000000 0.330025 0.000000
1.000000 0.329412 0.000000
1.000000 0.329412 0.000000
0.000000 0.403431 0.000000
0.021124 0.403431 0.000000
0.056771 0.403431 0.000000
0.089445 0.403431 0.000000
0.123039 0.403431 0.000000
0.150245 0.405744 0.000000
0.174265 0.408548 0.000000
0.206127 0.411275 0.000000
0.246936 0.412745 0.000000
0.292770 0.415196 0.000000
0.338725 0.416667 0.000000
0.381618 0.416667 0.000000
0.415196 0.415196 0.000000
0.446324 0.416667 0.027068
0.482843 0.420588 0.045588
0.517892 0.420588 0.041621
0.552941 0.420588 0.025735
0.589461 0.420588 0.002574
0.627604 0.420588 0.000000
0.665931 0.418367 0.000000
0.704902 0.416667 0.000000
0.743490 0.416667 0.000000
0.780392 0.413756 0.000000
0.817892 0.411596 0.000000
0.858333 0.394608 0.000000
0.895833 0.381373 0.000000
0.928431 0.373529 0.000000
0.962010 0.367999 0.000000
0.992831 0.361765 0.000000
1.000000 0.356388 0.000000
1.000000 0.351471 0.000000
1.000000 0.347549 0.000000
1.000000 0.343627 0.000000
0.019975 0.447794 0.000000
0.051298 0.447794 0.000000
0.078332 0.448162 0.000000
0.107843 0.448162 0.000000
0.136642 0.448162 0.000000
0.166180 0.451716 0.000000
0.191720 0.451716 0.000000
0.214235 0.455637 0.000000
0.249020 0.455637 0.000000
0.291912 0.456005 0.000000
0.337500 0.459559 0.000000
0.382230 0.459559 0.000000
0.424510 0.457338 0.000000
0.452049 0.455304 0.000000
0.483004 0.451716 0.034727
0.517892 0.455637 0.054913
0.552941 0.455637 0.053125
0.587990 0.455637 0.036152
0.622832 0.455637 0.008862
0.658088 0.451716 0.000000
0.696691 0.451578 0.000000
0.732050 0.447794 0.000000
0.768267 0.446316 0.000000
0.805760 0.443873 0.000000
0.840901 0.439951 0.000000
0.875858 0.433475 0.000000
0.918451 0.416054 0.000000
0.953799 0.402083 0.000000
0.984926 0.392892 0.000000
1.000000 0.386642 0.000000
1.000000 0.380882 0.000000
1.000000 0.373284 0.000000
1.000000 0.368995 0.000000
0.045343 0.490686 0.000000
0.070711 0.490686 0.000000
0.093765 0.490686 0.000000
0.120136 0.490686 0.000000
0.148315 0.490686 0.000000
0.176693 0.490686 0.000000
0.202865 0.490686 0.000000
0.224632 0.494608 0.000000
0.252941 0.494608 0.000000
0.288848 0.495090 0.000000
0.332062 0.498529 0.000000
0.377964 0.498529 0.000000
0.423039 0.495435 0.000000
0.459559 0.494447 0.000000
0.487730 0.488480 0.000000
0.517892 0.486765 0.036834
0.552941 0.488480 0.059681
0.584069 0.488480 0.057161
0.616912 0.486765 0.042877
0.650245 0.486765 0.012990
0.687010 0.482843 0.000000
0.722059 0.478922 0.000000
0.757108 0.476716 0.000000
0.792157 0.475000 0.000000
0.827206 0.471078 0.000000
0.864461 0.467157 0.000000
0.897304 0.462822 0.000000
0.933479 0.454266 0.000000
0.973315 0.433578 0.000000
1.000000 0.420098 0.000000
1.000000 0.412117 0.000000
1.000000 0.404412 0.000000
1.000000 0.396569 0.000000
0.058946 0.525735 0.000000
0.082173 0.525735 0.000000
0.101838 0.525735 0.000000
0.128676 0.525735 0.000000
0.155882 0.525735 0.000000
0.183088 0.525735 0.000000
0.210294 0.529657 0.000000
0.232598 0.529657 0.000000
0.256863 0.529657 0.000000
0.287990 0.533578 0.000000
0.326922 0.533578 0.000000
0.369750 0.533578 0.000000
0.415119 0.533578 0.000000
0.455993 0.529657 0.000000
0.492348 0.525735 0.000000
0.521691 0.521810 0.000000
0.549020 0.517892 0.032782
0.580147 0.517888 0.058820
0.613411 0.517892 0.058824
0.646212 0.517781 0.043627
0.677451 0.513971 0.012990
0.712377 0.510643 0.000000
0.747426 0.506127 0.000000
0.782475 0.503037 0.000000
0.817525 0.501134 0.000000
0.849843 0.498162 0.000000
0.883824 0.493528 0.000000
0.918750 0.487826 0.000000
0.953799 0.482598 0.000000
0.988848 0.472499 0.000000
1.000000 0.451103 0.000000
1.000000 0.437377 0.000000
1.000000 0.427696 0.000000
0.066667 0.560784 0.000000
0.088113 0.560784 0.000000
0.109314 0.560784 0.000000
0.131005 0.560784 0.000000
0.156373 0.560784 0.000000
0.185662 0.560784 0.000000
0.211029 0.560784 0.000000
0.237500 0.561336 0.000000
0.257843 0.564706 0.000000
0.284069 0.564706 0.000000
0.319118 0.564706 0.000000
0.360355 0.564706 0.000000
0.404167 0.564706 0.000000
0.447978 0.564706 0.000000
0.488725 0.560784 0.000000
0.521814 0.556863 0.000000
0.549020 0.549020 0.000000
0.576348 0.547059 0.021140
0.608456 0.547059 0.055760
0.640441 0.545098 0.054902
0.670833 0.545098 0.039706
0.702696 0.541176 0.011029
0.735784 0.538603 0.000000
0.770833 0.533762 0.000000
0.803922 0.529412 0.000000
0.838971 0.525490 0.000000
0.872059 0.521569 0.000000
0.905147 0.517647 0.000000
0.940196 0.513480 0.000000
0.973284 0.508640 0.000000
1.000000 0.501961 0.000000
1.000000 0.488113 0.000000
1.000000 0.466667 0.000000
0.066667 0.595833 0.000000
0.088113 0.595833 0.000000
0.105752 0.595833 0.000000
0.131005 0.594290 0.000000
0.156373 0.592034 0.000000
0.183088 0.592034 0.000000
0.211029 0.592034 0.000000
0.237500 0.592034 0.000000
0.261765 0.595833 0.000000
0.283211 0.595833 0.000000
0.312584 0.595956 0.000000
0.350264 0.595956 0.000000
0.391713 0.595879 0.000000
0.436041 0.595833 0.000000
0.478991 0.593696 0.000000
0.517892 0.588109 0.000000
0.549020 0.584069 0.000000
0.576225 0.576348 0.000000
0.603431 0.572426 0.005760
0.634570 0.572426 0.046814
0.665686 0.572304 0.047059
0.696814 0.569098 0.031863
0.727941 0.568382 0.005224
0.759191 0.564461 0.000000
0.794118 0.560539 0.000000
0.825368 0.556618 0.000000
0.860417 0.551984 0.000000
0.892850 0.546281 0.000000
0.926593 0.541054 0.000000
0.961642 0.538676 0.000000
0.996324 0.533088 0.000000
1.000000 0.529167 0.000000
1.000000 0.521324 0.000000
0.058824 0.625245 0.000000
0.081304 0.623039 0.000000
0.101608 0.623039 0.000000
0.126065 0.623039 0.000000
0.152237 0.623039 0.000000
0.179167 0.623039 0.000000
0.206786 0.623039 0.000000
0.235164 0.623039 0.000000
0.261336 0.623039 0.000000
0.283211 0.623522 0.000000
0.306173 0.625245 0.000000
0.340686 0.626961 0.000000
0.378186 0.625888 0.000000
0.418995 0.625245 0.000000
0.463725 0.623039 0.000000
0.504534 0.621255 0.000000
0.543382 0.615196 0.000000
0.576225 0.611275 0.000000
0.601716 0.603431 0.000000
0.629082 0.599510 0.000000
0.657200 0.597794 0.032506
0.688971 0.597794 0.035294
0.719562 0.595588 0.019562
0.749885 0.592149 0.000000
0.782353 0.589400 0.000000
0.815686 0.586029 0.000000
0.848529 0.579902 0.000000
0.881863 0.575980 0.000000
0.916636 0.572059 0.000000
0.949755 0.568137 0.000000
0.983088 0.564216 0.000000
1.000000 0.560294 0.000000
1.000000 0.556373 0.000000
0.043505 0.654167 0.000000
0.068873 0.654167 0.000000
0.090319 0.650613 0.000000
0.115686 0.650613 0.000000
0.144164 0.650613 0.000000
0.171565 0.650613 0.000000
0.202451 0.650613 0.000000
0.229657 0.650245 0.000000
0.256955 0.650245 0.000000
0.279370 0.650613 0.000000
0.300735 0.650613 0.000000
0.330082 0.654167 0.000000
0.365686 0.654167 0.000000
0.405025 0.654167 0.000000
0.446201 0.650613 0.000000
0.490809 0.650245 0.000000
0.531740 0.646324 0.000000
0.568394 0.642402 0.000000
0.599510 0.634559 0.000000
0.626716 0.627417 0.000000
0.652589 0.623162 0.000000
0.681495 0.623104 0.014943
0.712508 0.622794 0.019861
0.743463 0.619240 0.004779
0.774510 0.618873 0.000000
0.805741 0.615054 0.000000
0.837132 0.611029 0.000000
0.872181 0.607108 0.000000
0.906863 0.603186 0.000000
0.938358 0.599265 0.000000
0.973384 0.595343 0.000000
1.000000 0.591422 0.000000
1.000000 0.587500 0.000000
0.012745 0.679902 0.000000
0.044654 0.679902 0.000000
0.072702 0.679902 0.000000
0.102083 0.679902 0.000000
0.130882 0.677451 0.000000
0.162010 0.677451 0.000000
0.191146 0.677451 0.000000
0.221400 0.677451 0.000000
0.249632 0.677451 0.000000
0.275368 0.677451 0.000000
0.296814 0.677451 0.000000
0.320941 0.679902 0.000000
0.352451 0.679902 0.000000
0.387868 0.679902 0.000000
0.430392 0.677451 0.000000
0.473284 0.677405 0.000000
0.516176 0.674755 0.000000
0.556572 0.669684 0.000000
0.591667 0.665686 0.000000
0.623024 0.660432 0.000000
0.649449 0.653370 0.000000
0.677206 0.648759 0.000000
0.704412 0.646078 0.000766
0.738312 0.646615 0.002451
0.768505 0.646078 0.000000
0.797794 0.644608 0.000000
0.828922 0.642157 0.000000
0.863006 0.638235 0.000000
0.897243 0.634314 0.000000
0.930147 0.630392 0.000000
0.965196 0.626471 0.000000
0.997472 0.623698 0.000000
1.000000 0.622549 0.000000
0.000000 0.705270 0.000000
0.008824 0.705270 0.000000
0.043873 0.705270 0.000000
0.082230 0.704657 0.000000
0.113434 0.704657 0.000000
0.148407 0.704657 0.000000
0.179534 0.704657 0.000000
0.210489 0.701348 0.000000
0.241176 0.701348 0.000000
0.267659 0.701348 0.000000
0.292892 0.701348 0.000000
0.311546 0.704657 0.000000
0.340089 0.705040 0.000000
0.373897 0.705212 0.000000
0.412868 0.704657 0.000000
0.455760 0.704657 0.000000
0.498652 0.701348 0.000000
0.541422 0.700735 0.000000
0.580515 0.695366 0.000000
0.615564 0.689028 0.000000
0.646461 0.685049 0.000000
0.673897 0.677302 0.000000
0.700911 0.673897 0.000000
0.731618 0.673284 0.000000
0.762745 0.673284 0.000000
0.793873 0.673284 0.000000
0.825000 0.669975 0.000000
0.856127 0.669363 0.000000
0.887868 0.665977 0.000000
0.922917 0.665441 0.000000
0.957353 0.661520 0.000000
0.992402 0.657598 0.000000
1.000000 0.653676 0.000000
0.000000 0.730637 0.000000
0.000000 0.730637 0.000000
0.002528 0.730637 0.000000
0.049387 0.730637 0.000000
0.091912 0.730637 0.000000
0.130882 0.729710 0.000000
0.165931 0.727941 0.000000
0.197059 0.727941 0.000000
0.228493 0.727941 0.000000
0.258724 0.727941 0.000000
0.285049 0.727941 0.000000
0.306916 0.727941 0.000000
0.329626 0.730637 0.000000
0.360294 0.730637 0.000000
0.398085 0.730637 0.000000
0.438235 0.730637 0.000000
0.479167 0.727941 0.000000
0.523897 0.726716 0.000000
0.565395 0.724020 0.000000
0.605882 0.720098 0.000000
0.640931 0.715717 0.000000
0.673284 0.708946 0.000000
0.699265 0.704412 0.000000
0.727696 0.700490 0.000000
0.757843 0.699265 0.000000
0.789951 0.700490 0.000000
0.821078 0.700490 0.000000
0.852206 0.700490 0.000000
0.885692 0.700490 0.000000
0.918382 0.696569 0.000000
0.953431 0.696569 0.000000
0.988480 0.692647 0.000000
1.000000 0.689951 0.000000
0.000000 0.756005 0.000000
0.000000 0.756005 0.000000
0.000000 0.756005 0.000000
0.005250 0.755147 0.000000
0.062990 0.755147 0.000000
0.109436 0.755147 0.000000
0.148407 0.755147 0.000000
0.183456 0.755147 0.000000
0.217862 0.752083 0.000000
0.249445 0.752083 0.000000
0.277796 0.752083 0.000000
0.302708 0.752562 0.000000
0.324020 0.755147 0.000000
0.350532 0.756005 0.000000
0.383464 0.756005 0.000000
0.420711 0.756005 0.000000
0.461642 0.755147 0.000000
0.506373 0.755147 0.000000
0.549387 0.752083 0.000000
0.592199 0.748449 0.000000
0.631250 0.746155 0.000000
0.666299 0.740797 0.000000
0.699265 0.736129 0.000000
0.727696 0.731618 0.000000
0.754902 0.728554 0.000000
0.786029 0.727696 0.000000
0.821078 0.731618 0.000000
0.852206 0.731618 0.000000
0.883333 0.731618 0.000000
0.918382 0.731618 0.000000
0.949510 0.731618 0.000000
0.984559 0.731162 0.000000
1.000000 0.727696 0.000000
0.000000 0.781373 0.000000
0.000000 0.781373 0.000000
0.000000 0.781373 0.000000
0.000000 0.781373 0.000000
0.018750 0.781373 0.000000
0.084436 0.781373 0.000000
0.130147 0.781373 0.000000
0.169853 0.781373 0.000000
0.204902 0.778431 0.000000
0.239308 0.778431 0.000000
0.269056 0.778431 0.000000
0.297825 0.778431 0.000000
0.320098 0.781373 0.000000
0.341820 0.781373 0.000000
0.372059 0.782353 0.000000
0.407108 0.782353 0.000000
0.446569 0.782353 0.000000
0.488971 0.782353 0.000000
0.532292 0.781373 0.000000
0.575643 0.778431 0.000000
0.619118 0.776348 0.000000
0.660539 0.774510 0.000000
0.695588 0.770588 0.000000
0.727696 0.766667 0.000000
0.754902 0.762745 0.000000
0.786029 0.758824 0.000000
0.817157 0.758824 0.000000
0.852206 0.762408 0.000000
0.883333 0.765686 0.000000
0.918382 0.766667 0.000000
0.949510 0.766667 0.000000
0.984559 0.766667 0.000000
1.000000 0.766667 0.000000
0.000000 0.809559 0.000000
0.000000 0.809559 0.000000
0.000000 0.809559 0.000000
0.000000 0.808414 0.000000
0.000000 0.806740 0.000000
0.050735 0.806740 0.000000
0.108908 0.806740 0.000000
0.153431 0.806740 0.000000
0.191299 0.806740 0.000000
0.229167 0.806740 0.000000
0.260639 0.806740 0.000000
0.290981 0.806740 0.000000
0.316176 0.806740 0.000000
0.337623 0.809559 0.000000
0.363611 0.809559 0.000000
0.396358 0.810662 0.000000
0.433885 0.810662 0.000000
0.475245 0.810662 0.000000
0.517639 0.809559 0.000000
0.561152 0.809559 0.000000
0.605515 0.808502 0.000000
0.649314 0.805637 0.000000
0.689070 0.801716 0.000000
0.724016 0.801716 0.000000
0.758824 0.797794 0.000000
0.789158 0.793873 0.000000
0.819447 0.793873 0.000000
0.851482 0.793873 0.000000
0.887255 0.797794 0.000000
0.921201 0.801716 0.000000
0.953431 0.801716 0.000000
0.988480 0.801716 0.000000
1.000000 0.804534 0.000000
0.000000 0.836765 0.000000
0.000000 0.836765 0.000000
0.000000 0.836765 0.000000
0.000000 0.836765 0.000000
0.000000 0.836765 0.000000
0.009674 0.836765 0.000000
0.087117 0.836029 0.000000
0.138932 0.836029 0.000000
0.181618 0.836029 0.000000
0.220588 0.836029 0.000000
0.252451 0.836029 0.000000
0.286267 0.836029 0.000000
0.314706 0.836765 0.000000
0.337623 0.836765 0.000000
0.359069 0.838557 0.000000
0.388480 0.839974 0.000000
0.423529 0.840686 0.000000
0.462477 0.840686 0.000000
0.504979 0.840686 0.000000
