darkroom/assets/luts/slide-standard.cube
TITLE "Standard slide"
# Preset LUT for Lolly Bitmap Studio.
# Derived from sguyader/FilmSim "Provia_Std" (CC0 1.0, https://github.com/sguyader/FilmSim),
# resampled from the 144³ HaldCLUT to a 33³ .cube. Public domain - see NOTICE.md.
LUT_3D_SIZE 5
DOMAIN_MIN 0.0 0.0 0.0
DOMAIN_MAX 1.0 1.0 1.0
0.000000 0.000000 0.000000
0.162745 0.027451 0.000000
0.503922 0.062745 0.000000
0.817647 0.185294 0.000000
1.000000 0.247059 0.000000
0.000000 0.209804 0.000000
0.213725 0.224510 0.000000
0.478431 0.249020 0.000000
0.794118 0.325245 0.000000
1.000000 0.351961 0.000000
0.027451 0.484314 0.000000
0.233333 0.468627 0.000000
0.489216 0.504902 0.004902
0.727451 0.494608 0.000000
0.972549 0.511765 0.000000
0.000000 0.711765 0.000000
0.202696 0.688235 0.000000
0.505392 0.732353 0.000000
0.730392 0.753922 0.000000
0.968627 0.758824 0.011765
0.000000 0.945098 0.000000
0.182353 0.918627 0.000000
0.419608 0.898039 0.000000
0.774510 1.000000 0.000000
0.984314 1.000000 0.043137
0.034314 0.000000 0.121569
0.213725 0.000000 0.230147
0.469118 0.025490 0.247549
0.747059 0.147059 0.258578
1.000000 0.210784 0.260784
0.000000 0.236275 0.235539
0.223039 0.222304 0.222304
0.525490 0.235784 0.217647
0.813542 0.278799 0.217647
1.000000 0.312010 0.194118
0.000000 0.503922 0.205882
0.234314 0.501593 0.201593
0.484314 0.497059 0.245098
0.754534 0.446569 0.186642
1.000000 0.543137 0.243137
0.000000 0.747059 0.150000
0.234314 0.737684 0.132966
0.452941 0.695588 0.000000
0.727451 0.750000 0.245098
0.965686 0.750980 0.226471
0.094118 0.995098 0.014706
0.246078 0.976471 0.000000
0.419608 0.913235 0.000000
0.785294 1.000000 0.024265
0.984314 1.000000 0.260784
0.000000 0.000000 0.525490
0.225490 0.000000 0.535294
0.514706 0.000000 0.539216
0.766667 0.165686 0.560784
0.994118 0.178431 0.525490
0.000000 0.251961 0.546569
0.248039 0.260662 0.572549
0.529167 0.261765 0.548039
0.754902 0.297794 0.545221
0.982843 0.282843 0.496078
0.099020 0.528431 0.527451
0.276471 0.521814 0.521569
0.494118 0.495098 0.495098
0.785049 0.476471 0.461520
1.000000 0.477451 0.439216
0.000000 0.750980 0.444608
0.000000 0.750980 0.437132
0.470588 0.747059 0.443137
0.730392 0.743137 0.490564
0.974020 0.716667 0.457353
0.000000 1.000000 0.415686
0.141667 1.000000 0.415686
0.485294 1.000000 0.413725
0.694608 0.945098 0.296569
0.988235 1.000000 0.505882
0.000000 0.000000 0.825490
0.253676 0.000000 0.837255
0.517647 0.025490 0.841176
0.789216 0.054902 0.821569
1.000000 0.178431 0.816667
0.000000 0.268627 0.860784
0.260049 0.272549 0.866360
0.537255 0.276471 0.856863
0.781618 0.260784 0.812745
1.000000 0.311765 0.805147
0.000000 0.509314 0.775980
0.194975 0.505392 0.784314
0.508824 0.519363 0.834069
0.766667 0.503799 0.787010
0.988235 0.523529 0.781863
0.149265 0.773529 0.770588
0.295711 0.770588 0.770404
0.519240 0.762745 0.762745
0.743689 0.743873 0.743873
1.000000 0.714706 0.700735
0.000000 1.000000 0.707843
0.000000 1.000000 0.704902
0.365196 1.000000 0.700000
0.735294 1.000000 0.708578
0.992157 1.000000 0.754902
0.152941 0.074510 1.000000
0.315686 0.094118 1.000000
0.543137 0.156863 1.000000
0.738235 0.149020 1.000000
1.000000 0.027451 1.000000
0.197059 0.288235 1.000000
0.333088 0.293137 1.000000
0.545588 0.300980 1.000000
0.734314 0.285294 1.000000
0.996078 0.242157 1.000000
0.000000 0.515686 1.000000
0.201471 0.511765 1.000000
0.494118 0.502941 1.000000
0.734804 0.490686 1.000000
0.988235 0.482353 1.000000
0.230392 0.770588 1.000000
0.309559 0.762745 1.000000
0.462255 0.728431 0.988235
0.714951 0.723529 1.000000
0.984314 0.731373 1.000000
0.305882 1.000000 1.000000
0.434314 1.000000 1.000000
0.617647 1.000000 1.000000
0.832353 1.000000 1.000000
1.000000 1.000000 1.000000
