darkroom/assets/luts/slide-vivid.cube
TITLE "Vivid slide"
# Preset LUT for Lolly Bitmap Studio.
# Derived from sguyader/FilmSim "Velvia_Vivid_v2" (CC0 1.0, https://github.com/sguyader/FilmSim),
# resampled from the 144³ HaldCLUT to a 33³ .cube. Public domain — see NOTICE.md.
LUT_3D_SIZE 9
DOMAIN_MIN 0.0 0.0 0.0
DOMAIN_MAX 1.0 1.0 1.0
0.000000 0.000000 0.000000
0.011275 0.000000 0.000000
0.115686 0.019608 0.000000
0.276471 0.048529 0.000000
0.509804 0.033333 0.000000
0.706373 0.126961 0.000000
0.864706 0.185294 0.000000
1.000000 0.216176 0.000000
1.000000 0.227451 0.000000
0.000000 0.038235 0.000000
0.053493 0.050429 0.000000
0.154412 0.074020 0.000000
0.312929 0.081679 0.000000
0.531373 0.115196 0.000000
0.712745 0.189216 0.000000
0.864706 0.232230 0.000000
0.996569 0.254473 0.000000
1.000000 0.262255 0.000000
0.010784 0.194118 0.000000
0.083456 0.200980 0.000000
0.217647 0.220588 0.000000
0.375368 0.244118 0.000000
0.558824 0.260784 0.000000
0.728431 0.252941 0.000000
0.872549 0.269853 0.000000
0.993137 0.302328 0.000000
1.000000 0.316667 0.000000
0.000000 0.403431 0.000000
0.123039 0.403431 0.000000
0.246936 0.412745 0.000000
0.415196 0.415196 0.000000
0.552941 0.420588 0.025735
0.704902 0.416667 0.000000
0.858333 0.394608 0.000000
0.992831 0.361765 0.000000
1.000000 0.343627 0.000000
0.066667 0.560784 0.000000
0.156373 0.560784 0.000000
0.257843 0.564706 0.000000
0.404167 0.564706 0.000000
0.549020 0.549020 0.000000
0.670833 0.545098 0.039706
0.803922 0.529412 0.000000
0.940196 0.513480 0.000000
1.000000 0.466667 0.000000
0.012745 0.679902 0.000000
0.130882 0.677451 0.000000
0.249632 0.677451 0.000000
0.352451 0.679902 0.000000
0.516176 0.674755 0.000000
0.649449 0.653370 0.000000
0.768505 0.646078 0.000000
0.897243 0.634314 0.000000
1.000000 0.622549 0.000000
0.000000 0.781373 0.000000
0.018750 0.781373 0.000000
0.204902 0.778431 0.000000
0.320098 0.781373 0.000000
0.446569 0.782353 0.000000
0.619118 0.776348 0.000000
0.754902 0.762745 0.000000
0.883333 0.765686 0.000000
1.000000 0.766667 0.000000
0.000000 0.899020 0.000000
0.000000 0.899020 0.000000
0.165686 0.899020 0.000000
0.310968 0.899020 0.000000
0.415686 0.902941 0.000000
0.572855 0.906863 0.000000
0.751961 0.906863 0.000000
0.899020 0.903002 0.000000
1.000000 0.914706 0.059314
0.000000 1.000000 0.000000
0.000000 1.000000 0.000000
0.178431 1.000000 0.000000
0.330392 1.000000 0.000000
0.445098 1.000000 0.000000
0.555882 1.000000 0.000000
0.782353 1.000000 0.000000
0.946569 1.000000 0.083333
1.000000 1.000000 0.482353
0.000000 0.000000 0.035294
0.030882 0.000000 0.027390
0.150613 0.000000 0.057353
0.273039 0.000000 0.015380
0.512255 0.000000 0.012010
0.704902 0.028125 0.003431
0.864706 0.134804 0.000000
1.000000 0.176961 0.000000
1.000000 0.192647 0.000000
0.000000 0.061765 0.061765
0.051180 0.050429 0.050375
0.189706 0.039108 0.005040
0.349655 0.026578 0.000000
0.531127 0.089675 0.003431
0.710294 0.158150 0.000000
0.864706 0.204672 0.000000
0.996569 0.227505 0.000000
1.000000 0.235723 0.000000
0.000000 0.198039 0.018137
0.038021 0.200980 0.012975
0.212010 0.214001 0.054565
0.373162 0.232353 0.079994
0.560294 0.224081 0.027635
0.724648 0.238373 0.000000
0.867004 0.278431 0.000000
0.989216 0.300980 0.000000
1.000000 0.304902 0.000000
0.000000 0.395588 0.025490
0.099510 0.397365 0.005147
0.225398 0.408456 0.000000
0.406013 0.407537 0.094187
0.545833 0.412745 0.136857
0.702451 0.408824 0.073828
0.860784 0.373208 0.000000
0.990502 0.350161 0.000000
1.000000 0.339706 0.000000
0.012500 0.556863 0.000000
0.133272 0.556863 0.000000
0.252941 0.556863 0.000000
0.386765 0.560784 0.000000
0.543137 0.545098 0.069240
0.665686 0.538572 0.143627
0.801961 0.525000 0.067831
0.940196 0.505882 0.000000
1.000000 0.454902 0.000000
0.000000 0.675980 0.000000
0.103922 0.675980 0.000000
0.236366 0.673529 0.000000
0.340686 0.675980 0.000000
0.504412 0.672059 0.000000
0.645596 0.649517 0.000804
0.764583 0.642157 0.119654
0.895098 0.630392 0.015602
1.000000 0.618627 0.000000
0.000000 0.778431 0.000000
0.000000 0.778431 0.000000
0.190349 0.777451 0.000000
0.316176 0.777528 0.000000
0.436949 0.781373 0.000000
0.611351 0.774510 0.000000
0.754902 0.758824 0.000000
0.883333 0.762745 0.109804
1.000000 0.762868 0.022059
0.000000 0.895098 0.000000
0.000000 0.895098 0.000000
0.150000 0.897779 0.000000
0.306863 0.899020 0.000000
0.409835 0.902941 0.000000
0.565035 0.906863 0.000000
0.747932 0.906863 0.000000
0.899020 0.902941 0.000000
1.000000 0.914706 0.152451
0.000000 1.000000 0.000000
0.000000 1.000000 0.000000
0.165686 1.000000 0.000000
0.322549 1.000000 0.000000
0.443137 1.000000 0.000000
0.551961 1.000000 0.000000
0.774510 1.000000 0.000000
0.950000 1.000000 0.212806
1.000000 1.000000 0.498039
0.025490 0.000000 0.069608
0.088725 0.000000 0.130882
0.197304 0.000000 0.201961
0.313725 0.000000 0.199877
0.470588 0.000000 0.226961
0.658211 0.000000 0.211765
0.826471 0.173529 0.229167
1.000000 0.071324 0.158946
1.000000 0.026471 0.086275
0.000000 0.030882 0.222549
0.046247 0.057031 0.257338
0.217555 0.034804 0.222212
0.325490 0.068091 0.207491
0.488664 0.068873 0.210539
0.671078 0.138496 0.212653
0.849510 0.191391 0.205484
1.000000 0.133333 0.134191
1.000000 0.143505 0.067157
0.000000 0.215931 0.220588
0.088235 0.213725 0.217433
0.204289 0.203370 0.203922
0.372917 0.218474 0.205147
0.553431 0.230882 0.194240
0.720588 0.241452 0.172702
0.863358 0.257843 0.146814
0.989124 0.265686 0.103799
1.000000 0.265686 0.023529
0.000000 0.397059 0.220588
0.000000 0.395588 0.208287
0.224755 0.389828 0.204902
0.393137 0.395588 0.230162
0.541912 0.397059 0.248039
0.716146 0.370481 0.187255
0.862255 0.342892 0.147059
0.985294 0.336933 0.099510
1.000000 0.350858 0.000000
0.000000 0.552941 0.199020
0.000429 0.551225 0.193627
0.236520 0.545098 0.176471
0.353493 0.551471 0.001654
0.531863 0.534559 0.217892
0.656373 0.527206 0.254657
0.800000 0.510539 0.202941
0.945650 0.484191 0.102696
1.000000 0.431373 0.000000
0.000000 0.672059 0.130760
0.000000 0.669608 0.122595
0.214338 0.665686 0.089093
0.331081 0.665686 0.000000
0.478370 0.664400 0.000000
0.637822 0.642157 0.171890
0.757629 0.634314 0.240717
0.891176 0.622549 0.191176
1.000000 0.606863 0.105882
0.000000 0.774510 0.000000
0.000000 0.774510 0.000000
0.164767 0.773529 0.000000
0.306863 0.770588 0.000000
0.415686 0.774510 0.000000
0.594485 0.770588 0.000000
0.750061 0.754902 0.110417
0.879412 0.758824 0.238879
1.000000 0.758824 0.202941
0.000000 0.894608 0.000000
0.000000 0.892034 0.000000
0.111336 0.895098 0.000000
0.291176 0.895098 0.000000
0.405882 0.899020 0.000000
0.548131 0.905254 0.000000
0.736183 0.906219 0.000000
0.895588 0.902941 0.081066
1.000000 0.914706 0.272549
0.000000 1.000000 0.000000
0.000000 1.000000 0.000000
0.127206 1.000000 0.000000
0.306863 1.000000 0.000000
0.439216 1.000000 0.000000
0.540196 1.000000 0.000000
0.763725 1.000000 0.000000
0.945588 1.000000 0.263358
1.000000 1.000000 0.533333
0.069608 0.000000 0.260294
0.039828 0.000000 0.420159
0.220588 0.000000 0.424020
0.373529 0.000000 0.381373
0.529657 0.000000 0.401225
0.660294 0.102451 0.413664
0.810172 0.147181 0.418137
0.959314 0.118321 0.370098
1.000000 0.164216 0.324020
0.000000 0.029902 0.443137
0.000000 0.035294 0.446752
0.238863 0.000000 0.453079
0.392356 0.006863 0.396875
0.528431 0.112010 0.398775
0.661765 0.178791 0.413664
0.815196 0.182261 0.401563
0.965686 0.151248 0.347059
1.000000 0.234988 0.330086
0.000000 0.201471 0.357353
0.000000 0.186443 0.352711
0.251225 0.240656 0.453676
0.424142 0.239507 0.427650
0.525490 0.258824 0.397059
0.671768 0.266896 0.397166
0.832721 0.237040 0.351256
0.950536 0.293137 0.342157
1.000000 0.289706 0.299877
0.082414 0.414277 0.420588
0.165748 0.410355 0.416667
0.275368 0.400567 0.403799
0.378738 0.378738 0.378163
0.544792 0.382690 0.369608
0.694975 0.381962 0.350268
0.849571 0.362684 0.305469
0.978738 0.342157 0.258027
1.000000 0.327941 0.212745
0.000000 0.554902 0.381863
0.000000 0.552941 0.374020
0.116422 0.545098 0.354412
0.357384 0.528646 0.337776
0.517647 0.519975 0.351961
0.653156 0.509804 0.363725
0.816667 0.481066 0.297549
0.964798 0.429902 0.247549
1.000000 0.405882 0.204902
0.000000 0.676900 0.300551
0.000000 0.671140 0.305216
0.087270 0.660662 0.301471
0.328899 0.650000 0.281863
0.443627 0.653462 0.146569
0.626471 0.630737 0.312316
0.749923 0.623238 0.355469
0.892823 0.608150 0.311765
1.000000 0.585723 0.234375
0.000000 0.773529 0.243137
0.000000 0.770588 0.241131
0.007445 0.766667 0.231556
0.293796 0.762745 0.207705
0.405882 0.765870 0.024203
0.568137 0.762745 0.000000
0.743137 0.748621 0.277941
0.875260 0.751164 0.362086
1.000000 0.751348 0.331373
0.000000 0.891176 0.163542
0.000000 0.891176 0.161788
0.000000 0.890870 0.149112
0.274571 0.890372 0.110424
0.410049 0.895098 0.000000
0.524318 0.902941 0.000000
0.717953 0.902941 0.000000
0.895098 0.899510 0.275061
1.000000 0.911275 0.394914
0.000000 1.000000 0.054412
0.000000 1.000000 0.042953
0.012500 1.000000 0.015319
0.288174 1.000000 0.000000
0.431373 1.000000 0.000000
0.532353 1.000000 0.000000
0.747059 1.000000 0.000000
0.934007 1.000000 0.336765
1.000000 1.000000 0.586765
0.000000 0.000000 0.643137
0.000000 0.000000 0.641176
0.232353 0.000000 0.641176
0.402941 0.000000 0.588480
0.569608 0.000000 0.574510
0.749265 0.051471 0.608333
0.830882 0.140196 0.576471
0.938235 0.201961 0.568627
1.000000 0.180392 0.535294
0.000000 0.000000 0.637255
0.000000 0.000000 0.645098
0.251042 0.000000 0.658150
0.421569 0.000000 0.623438
0.580270 0.016544 0.584069
0.744056 0.164553 0.604412
0.825061 0.202451 0.569118
0.936244 0.236979 0.560999
1.000000 0.205637 0.521814
0.000000 0.173529 0.558333
0.000000 0.193566 0.603493
0.260172 0.241054 0.661520
0.457353 0.225980 0.676164
0.592157 0.236029 0.596078
0.716176 0.285723 0.578676
0.808211 0.302941 0.556863
0.930392 0.298591 0.540074
1.000000 0.248039 0.484804
0.115686 0.417157 0.571814
0.173131 0.411428 0.568627
0.235294 0.378922 0.548039
0.424050 0.410907 0.625276
0.582721 0.396078 0.585049
0.669608 0.397059 0.537990
0.794424 0.392341 0.525919
0.940196 0.346078 0.474418
1.000000 0.342647 0.433333
0.141176 0.560784 0.568627
0.202451 0.556863 0.564706
0.300000 0.545588 0.552941
0.404289 0.528186 0.532721
0.501961 0.502451 0.501961
0.657843 0.495098 0.484926
0.793137 0.486029 0.458333
0.931495 0.468260 0.418260
1.000000 0.433333 0.362745
0.000000 0.669608 0.506373
0.000000 0.665839 0.500000
0.000000 0.660294 0.486213
0.245588 0.647763 0.459314
0.456740 0.629657 0.438113
0.614706 0.617892 0.449142
0.749510 0.608333 0.464645
0.910631 0.578830 0.399020
1.000000 0.521324 0.345098
0.000000 0.777451 0.419608
0.000000 0.774510 0.412745
0.000000 0.770588 0.397426
0.190380 0.758824 0.398100
0.421078 0.750245 0.380637
0.536765 0.754902 0.257598
0.735294 0.741176 0.418137
0.871569 0.744301 0.479167
1.000000 0.739216 0.444608
0.000000 0.891176 0.360784
0.000000 0.891176 0.360539
0.000000 0.887255 0.356618
0.171078 0.887255 0.350735
0.408824 0.885539 0.336029
0.518045 0.895098 0.213725
0.695282 0.899020 0.038787
0.891667 0.899020 0.423315
1.000000 0.910784 0.518137
0.000000 1.000000 0.331373
0.000000 1.000000 0.329412
0.000000 1.000000 0.327451
0.205882 1.000000 0.322304
0.424510 1.000000 0.303922
0.551225 1.000000 0.191667
0.723529 1.000000 0.197059
0.918627 1.000000 0.431863
1.000000 1.000000 0.652941
0.000000 0.000000 0.831863
0.000000 0.000000 0.835784
0.253064 0.000000 0.847549
0.445588 0.000000 0.837255
0.592157 0.000000 0.763971
0.744118 0.000000 0.748039
0.903922 0.051838 0.759804
0.970895 0.144118 0.712745
1.000000 0.194608 0.693137
0.000000 0.000000 0.839706
0.000000 0.000000 0.847549
0.270726 0.000000 0.860922
0.464530 0.000000 0.863044
0.600643 0.000000 0.781373
0.745588 0.016100 0.748039
0.899066 0.157966 0.755882
0.965219 0.199816 0.706189
1.000000 0.237255 0.685294
0.000000 0.195221 0.828922
0.000000 0.204672 0.844485
0.276317 0.239461 0.866330
0.471798 0.241667 0.875000
0.616238 0.154779 0.822304
0.743428 0.222258 0.745420
0.880882 0.280637 0.739583
0.946170 0.292770 0.689537
1.000000 0.312745 0.669608
0.000000 0.346140 0.685294
0.000000 0.342333 0.695780
0.163128 0.362255 0.761642
0.431778 0.405821 0.827711
0.608854 0.376440 0.833058
0.726210 0.368689 0.730132
0.839292 0.398989 0.699709
0.914997 0.396369 0.663051
1.000000 0.388235 0.642708
0.198529 0.560784 0.711520
0.240686 0.557108 0.709559
0.317157 0.549020 0.702022
0.376716 0.514951 0.683333
0.534681 0.522549 0.733824
0.686795 0.501961 0.689951
0.769914 0.498039 0.639890
0.885784 0.489216 0.624203
1.000000 0.439461 0.573775
0.140257 0.669608 0.679902
0.196929 0.665686 0.675980
0.291468 0.657843 0.666299
0.397633 0.644608 0.650919
0.502727 0.625735 0.629657
0.601777 0.599939 0.600283
0.754350 0.592325 0.581250
0.888105 0.580944 0.554963
1.000000 0.569730 0.525980
0.000000 0.770588 0.617034
0.000000 0.769608 0.613189
0.000000 0.765686 0.603431
0.114767 0.758073 0.585294
0.354167 0.747059 0.560294
0.559574 0.735294 0.543505
0.727604 0.731832 0.561795
0.871936 0.732307 0.588634
1.000000 0.707353 0.528922
0.000000 0.891176 0.545404
0.000000 0.891176 0.543972
0.000000 0.891176 0.533333
0.000000 0.887630 0.517647
0.326471 0.883333 0.519210
0.548958 0.883333 0.510294
0.670144 0.895098 0.399525
0.891176 0.895136 0.567708
1.000000 0.906863 0.641176
0.000000 1.000000 0.488235
0.000000 1.000000 0.484314
0.000000 1.000000 0.487377
0.000000 1.000000 0.503370
0.346078 1.000000 0.500980
0.560723 1.000000 0.490686
0.716176 1.000000 0.474510
0.899020 1.000000 0.551961
1.000000 1.000000 0.728431
0.000000 0.000000 1.000000
0.000000 0.000000 1.000000
0.291176 0.000000 1.000000
0.482230 0.000000 1.000000
0.628431 0.000000 1.000000
0.751961 0.000000 0.918137
0.883333 0.000000 0.884314
1.000000 0.000000 0.879412
1.000000 0.107843 0.834314
0.000000 0.000000 1.000000
0.026394 0.000000 1.000000
0.302941 0.000000 1.000000
0.487868 0.000000 1.000000
0.635294 0.000000 1.000000
0.751961 0.000000 0.922917
0.880178 0.000000 0.881403
1.000000 0.098912 0.875490
1.000000 0.171078 0.829412
0.000000 0.197059 1.000000
0.000000 0.205760 1.000000
0.299265 0.228983 1.000000
0.482506 0.230913 1.000000
0.642034 0.184804 1.000000
0.751961 0.125582 0.933333
0.869363 0.189951 0.872733
1.000000 0.241422 0.861428
1.000000 0.267892 0.813725
0.000000 0.343627 0.941299
0.000000 0.353922 0.960692
0.166881 0.363235 0.998162
0.436275 0.396140 1.000000
0.606618 0.385110 1.000000
0.744347 0.299801 0.953692
0.850123 0.333854 0.854504
0.974586 0.372549 0.835156
1.000000 0.374632 0.786642
0.000000 0.519608 0.846078
0.008272 0.507047 0.835049
0.170588 0.490074 0.827819
0.315012 0.482843 0.866483
0.536029 0.513235 0.925980
0.706556 0.477635 0.930086
0.819118 0.465686 0.823039
0.929350 0.491973 0.792647
1.000000 0.485784 0.756863
0.226838 0.665319 0.812255
0.261642 0.661765 0.809804
0.328922 0.656373 0.804412
0.414292 0.645159 0.793015
0.478983 0.613235 0.778431
0.628922 0.616238 0.821768
0.780147 0.598192 0.782353
0.870190 0.598974 0.739752
0.985417 0.594608 0.728064
0.112990 0.769608 0.781373
0.178554 0.766667 0.778431
0.276103 0.762561 0.773775
0.386765 0.754902 0.763572
0.499632 0.744240 0.750980
0.611397 0.734099 0.737837
0.721078 0.720343 0.720343
0.875490 0.711673 0.703462
1.000000 0.703186 0.680392
0.000000 0.891176 0.747549
0.000000 0.891176 0.743627
0.000000 0.891176 0.739706
0.001072 0.887255 0.727941
0.305760 0.883824 0.712500
0.495328 0.883333 0.692999
0.707108 0.883425 0.689216
0.891176 0.891988 0.722243
1.000000 0.899510 0.754534
0.000000 1.000000 0.700980
0.000000 1.000000 0.700980
0.000000 1.000000 0.693137
0.000000 1.000000 0.685294
0.095588 1.000000 0.671569
0.493627 1.000000 0.675368
0.758824 1.000000 0.723529
0.885907 1.000000 0.712623
1.000000 1.000000 0.820588
0.250490 0.000000 1.000000
0.319179 0.000000 1.000000
0.442647 0.000000 1.000000
0.580208 0.000000 1.000000
0.693137 0.000000 1.000000
0.771875 0.000000 1.000000
0.876471 0.000000 1.000000
0.992218 0.000000 0.993137
1.000000 0.000000 0.977451
0.277022 0.000000 1.000000
0.339216 0.000000 1.000000
0.451731 0.000000 1.000000
0.582575 0.000000 1.000000
0.700950 0.000000 1.000000
0.771569 0.000000 1.000000
0.872549 0.000000 1.000000
0.985669 0.000000 0.989216
1.000000 0.000000 0.973100
0.260172 0.172181 1.000000
0.328431 0.180882 1.000000
0.439798 0.195588 1.000000
0.563863 0.192647 1.000000
0.685600 0.162255 1.000000
0.766988 0.000000 1.000000
0.865441 0.056526 1.000000
0.977068 0.129412 0.980990
1.000000 0.175613 0.961765
0.000000 0.347365 1.000000
0.033119 0.350000 1.000000
0.310172 0.356817 1.000000
0.479902 0.376961 1.000000
0.618781 0.368474 1.000000
0.749701 0.314400 1.000000
0.851961 0.259804 1.000000
0.957514 0.290686 0.961765
1.000000 0.325490 0.943444
0.000000 0.458578 0.989461
0.000000 0.454902 0.998284
0.000000 0.464706 1.000000
0.290196 0.472549 1.000000
0.532353 0.497794 1.000000
0.692463 0.480882 1.000000
0.830882 0.399081 1.000000
0.930147 0.423529 0.936244
1.000000 0.461765 0.920588
0.051961 0.651287 0.964216
0.119263 0.645611 0.960294
0.207001 0.627221 0.947672
0.298721 0.593336 0.923353
0.413971 0.574020 0.945496
0.621561 0.600360 0.998713
0.788358 0.563894 1.000000
0.905086 0.559337 0.910332
1.000000 0.598529 0.895404
0.226961 0.761765 0.909436
0.262623 0.758824 0.906863
0.332353 0.754902 0.902175
0.421691 0.750904 0.895098
0.514032 0.742892 0.887255
0.583502 0.715028 0.878033
0.739124 0.727451 0.929534
0.895098 0.716866 0.899020
1.000000 0.735294 0.875490
0.133333 0.887255 0.899020
0.191238 0.886765 0.899020
0.285662 0.883333 0.899020
0.398568 0.883333 0.895098
0.517433 0.882904 0.891391
0.638703 0.883333 0.891016
0.763235 0.883824 0.887745
0.890801 0.890801 0.890801
1.000000 0.875061 0.864216
0.000000 1.000000 0.902941
0.000000 1.000000 0.899510
0.000000 1.000000 0.899510
0.014277 1.000000 0.893137
0.314461 1.000000 0.883824
0.521569 1.000000 0.875980
0.739216 1.000000 0.878554
0.902941 1.000000 0.891176
1.000000 1.000000 0.906863
0.474510 0.000000 1.000000
0.505392 0.000000 1.000000
0.571569 0.000000 1.000000
0.659804 0.000000 1.000000
0.715686 0.000000 1.000000
0.805392 0.000000 1.000000
0.851961 0.000000 1.000000
0.937745 0.000000 1.000000
1.000000 0.000000 1.000000
0.486275 0.000000 1.000000
0.513725 0.000000 1.000000
0.575490 0.000000 1.000000
0.625980 0.000000 1.000000
0.717647 0.000000 1.000000
0.809314 0.000000 1.000000
0.849020 0.000000 1.000000
0.933824 0.011765 1.000000
1.000000 0.000000 1.000000
0.482353 0.181373 1.000000
0.509314 0.189216 1.000000
0.533333 0.229412 1.000000
0.614216 0.237255 1.000000
0.700980 0.233333 1.000000
0.781863 0.211642 1.000000
0.848039 0.022549 1.000000
0.941789 0.088235 1.000000
1.000000 0.142157 1.000000
0.400490 0.339706 1.000000
0.433824 0.342157 1.000000
0.499632 0.351103 1.000000
0.560784 0.380453 1.000000
0.673529 0.366667 1.000000
0.775490 0.342157 1.000000
0.847059 0.248652 1.000000
0.927757 0.252451 1.000000
1.000000 0.236275 1.000000
0.000000 0.452941 1.000000
0.000000 0.454902 1.000000
0.269608 0.452941 1.000000
0.446078 0.464706 1.000000
0.603922 0.478431 1.000000
0.718627 0.466667 1.000000
0.834314 0.415686 1.000000
0.922059 0.353186 1.000000
1.000000 0.380392 1.000000
0.000000 0.575490 1.000000
0.000000 0.572855 1.000000
0.000000 0.563725 1.000000
0.136458 0.551961 1.000000
0.393382 0.555882 1.000000
0.620527 0.577941 1.000000
0.769118 0.562745 1.000000
0.901164 0.485294 1.000000
1.000000 0.516667 1.000000
0.222549 0.747059 1.000000
0.248652 0.743505 1.000000
0.300000 0.739216 1.000000
0.324020 0.721691 1.000000
0.403922 0.686765 1.000000
0.506985 0.660784 1.000000
0.718873 0.696078 1.000000
0.878554 0.661275 1.000000
1.000000 0.669608 1.000000
0.254412 0.875490 1.000000
0.285784 0.875490 1.000000
0.351961 0.872426 1.000000
0.441973 0.871569 1.000000
0.545343 0.871569 1.000000
0.646875 0.871569 1.000000
0.720588 0.849387 1.000000
0.879473 0.867708 1.000000
1.000000 0.868137 1.000000
0.517647 1.000000 1.000000
0.532843 1.000000 1.000000
0.587255 1.000000 1.000000
0.650980 0.998529 1.000000
0.723529 1.000000 1.000000
0.812255 1.000000 1.000000
0.894118 1.000000 1.000000
0.953431 1.000000 1.000000
1.000000 1.000000 1.000000
