darkroom/assets/luts/suse7-slog3-heavy.cube
TITLE "SUSE7 S-Log3 (Heavy)"
# Preset LUT for Lolly — a Sony S-Log3 "heavy" colour grade.
# Created by Peter Chamalian (Director of Photography & Editor), SUSE, September 2025.
# © 2025 SUSE. Licensed CC BY 4.0 — https://creativecommons.org/licenses/by/4.0/
# Attribution required: credit "SUSE · Peter Chamalian". See NOTICE.md.
# Built for Sony S-Log3 footage. Authored in DaVinci Resolve; 65³ Adobe/IRIDAS .cube.
LUT_3D_SIZE 5
0 0.00440986 0
0.148104 0 0
0.67631 0 0
0.999023 0 0
1 0 0
0 0.127672 0
0.124651 0.131472 0
0.722194 0.0520943 0
1 0.070985 0
1 0.174044 0
0 0.603677 0
0 0.655497 0
0.602243 0.609873 0
0.972869 0.645808 0
1 0.730327 0
0 1 0
0 1 0
0.642512 0.985824 0
0.945754 0.957702 0
1 0.970077 0
0 1 0
0 1 0
0.721248 1 0
0.961715 1 0
1 1 0
0 0.0295567 0.158556
0.155917 0 0.141146
0.657679 0 0.0250553
1 0 0
1 0 0
0 0.127428 0.11194
0.138949 0.147127 0.128832
0.770642 0.0783703 0.0677348
1 0.112139 0.0999161
1 0.211002 0.194308
0 0.657252 0
0 0.760113 0
0.646876 0.655421 0
1 0.685466 0.0208286
1 0.754665 0.0790875
0 1 0
0 1 0
0.65127 0.996094 0.0966659
0.949142 0.961135 0
1 0.968261 0
0 1 0.0305028
0 1 0.0113375
0.70663 1 0.148119
0.952651 1 0.0208133
1 1 0
0 0.280583 0.697749
0.125902 0.29456 0.638682
0.673411 0 0.639597
1 0 0.569619
1 0 0.597009
0 0.303822 0.733959
0.148425 0.383093 0.788281
0.813611 0.139742 0.776532
1 0.07776 0.790295
1 0.172839 0.885328
0 0.628489 0.603632
0 0.743877 0.717266
0.628656 0.649256 0.618189
1 0.662303 0.629435
1 0.720455 0.684688
0 1 0.661067
0 1 0.72549
0.431434 1 0.520485
0.913436 0.925933 0.546273
0.997253 0.928923 0.56025
0 1 0.848539
0 1 0.810086
0.454475 1 0.552605
0.903944 1 0.571939
0.980774 0.994171 0.549142
0.0329442 0.473686 1
0.181064 0.482338 1
0.642832 0.283284 1
1 0 0.992645
1 0 1
0 0.491402 1
0.210178 0.551217 1
0.793011 0.424842 1
1 0.240101 1
1 0.185367 1
0 0.675044 0.998535
0 0.798199 1
0.592935 0.736706 0.962737
1 0.658305 1
1 0.702449 1
0 1 1
0 1 1
0.206989 1 0.960616
0.885618 0.910857 0.868086
0.993088 0.906645 0.862181
0 1 1
0 1 1
0.26511 1 0.943771
0.853468 0.990906 0.84271
0.958526 0.974746 0.835355
0.0762493 0.527687 1
0.206821 0.534386 1
0.646876 0.349828 1
1 0.0491798 1
1 0 1
0.0199435 0.544747 1
0.239765 0.605005 1
0.822461 0.487861 1
1 0.366247 1
1 0.338613 1
0 0.724254 1
0 0.845975 1
0.613642 0.78529 1
1 0.708904 1
1 0.723232 1
0 1 1
0 1 1
0.184909 1 1
0.873335 0.920409 0.964019
0.997665 0.902419 0.961608
0 1 1
0 1 1
0.137987 1 1
0.80676 0.996719 0.94081
0.945998 0.972519 0.926863
