darkroom/assets/luts/suse7-slog3-heavy.cube
TITLE "SUSE7 S-Log3 (Heavy)"
# Preset LUT for Lolly — a Sony S-Log3 "heavy" colour grade.
# Created by Peter Chamalian (Director of Photography & Editor), SUSE, September 2025.
# © 2025 SUSE. Licensed CC BY 4.0 — https://creativecommons.org/licenses/by/4.0/
# Attribution required: credit "SUSE · Peter Chamalian". See NOTICE.md.
# Built for Sony S-Log3 footage. Authored in DaVinci Resolve; 65³ Adobe/IRIDAS .cube.
LUT_3D_SIZE 9
0 0.00440986 0
0.0560616 0.00195315 0
0.148104 0 0
0.386679 0 0
0.67631 0 0
0.896773 0 0
0.999023 0 0
1 0 0
1 0 0
0 0.0513161 0
0.0425269 0.046891 0
0.145022 0.0386206 0
0.409751 0 0
0.705028 0 0
0.919615 0 0
1 0 0
1 0 0
1 0 0
0 0.127672 0
0.00894179 0.126436 0
0.124651 0.131472 0
0.415183 0.0998245 0
0.722194 0.0520943 0
0.955154 0.0416571 0
1 0.070985 0
1 0.118914 0
1 0.174044 0
0 0.335119 0
0 0.363256 0
0.0284733 0.362844 0
0.349477 0.354009 0
0.663417 0.338903 0
0.905409 0.340291 0
1 0.370275 0
1 0.417578 0
1 0.472145 0
0 0.603677 0
0 0.66775 0
0 0.655497 0
0.286915 0.624048 0
0.602243 0.609873 0
0.842756 0.613809 0
0.972869 0.645808 0
1 0.687953 0
1 0.730327 0
0 0.880339 0
0 0.940627 0
0 0.929564 0
0.28072 0.869154 0
0.599069 0.847913 0
0.828702 0.838941 0
0.941436 0.851423 0
1 0.870604 0
1 0.890013 0
0 1 0
0 1 0
0 1 0
0.342336 1 0
0.642512 0.985824 0
0.848203 0.960174 0
0.945754 0.957702 0
0.998138 0.962966 0
1 0.970077 0
0 1 0
0 1 0
0 1 0
0.403128 1 0
0.686213 1 0
0.868696 1 0
0.95494 1 0
1 1 0
1 1 0
0 1 0
0 1 0
0 1 0
0.452018 1 0.0201267
0.721248 1 0
0.88455 1 0
0.961715 1 0
1 1 0
1 1 0
0 0.0112612 0.0510414
0.0616159 0.000488289 0.0531624
0.154955 0 0.0332036
0.376059 0 0
0.672724 0 0
0.90222 0 0
1 0 0
1 0 0
1 0 0
0 0.0521248 0.0410468
0.0428626 0.0476692 0.0348211
0.154391 0.0383764 0.0287938
0.404273 0.0135195 0
0.712383 0 0
0.931563 0 0
1 0 0
1 0 0
1 0 0
0 0.130846 0
0 0.145953 0
0.136141 0.141421 0.0099031
0.433738 0.11342 0
0.747097 0.0694896 0
0.98201 0.0651255 0
1 0.0976577 0
1 0.146807 0
1 0.200763 0.0325933
0 0.352865 0
0 0.402594 0
0.0315557 0.394598 0
0.376852 0.381781 0
0.691173 0.365637 0
0.92929 0.365667 0
1 0.397711 0
1 0.445808 0
1 0.500023 0
0 0.638773 0
0 0.710857 0
0 0.70074 0
0.310216 0.651652 0
0.629526 0.637476 0
0.867048 0.641215 0
0.994034 0.671656 0
1 0.710719 0
1 0.748989 0
0 0.914382 0
0 0.981979 0
0 0.976883 0
0.30309 0.892592 0
0.620386 0.867735 0
0.844617 0.855268 0
0.953506 0.864683 0
1 0.881209 0
1 0.898054 0
0 1 0
0 1 0
0 1 0
0.354269 1 0.0166476
0.653925 0.994339 0
0.855833 0.967102 0
0.950896 0.963012 0
1 0.96669 0
1 0.972763 0
0 1 0
0 1 0
0 1 0
0.406424 1 0.0601205
0.689937 1 0
0.870832 1 0
0.956497 1 0
1 1 0
1 1 0
0 1 0
0 1 0
0 1 0
0.449836 1 0.0838636
0.720378 1 0.0118105
0.88368 1 0
0.961196 1 0
1 1 0
1 1 0
0 0.0295567 0.158556
0.0422827 0.0318456 0.148913
0.155917 0 0.141146
0.378317 0 0.0910048
0.657679 0 0.0250553
0.901518 0 0
1 0 0
1 0 0
1 0 0
0 0.0588083 0.159426
0.0324712 0.0748608 0.143404
0.161654 0.036347 0.148547
0.416266 0.00497444 0.101106
0.719493 0 0.0364996
0.944228 0 0
1 0 0
1 0 0.0246738
1 0 0.0691386
0 0.127428 0.11194
0 0.14934 0.136919
0.138949 0.147127 0.128832
0.456397 0.114992 0.100969
0.770642 0.0783703 0.0677348
1 0.0781872 0.0675212
1 0.112139 0.0999161
1 0.160159 0.145663
1 0.211002 0.194308
0 0.35407 0
0 0.422354 0
0 0.452476 0
0.394446 0.399878 0.0489204
0.711238 0.381033 0.0347448
0.950057 0.380819 0.0361639
1 0.413733 0.0657206
1 0.461234 0.1066
1 0.513359 0.151431
0 0.657252 0
0 0.734615 0
0 0.760113 0
0.32079 0.670558 0.0454719
0.646876 0.655421 0
0.884169 0.657618 0
1 0.685466 0.0208286
1 0.720821 0.050782
1 0.754665 0.0790875
0 0.934035 0
0 1 0
0 1 0
0.30663 0.907042 0.086183
0.62858 0.877913 0.0488441
0.851423 0.862287 0
0.957748 0.869032 0
1 0.882765 0
1 0.897047 0.0180056
0 1 0
0 1 0
0 1 0
0.344427 1 0.138216
0.65127 0.996094 0.0966659
0.854307 0.966827 0.0183719
0.949142 0.961135 0
0.999054 0.96347 0
1 0.968261 0
0 1 0
0 1 0
0 1 0
0.387137 1 0.172
0.680644 1 0.127184
0.864317 1 0.0548867
0.950835 1 0
0.995529 1 0
1 1 0
0 1 0.0305028
0 1 0.0395361
0 1 0.0113375
0.425086 1 0.199329
0.70663 1 0.148119
0.873823 1 0.0827344
0.952651 1 0.0208133
0.995148 1 0
1 1 0
0 0.145571 0.429938
0.0372931 0.162081 0.4065
0.126177 0.16611 0.350866
0.377768 0 0.353826
0.668315 0 0.309529
0.912825 0 0.251575
1 0 0.229694
1 0 0.235111
1 0 0.257237
0 0.16054 0.425528
0.025452 0.183154 0.416754
0.136477 0.199481 0.372824
0.425711 0.0150301 0.402029
0.739635 0 0.359945
0.963668 0 0.319677
1 0 0.324773
1 0 0.358938
1 0 0.413443
0 0.174792 0.410132
0 0.214389 0.437201
0.119356 0.254108 0.427405
0.477989 0.1205 0.455711
0.800992 0.0597391 0.412512
1 0.0633707 0.404379
1 0.0979477 0.436805
1 0.144396 0.484825
1 0.193805 0.53666
0 0.33492 0.318471
0 0.405371 0.389075
0 0.447074 0.431815
0.382712 0.398367 0.378393
0.72723 0.370596 0.352026
0.96878 0.371359 0.352544
1 0.404517 0.383978
1 0.451209 0.428351
1 0.501488 0.476371
0 0.640421 0.205982
0 0.712093 0.290471
0 0.746105 0.331777
0.143053 0.716289 0.233982
0.6448 0.653758 0.296315
0.887449 0.652476 0.298177
1 0.677409 0.323125
1 0.7093 0.354284
1 0.740017 0.384314
0 0.924804 0.137392
0 1 0.188266
0 1 0.219089
0 0.975128 0.189639
0.608454 0.870771 0.319051
0.840238 0.851453 0.268803
0.94699 0.855329 0.274861
1 0.866987 0.291218
1 0.87924 0.311376
0 1 0.201221
0 1 0.260899
0 1 0.262043
0 1 0.211612
0.621302 0.982956 0.347707
0.834287 0.950927 0.293645
0.931472 0.943999 0.26772
0.981674 0.945052 0.272633
1 0.948852 0.283726
0 1 0.308324
0 1 0.337575
0 1 0.310353
0 1 0.24271
0.643763 1 0.375692
0.83949 1 0.319005
0.929763 0.991073 0.278279
0.975814 0.988296 0.272999
1 0.988586 0.276799
0 1 0.39556
0 1 0.401602
0 1 0.351431
0 1 0.271931
0.665675 1 0.399741
0.846204 1 0.341115
0.929381 1 0.300359
0.97377 1 0.280125
1 1 0.278569
0 0.280583 0.697749
0.0283818 0.289784 0.685969
0.125902 0.29456 0.638682
0.332525 0.192157 0.621729
0.673411 0 0.639597
0.928222 0 0.594598
1 0 0.569619
1 0 0.574121
1 0 0.597009
0 0.295369 0.721187
0.0267033 0.31548 0.732372
0.14345 0.33196 0.703761
0.389914 0.237613 0.708446
0.746563 0 0.711711
0.983413 0 0.673259
1 0 0.674464
1 0 0.708965
1 0 0.765728
0 0.303822 0.733959
0 0.345006 0.783017
0.148425 0.383093 0.788281
0.430594 0.32845 0.778637
0.813611 0.139742 0.776532
1 0.0424811 0.764614
1 0.07776 0.790295
1 0.123339 0.834348
1 0.172839 0.885328
0 0.359152 0.692271
0 0.440589 0.746166
0 0.494972 0.762493
0.344717 0.484581 0.697078
0.746624 0.364904 0.714199
0.998047 0.352316 0.695628
1 0.386603 0.720394
1 0.433127 0.761746
1 0.482765 0.807248
0 0.628489 0.603632
0 0.704051 0.677668
0 0.743877 0.717266
0 0.710597 0.682475
0.628656 0.649256 0.618189
0.898436 0.639582 0.607874
1 0.662303 0.629435
1 0.691615 0.657267
1 0.720455 0.684688
0 0.900587 0.554421
0 0.973648 0.640375
0 1 0.675639
0 0.954299 0.633127
0.47866 0.895399 0.527214
0.826673 0.838422 0.555947
0.936507 0.839399 0.560586
0.994308 0.849027 0.575677
1 0.859998 0.594369
0 1 0.661067
0 1 0.721813
0 1 0.72549
0 1 0.655695
0.431434 1 0.520485
0.809155 0.934783 0.570672
0.913436 0.925933 0.546273
0.964553 0.92607 0.550072
0.997253 0.928923 0.56025
0 1 0.76994
0 1 0.797925
0 1 0.774197
0.0172274 1 0.685206
0.438468 1 0.534142
0.808759 0.984787 0.589868
0.906935 0.971984 0.555901
0.955566 0.968826 0.546654
0.985687 0.968444 0.549737
0 1 0.848539
0 1 0.853513
0 1 0.810086
0.0479591 1 0.710735
0.454475 1 0.552605
0.81297 1 0.608484
0.903944 1 0.571939
0.952316 0.99588 0.551553
0.980774 0.994171 0.549142
0 0.406821 0.98204
0.0617533 0.41532 0.977371
0.154208 0.416999 0.937881
0.35668 0.423362 0.828321
0.651926 0.181537 0.904295
0.924849 0 0.882887
1 0 0.867308
1 0 0.865171
1 0 0.878187
0 0.422889 1
0.071397 0.440024 1
0.178958 0.451667 1
0.410086 0.451255 0.911986
0.725216 0.229129 0.95787
0.981353 0 0.936553
1 0 0.949386
1 0 0.976028
1 0 1
0 0.42916 1
0.0433661 0.463096 1
0.186374 0.495125 1
0.459113 0.518715 0.966705
0.790036 0.352682 1
1 0.190021 1
1 0.0680095 1
1 0.113375 1
1 0.165576 1
0 0.443732 0.96434
0 0.518517 1
0 0.571603 1
0.357107 0.589868 0.919783
0.707683 0.489998 0.940658
1 0.382666 0.964065
1 0.376593 0.991669
1 0.423636 1
1 0.473167 1
0 0.646784 0.871382
0 0.725292 0.921965
0 0.770138 0.948562
0 0.742275 0.913695
0.593927 0.696849 0.860395
0.916564 0.631098 0.879194
1 0.648066 0.884504
1 0.676463 0.898314
1 0.704845 0.91162
0 0.90164 0.868421
0 0.976837 0.94136
0 1 0.971695
0 0.958358 0.922133
0.356069 0.89189 0.850675
0.807416 0.831235 0.792035
0.939559 0.825132 0.784588
0.997681 0.833707 0.79263
1 0.844175 0.80267
0 1 0.938704
0 1 0.98674
0 1 0.985794
0 1 0.915175
0.341054 1 0.826795
0.757321 0.936584 0.753933
0.899092 0.914 0.754101
0.955123 0.912062 0.755779
0.989639 0.914244 0.761578
0 1 1
0 1 1
0 1 1
0 1 0.922362
0.374212 1 0.825391
0.735973 0.992645 0.743618
0.885832 0.959823 0.758572
0.940993 0.955154 0.747097
0.973037 0.954147 0.748135
0 1 1
0 1 1
0 1 1
0 1 0.929427
0.409293 1 0.827482
0.729976 1 0.74345
0.881483 0.988525 0.765042
0.933516 0.982391 0.750103
0.966018 0.980041 0.74432
0.0329442 0.473686 1
0.101396 0.480888 1
0.181064 0.482338 1
0.389471 0.520012 0.945876
0.642832 0.283284 1
0.913146 0.0555734 1
1 0 0.992645
1 0 0.998703
1 0 1
0.0290837 0.486748 1
0.109148 0.500786 1
0.203006 0.51043 1
0.439704 0.543267 1
0.720928 0.31545 1
0.975372 0.167727 1
1 0.0299229 1
1 0 1
1 0 1
0 0.491402 1
0.0835279 0.521675 1
0.210178 0.551217 1
0.488182 0.596521 1
0.793011 0.424842 1
1 0.330282 1
1 0.240101 1
1 0.189364 1
1 0.185367 1
0 0.498863 1
0 0.569635 1
0.0178531 0.619913 1
0.374411 0.647593 1
0.704845 0.544488 1
1 0.471809 1
1 0.432349 1
1 0.438926 1
1 0.478355 1
0 0.675044 0.998535
0 0.752621 1
0 0.798199 1
0 0.779156 1
0.592935 0.736706 0.962737
0.902861 0.675105 0.982727
1 0.658305 1
1 0.675303 1
1 0.702449 1
0 0.919341 0.98883
0 0.991897 1
0 1 1
0 0.967819 1
0.317784 0.901961 0.971878
0.79118 0.845167 0.910567
0.94696 0.819226 0.911681
1 0.827024 0.908293
1 0.837293 0.910307
0 1 1
0 1 1
0 1 1
0 1 1
0.206989 1 0.960616
0.701259 0.941497 0.890349
0.885618 0.910857 0.868086
0.958312 0.904738 0.860212
0.993088 0.906645 0.862181
0 1 1
0 1 1
0 1 1
0 1 1
0.217884 1 0.949966
0.692592 0.992004 0.87187
0.866041 0.959228 0.851423
0.932876 0.950454 0.842496
0.969528 0.947997 0.841917
0 1 1
0 1 1
0 1 1
0 1 1
0.26511 1 0.943771
0.696773 1 0.864637
0.853468 0.990906 0.84271
0.921904 0.97789 0.843244
0.958526 0.974746 0.835355
0.0585031 0.507225 1
0.122683 0.513588 1
0.196292 0.514702 1
0.401892 0.549279 1
0.642298 0.326543 1
0.911116 0.14255 1
1 0 1
1 0 1
1 0 1
0.0540322 0.518837 1
0.129671 0.531929 1
0.218051 0.540993 1
0.459663 0.583902 1
0.725917 0.355779 1
0.98056 0.229313 1
1 0.156741 1
1 0.108629 1
1 0.0776532 1
0.00222782 0.523751 1
0.107469 0.553429 1
0.226261 0.582727 1
0.510246 0.635279 1
0.805631 0.462837 1
1 0.378439 1
1 0.321248 1
1 0.285084 1
1 0.282155 1
0 0.533303 1
0 0.603464 1
0.042771 0.651377 1
0.390661 0.680186 1
0.713329 0.576288 1
1 0.517037 1
1 0.485756 1
1 0.4907 1
1 0.513085 1
0 0.700923 1
0 0.778103 1
0 0.823331 1
0.0270848 0.806043 1
0.602014 0.764096 1
0.902785 0.702312 1
1 0.687114 1
1 0.691508 1
1 0.706294 1
0 0.941253 1
0 1 1
0 1 1
0 0.979797 1
0.317891 0.914366 1
0.787579 0.859358 0.961135
0.940246 0.831724 0.965652
1 0.826642 0.971481
1 0.835874 0.969711
0 1 1
0 1 1
0 1 1
0 1 1
0.215427 1 1
0.694774 0.94284 0.959152
0.876173 0.91426 0.932586
0.959121 0.90193 0.926955
0.996277 0.903243 0.922637
0 1 1
0 1 1
0 1 1
0 1 1
0.144961 1 1
0.660029 0.99501 0.943358
0.835355 0.964111 0.908492
0.923278 0.949386 0.904768
0.972473 0.943923 0.89691
0 1 1
0 1 1
0 1 1
0 1 1
0.180987 1 1
0.657465 1 0.932555
0.8262 0.993805 0.89369
0.911986 0.9776 0.894499
0.952758 0.972961 0.885481
0.0762493 0.527687 1
0.136233 0.533669 1
0.206821 0.534386 1
0.413001 0.56846 1
0.646876 0.349828 1
0.913191 0.181582 1
1 0.0491798 1
1 0 1
1 0 1
0.0714122 0.538903 1
0.143175 0.551858 1
0.230198 0.560998 1
0.475898 0.607431 1
0.736416 0.37995 1
0.99025 0.264698 1
1 0.211109 1
1 0.192844 1
1 0.179156 1
0.0199435 0.544747 1
0.12369 0.575006 1
0.239765 0.605005 1
0.529641 0.659449 1
0.822461 0.487861 1
1 0.408774 1
1 0.366247 1
1 0.338598 1
1 0.338613 1
0 0.559701 1
0 0.630152 1
0.0596933 0.675395 1
0.40589 0.704433 1
0.726314 0.599557 1
1 0.547707 1
1 0.522057 1
1 0.527459 1
1 0.547295 1
0 0.724254 1
0 0.802258 1
0 0.845975 1
0.0591287 0.827741 1
0.613642 0.78529 1
0.906218 0.722805 1
1 0.708904 1
1 0.712047 1
1 0.723232 1
0 0.962707 1
0 1 1
0 1 1
0 0.990921 1
0.332052 0.924636 1
0.789029 0.870588 0.992081
0.936355 0.842908 0.997696
1 0.836423 1
1 0.837156 1
0 1 1
0 1 1
0 1 1
0 1 1
0.184909 1 1
0.688258 0.948852 0.993439
0.873335 0.920409 0.964019
0.956207 0.905257 0.962875
0.997665 0.902419 0.961608
0 1 1
0 1 1
0 1 1
0 1 1
0.141741 1 1
0.652323 0.995468 0.985718
0.82443 0.965713 0.956603
0.916579 0.949996 0.944991
0.970382 0.942306 0.941894
0 1 1
0 1 1
0 1 1
0 1 1
0.137987 1 1
0.639902 1 0.974609
0.80676 0.996719 0.94081
0.894362 0.980789 0.922393
0.945998 0.972519 0.926863
