darkroom/assets/luts/suse7-slog3-heavy.cube
TITLE "SUSE7 S-Log3 (Heavy)"
# Preset LUT for Lolly — a Sony S-Log3 "heavy" colour grade.
# Created by Peter Chamalian (Director of Photography & Editor), SUSE, September 2025.
# © 2025 SUSE. Licensed CC BY 4.0 — https://creativecommons.org/licenses/by/4.0/
# Attribution required: credit "SUSE · Peter Chamalian". See NOTICE.md.
# Built for Sony S-Log3 footage. Authored in DaVinci Resolve; 65³ Adobe/IRIDAS .cube.
LUT_3D_SIZE 65
0 0.00440986 0
0.0090486 0.00355535 0
0.0166629 0.0031281 0
0.0233005 0.00292973 0
0.0295415 0.00282292 0
0.0357061 0.00273136 0
0.0420539 0.00257877 0
0.0487678 0.00233463 0
0.0560616 0.00195315 0
0.0642252 0.00137331 0
0.0724804 0.000640879 0
0.0799115 0 0
0.0898146 0 0
0.101762 0 0
0.11519 0 0
0.130541 0 0
0.148104 0 0
0.168124 0 0
0.190845 0 0
0.215946 0 0
0.245792 0 0
0.279179 0 0
0.315526 0 0
0.351232 0 0
0.386679 0 0
0.422705 0 0
0.458396 0 0
0.493446 0 0
0.529686 0 0
0.566552 0 0
0.603571 0 0
0.640299 0 0
0.67631 0 0
0.711162 0 0
0.744488 0 0
0.775982 0 0
0.80531 0 0
0.832059 0 0
0.856092 0 0
0.877485 0 0
0.896773 0 0
0.914305 0 0
0.93019 0 0
0.944564 0 0
0.957671 0 0
0.969482 0 0
0.980285 0 0
0.990066 0 0
0.999023 0 0
1 0 0
1 0 0
1 0 0
1 0 0
1 0 0
1 0 0
1 0 0
1 0 0
1 0 0
1 0 0
1 0 0
1 0 0
1 0 0
1 0 0
1 0 0
1 0 0
0 0.0101625 0
0.00550851 0.00953689 0
0.0134432 0.00901808 0
0.0204776 0.00868238 0
0.0270237 0.0084535 0
0.0334173 0.00823987 0
0.0399176 0.00801099 0
0.0467689 0.00770581 0
0.0542 0.00726329 0
0.0624552 0.00662242 0
0.0708171 0.00584421 0
0.0783246 0.00500496 0
0.0882429 0.00386053 0
0.100221 0.0024567 0
0.113725 0.000808728 0
0.129168 0 0
0.146838 0 0
0.167041 0 0
0.189303 0 0
0.215503 0 0
0.24593 0 0
0.279973 0 0
0.316777 0 0
0.35256 0 0
0.388296 0 0
0.424582 0 0
0.460273 0 0
0.495415 0 0
0.531701 0 0
0.568612 0 0
0.605661 0 0
0.642435 0 0
0.678355 0 0
0.713268 0 0
0.746532 0 0
0.777905 0 0
0.80708 0 0
0.833631 0 0
0.857603 0 0
0.878965 0 0
0.898161 0 0
0.915541 0 0
0.931365 0 0
0.945663 0 0
0.95874 0 0
0.970626 0 0
0.981353 0 0
0.991073 0 0
1 0 0
1 0 0
1 0 0
1 0 0
1 0 0
1 0 0
1 0 0
1 0 0
1 0 0
1 0 0
1 0 0
1 0 0
1 0 0
1 0 0
1 0 0
1 0 0
1 0 0
0 0.01561 0
0.00320439 0.0149538 0
0.0108492 0.0144961 0
0.0179599 0.0141451 0
0.0247044 0.0138399 0
0.031281 0.0135653 0
0.0379644 0.0132753 0
0.0449683 0.0129091 0
0.0525368 0.0124208 0
0.0609293 0.0117494 0
0.0694133 0.010956 0
0.0772869 0.0101015 0
0.0870069 0.00892653 0
0.0990768 0.00750744 0
0.112688 0.00584421 0
0.128252 0.00390631 0
0.146105 0.00169375 0
0.165942 0 0
0.189044 0 0
0.215763 0 0
0.246769 0 0
0.281315 0 0
0.318563 0 0
0.354376 0 0
0.390402 0 0
0.42678 0 0
0.46244 0 0
0.497704 0 0
0.53402 0 0
0.570977 0 0
0.608042 0 0
0.644739 0 0
0.680644 0 0
0.715419 0 0
0.748577 0 0
0.779797 0 0
0.808743 0 0
0.835172 0 0
0.858824 0 0
0.879927 0 0
0.899016 0 0
0.916335 0 0
0.932021 0 0
0.946242 0 0
0.95935 0 0
0.971054 0 0
0.981796 0 0
0.991424 0 0
1 0 0
1 0 0
1 0 0
1 0 0
1 0 0
1 0 0
1 0 0
1 0 0
1 0 0
1 0 0
1 0 0
1 0 0
1 0 0
1 0 0
1 0 0
1 0 0
1 0 0
0 0.0211337 0
0.00163272 0.0200351 0
0.00881971 0.0196994 0
0.0158389 0.0193637 0
0.0225986 0.0190738 0
0.0293126 0.0187839 0
0.0361334 0.0184634 0
0.0433051 0.0180667 0
0.0510262 0.0175631 0
0.0595712 0.0168765 0
0.0682078 0.0160678 0
0.0761883 0.0152132 0
0.0860304 0.014023 0
0.0982071 0.0126192 0
0.111971 0.010956 0
0.127291 0.00915541 0
0.145327 0.00694286 0
0.165911 0.00445563 0
0.189303 0.00175479 0
0.216617 0 0
0.248188 0 0
0.283238 0 0
0.320943 0 0
0.356786 0 0
0.393072 0 0
0.429618 0 0
0.465263 0 0
0.500618 0 0
0.537057 0 0
0.574044 0 0
0.611124 0 0
0.647868 0 0
0.683757 0 0
0.718395 0 0
0.751522 0 0
0.782605 0 0
0.811414 0 0
0.837598 0 0
0.860914 0 0
0.881865 0 0
0.900801 0 0
0.918059 0 0
0.933715 0 0
0.948028 0 0
0.960922 0 0
0.972656 0 0
0.983398 0 0
0.993149 0 0
1 0 0
1 0 0
1 0 0
1 0 0
1 0 0
1 0 0
1 0 0
1 0 0
1 0 0
1 0 0
1 0 0
1 0 0
1 0 0
1 0 0
1 0 0
1 0 0
1 0 0
0 0.0267491 0
0.000366217 0.024979 0
0.00721752 0.0247349 0
0.0139773 0.0244907 0
0.0207065 0.0242313 0
0.0274357 0.0239719 0
0.0343786 0.0236667 0
0.0416876 0.0232853 0
0.0495766 0.0227817 0
0.0583047 0.0220951 0
0.0671092 0.0212863 0
0.075227 0.0204471 0
0.0851911 0.0193027 0
0.0975662 0.0178988 0
0.111177 0.0163424 0
0.127077 0.014435 0
0.145327 0.0122377 0
0.166125 0.00981155 0
0.189975 0.00704967 0
0.217853 0.0037232 0
0.250004 0 0
0.285557 0 0
0.32369 0 0
0.359594 0 0
0.396216 0 0
0.432868 0 0
0.468513 0 0
0.503975 0 0
0.54052 0 0
0.57763 0 0
0.614893 0 0
0.651606 0 0
0.68751 0 0
0.722133 0 0
0.755169 0 0
0.786145 0 0
0.814786 0 0
0.840696 0 0
0.863844 0 0
0.884627 0 0
0.903563 0 0
0.920684 0 0
0.936324 0 0
0.950515 0 0
0.963455 0 0
0.975265 0 0
0.985916 0 0
0.995789 0 0
1 0 0
1 0 0
1 0 0
1 0 0
1 0 0
1 0 0
1 0 0
1 0 0
1 0 0
1 0 0
1 0 0
1 0 0
1 0 0
1 0 0
1 0 0
1 0 0
1 0 0
0 0.0324865 0
0 0.0300298 0
0.00578317 0.0297856 0
0.012314 0.0296178 0
0.0188907 0.0294652 0
0.0256352 0.0292668 0
0.0326238 0.0290074 0
0.0400397 0.0286717 0
0.0480812 0.0281987 0
0.057023 0.0275578 0
0.0659953 0.0267796 0
0.0742809 0.0259709 0
0.0842145 0.0248875 0
0.0967269 0.0235447 0
0.11078 0.0219425 0
0.126909 0.0200809 0
0.145388 0.0179294 0
0.166506 0.0155184 0
0.190814 0.012726 0
0.219303 0.00929274 0
0.251987 0.00505074 0
0.288075 0 0
0.32665 0 0
0.362631 0 0
0.399573 0 0
0.436347 0 0
0.472053 0 0
0.507698 0 0
0.54435 0 0
0.581582 0 0
0.618875 0 0
0.655695 0 0
0.691661 0 0
0.72636 0 0
0.759289 0 0
0.790173 0 0
0.818586 0 0
0.844404 0 0
0.867308 0 0
0.888045 0 0
0.906889 0 0
0.92398 0 0
0.939651 0 0
0.953902 0 0
0.966781 0 0
0.978637 0 0
0.98938 0 0
0.999344 0 0
1 0 0
1 0 0
1 0 0
1 0 0
1 0 0
1 0 0
1 0 0
1 0 0
1 0 0
1 0 0
1 0 0
1 0 0
1 0 0
1 0 0
1 0 0
1 0 0
1 0 0
0 0.0383917 0
0 0.035462 0
0.00433356 0.0349584 0
0.0106813 0.0349126 0
0.0171054 0.0348669 0
0.0237736 0.0347601 0
0.0307927 0.0346075 0
0.0383001 0.0343481 0
0.0463874 0.0339666 0
0.0554665 0.0333867 0
0.0646372 0.0326696 0
0.0730755 0.0319066 0
0.0833753 0.0308385 0
0.0960555 0.0295415 0
0.110338 0.0280003 0
0.12665 0.0261997 0
0.145388 0.0241245 0
0.166903 0.0217288 0
0.191714 0.0189364 0
0.220752 0.0154574 0
0.254017 0.0111238 0
0.290593 0.00576791 0
0.329625 0 0
0.365759 0 0
0.403021 0 0
0.439887 0 0
0.475654 0 0
0.511513 0 0
0.548333 0 0
0.585687 0 0
0.623087 0 0
0.660029 0 0
0.696025 0 0
0.730694 0 0
0.763622 0 0
0.794446 0 0
0.822828 0 0
0.848463 0 0
0.87126 0 0
0.891844 0 0
0.910735 0 0
0.927962 0 0
0.943603 0 0
0.957794 0 0
0.970871 0 0
0.982635 0 0
0.9935 0 0
1 0 0
1 0 0
1 0 0
1 0 0
1 0 0
1 0 0
1 0 0
1 0 0
1 0 0
1 0 0
1 0 0
1 0 0
1 0 0
1 0 0
1 0 0
1 0 0
1 0 0
1 0 0
0 0.0446174 0
0 0.041413 0
0.00271611 0.0404517 0
0.0089723 0.0405127 0
0.0152743 0.0405737 0
0.0218662 0.0405737 0
0.0288243 0.0405432 0
0.036347 0.0404059 0
0.0446021 0.0401312 0
0.0538338 0.0396582 0
0.0632029 0.0390478 0
0.0718242 0.0383612 0
0.0823224 0.0373693 0
0.0951858 0.0361486 0
0.109667 0.034699 0
0.126238 0.0329747 0
0.145296 0.0309758 0
0.167269 0.0285954 0
0.192569 0.025803 0
0.222156 0.0223087 0
0.255985 0.0179294 0
0.293095 0.0125277 0
0.332509 0.00578317 0
0.368933 0 0
0.406424 0 0
0.443458 0 0
0.479286 0 0
0.515343 0 0
0.552407 0 0
0.589899 0 0
0.62739 0 0
0.664469 0 0
0.700557 0 0
0.735256 0 0
0.768185 0 0
0.798978 0 0
0.827222 0 0
0.852689 0 0
0.875486 0 0
0.896162 0 0
0.915038 0 0
0.932311 0 0
0.948028 0 0
0.962341 0 0
0.975418 0 0
0.987503 0 0
0.99852 0 0
1 0 0
1 0 0
1 0 0
1 0 0
1 0 0
1 0 0
1 0 0
1 0 0
1 0 0
1 0 0
1 0 0
1 0 0
1 0 0
1 0 0
1 0 0
1 0 0
1 0 0
1 0 0
0 0.0513161 0
0 0.0479896 0
0.000549325 0.0464942 0
0.00714122 0.0464637 0
0.0133211 0.0466926 0
0.0197604 0.0468757 0
0.0266423 0.0469978 0
0.0341802 0.047013 0
0.0425269 0.046891 0
0.0518807 0.0465858 0
0.0614328 0.0460975 0
0.0702525 0.0455177 0
0.0809491 0.0446326 0
0.0939956 0.043534 0
0.108705 0.0421912 0
0.125597 0.0405585 0
0.145022 0.0386206 0
0.167422 0.0363165 0
0.193225 0.0335393 0
0.223407 0.030045 0
0.257801 0.0256504 0
0.29543 0.0201877 0
0.335195 0.0134279 0
0.371969 0.00608835 0
0.409751 0 0
0.446921 0 0
0.48278 0 0
0.519036 0 0
0.556268 0 0
0.593957 0 0
0.631632 0 0
0.668849 0 0
0.705028 0 0
0.739834 0 0
0.772747 0 0
0.803464 0 0
0.831708 0 0
0.857114 0 0
0.879835 0 0
0.900664 0 0
0.919615 0 0
0.937057 0 0
0.952926 0 0
0.967391 0 0
0.980606 0 0
0.99292 0 0
1 0 0
1 0 0
1 0 0
1 0 0
1 0 0
1 0 0
1 0 0
1 0 0
1 0 0
1 0 0
1 0 0
1 0 0
1 0 0
1 0 0
1 0 0
1 0 0
1 0 0
1 0 0
1 0 0
0 0.0585184 0
0 0.0552834 0
0 0.0534218 0
0.00479133 0.0530861 0
0.0109712 0.0534524 0
0.0173495 0.0538186 0
0.0241855 0.054139 0
0.0316625 0.0543679 0
0.0400397 0.0544442 0
0.0495613 0.0543374 0
0.0592813 0.0540169 0
0.0682841 0.0535744 0
0.0791638 0.052842 0
0.0924086 0.0518807 0
0.107378 0.05066 0
0.12459 0.0491493 0
0.144427 0.0472877 0
0.167269 0.0450599 0
0.193561 0.0423438 0
0.224308 0.0389105 0
0.259236 0.0345006 0
0.297444 0.0290074 0
0.337591 0.0222171 0
0.374716 0.0148623 0
0.412741 0.00646983 0
0.450126 0 0
0.486061 0 0
0.522484 0 0
0.559899 0 0
0.597818 0 0
0.635599 0 0
0.672969 0 0
0.709255 0 0
0.744121 0 0
0.777142 0 0
0.807904 0 0
0.836118 0 0
0.861585 0 0
0.884489 0 0
0.90544 0 0
0.924651 0 0
0.942214 0 0
0.958328 0 0
0.973053 0 0
0.986664 0 0
0.999207 0 0
1 0 0
1 0 0
1 0 0
1 0 0
1 0 0
1 0 0
1 0 0
1 0 0
1 0 0
1 0 0
1 0 0
1 0 0
1 0 0
1 0 0
1 0 0
1 0 0
1 0 0
1 0 0
1 0 0
0 0.0658427 0
0 0.0627604 0
0 0.0606241 0
0.00177005 0.0599374 0
0.00849927 0.0602274 0
0.014847 0.0607919 0
0.0216373 0.0613107 0
0.029099 0.0617533 0
0.0374609 0.0620737 0
0.0470436 0.0621805 0
0.0569009 0.0620737 0
0.0660563 0.0617838 0
0.0771649 0.0612345 0
0.0905623 0.0604105 0
0.105776 0.0593423 0
0.123293 0.0579385 0
0.14345 0.0562142 0
0.166705 0.054078 0
0.193469 0.0514382 0
0.224735 0.0480201 0
0.260182 0.0436713 0
0.298924 0.0381323 0
0.339391 0.0313573 0
0.376898 0.024033 0
0.415076 0.0157931 0
0.452628 0.00701915 0
0.488609 0 0
0.525261 0 0
0.562829 0 0
0.6009 0 0
0.638926 0 0
0.676432 0 0
0.712917 0 0
0.747875 0 0
0.780987 0 0
0.811856 0 0
0.840146 0 0
0.865614 0 0
0.888808 0 0
0.909987 0 0
0.929549 0 0
0.947311 0 0
0.963714 0 0
0.978775 0 0
0.992691 0 0
1 0 0
1 0 0
1 0 0
1 0 0
1 0 0
1 0 0
1 0 0
1 0 0
1 0 0
1 0 0
1 0 0
1 0 0
1 0 0
1 0 0
1 0 0
1 0 0
1 0 0
1 0 0
1 0 0
1 0 0
0 0.0724956 0
0 0.0696422 0
0 0.0673686 0
0 0.0664378 0
0.00595102 0.0664988 0
0.0124514 0.0671702 0
0.0192264 0.0679026 0
0.026688 0.0685435 0
0.0350195 0.0690776 0
0.0446174 0.0694133 0
0.0545815 0.0695048 0
0.0638895 0.0693828 0
0.0754253 0.0690318 0
0.0886702 0.0683299 0
0.104051 0.0673991 0
0.121798 0.0661479 0
0.142275 0.0645304 0
0.16585 0.062501 0
0.193027 0.0599222 0
0.224689 0.0565805 0
0.260609 0.0522621 0
0.299794 0.0467536 0
0.340627 0.0399634 0
0.378332 0.0328222 0
0.416739 0.0247349 0
0.454383 0.0162203 0
0.49044 0.00782788 0
0.527245 0 0
0.565011 0 0
0.60325 0 0
0.641474 0 0
0.679103 0 0
0.715679 0 0
0.750835 0 0
0.784039 0 0
0.81503 0 0
0.843473 0 0
0.869184 0 0
0.892607 0 0
0.914046 0 0
0.933822 0 0
0.951858 0 0
0.968597 0 0
0.983856 0 0
0.998184 0 0
1 0 0
1 0 0
1 0 0
1 0 0
1 0 0
1 0 0
1 0 0
1 0 0
1 0 0
1 0 0
1 0 0
1 0 0
1 0 0
1 0 0
1 0 0
1 0 0
1 0 0
1 0 0
1 0 0
1 0 0
0 0.0805524 0
0 0.0781415 0
0 0.0758984 0
0 0.0746929 0
0.00195315 0.0745251 0
0.00921645 0.0751049 0
0.0160372 0.076051 0
0.0235294 0.0769513 0
0.0319066 0.0777447 0
0.0415198 0.0783551 0
0.0514992 0.078706 0
0.0609445 0.0788128 0
0.0727398 0.0786755 0
0.0860609 0.0782025 0
0.10164 0.0774243 0
0.119631 0.0763409 0
0.140414 0.074876 0
0.164385 0.0729839 0
0.191989 0.070573 0
0.224201 0.0673075 0
0.260639 0.0630808 0
0.300404 0.0576486 0
0.341527 0.0510262 0
0.379553 0.0440528 0
0.418219 0.0362097 0
0.455894 0.0281529 0
0.492134 0.0201114 0
0.529168 0.0115969 0
0.567086 0.00260929 0
0.605554 0 0
0.644022 0 0
0.681849 0 0
0.718639 0 0
0.754009 0 0
0.787427 0 0
0.818509 0 0
0.847089 0 0
0.873121 0 0
0.896803 0 0
0.918715 0 0
0.938766 0 0
0.957321 0 0
0.974365 0 0
0.990082 0 0
1 0 0
1 0 0
1 0 0
1 0 0
1 0 0
1 0 0
1 0 0
1 0 0
1 0 0
1 0 0
1 0 0
1 0 0
1 0 0
1 0 0
1 0 0
1 0 0
1 0.00181582 0
1 0.00753796 0
1 0.0141451 0
1 0.0201877 0
1 0.0266575 0
0 0.0893416 0
0 0.0873274 0
0 0.0852369 0
0 0.0839246 0
0 0.0835584 0
0.0047303 0.0839857 0
0.0121614 0.0849622 0
0.0196536 0.0864424 0
0.0280766 0.087541 0
0.037705 0.0884718 0
0.0477607 0.0890669 0
0.0572671 0.0893721 0
0.0692454 0.0894484 0
0.0827497 0.0891585 0
0.098497 0.0885481 0
0.116716 0.0876173 0
0.13785 0.086305 0
0.162219 0.0848554 0
0.190265 0.0826429 0
0.222995 0.0795758 0
0.260044 0.075227 0
0.300374 0.0699016 0
0.341848 0.0634775 0
0.380133 0.0567788 0
0.419013 0.0492561 0
0.456794 0.0416876 0
0.493156 0.0341497 0
0.530404 0.0261234 0
0.568597 0.0176242 0
0.607279 0.00886549 0
0.645869 0.000244144 0
0.68394 0 0
0.721035 0 0
0.756558 0 0
0.79028 0 0
0.82153 0 0
0.850507 0 0
0.876753 0 0
0.900938 0 0
0.923125 0 0
0.943618 0 0
0.962631 0 0
0.980026 0 0
0.996185 0 0
1 0 0
1 0 0
1 0 0
1 0 0
1 0 0
1 0 0
1 0 0
1 0 0
1 0 0
1 0 0
1 0.000198367 0
